N1      G21 (mm mode)
N2      G90 (abs mode)
N3      G94
N4      G0 Z2
N5      G0 X0 Y0
N6      T0 M6 (Milling Traces)
N7      (T0 D=0.3mm - PCB Milling Bit)
N8       G91
N9       G38.2Z-45F50
N10       G90
N11       G10 L20 P1 X0 Y0 Z0
N12       G91
N13       G0 Z+0.5
N14       G38.2Z-1.5F5
N15       G10 L20 P1 X0 Y0 Z0
N16       G90
N17       G0Z2F1000
N18       M3 S20000 (spindle on)
N19       F120.00
N20  G4 P1
N21  G00 X10.8292Y14.5090
N22  G01 Z-0.0700
N23  G01 X10.8622Y14.4525
N24  G01 X10.9774Y14.3016
N25  G01 X11.1063Y14.1727
N26  G01 X11.2571Y14.0575
N27  G01 X11.3137Y14.0245
N28  G01 X11.3137Y14.5090
N29  G01 X10.8292Y14.5090
N30  G00 Z2.0000
N31  G00 X10.8292Y15.9790
N32  G01 Z-0.0700
N33  G01 X11.3137Y15.9790
N34  G01 X11.3137Y16.4635
N35  G01 X11.2571Y16.4305
N36  G01 X11.1063Y16.3153
N37  G01 X10.9774Y16.1864
N38  G01 X10.8622Y16.0355
N39  G01 X10.8292Y15.9790
N40  G00 Z2.0000
N41  G00 X12.7837Y16.4635
N42  G01 Z-0.0700
N43  G01 X12.7837Y15.9790
N44  G01 X13.2682Y15.9790
N45  G01 X13.2339Y16.0378
N46  G01 X13.1220Y16.1863
N47  G01 X12.9929Y16.3138
N48  G01 X12.8402Y16.4305
N49  G01 X12.7837Y16.4635
N50  G00 Z2.0000
N51  G00 X12.7837Y14.5090
N52  G01 Z-0.0700
N53  G01 X12.7837Y14.0245
N54  G01 X12.8402Y14.0575
N55  G01 X12.9929Y14.1742
N56  G01 X13.1220Y14.3017
N57  G01 X13.1920Y14.3958
N58  G01 X13.2005Y14.4058
N59  G01 X13.2339Y14.4502
N60  G01 X13.2682Y14.5090
N61  G01 X12.7837Y14.5090
N62  G00 Z2.0000
N63  G00 X12.8277Y19.7160
N64  G01 Z-0.0700
N65  G01 X13.7018Y19.7160
N66  G01 X15.5682Y17.8497
N67  G01 X15.5682Y14.6070
N68  G01 X15.5711Y14.5491
N69  G01 X15.5798Y14.4905
N70  G01 X15.5942Y14.4330
N71  G01 X15.6165Y14.3718
N72  G01 X15.6400Y14.3224
N73  G01 X15.6707Y14.2711
N74  G01 X15.7060Y14.2235
N75  G01 X15.7452Y14.1801
N76  G01 X18.2863Y11.6391
N77  G01 X18.3343Y11.5960
N78  G01 X18.3782Y11.5636
N79  G01 X18.4253Y11.5352
N80  G01 X18.4832Y11.5074
N81  G01 X18.5402Y11.4870
N82  G01 X18.5977Y11.4727
N83  G01 X18.6517Y11.4645
N84  G01 X18.7162Y11.4610
N85  G01 X39.4193Y11.4610
N86  G01 X40.0157Y10.8647
N87  G01 X40.0157Y4.4135
N88  G01 X39.9603Y4.3631
N89  G01 X39.8983Y4.2947
N90  G01 X39.8437Y4.2211
N91  G01 X39.7963Y4.1420
N92  G01 X39.7570Y4.0590
N93  G01 X39.7257Y3.9716
N94  G01 X39.7035Y3.8826
N95  G01 X39.6900Y3.7920
N96  G01 X39.6855Y3.6997
N97  G01 X39.6855Y2.0233
N98  G01 X39.6900Y1.9310
N99  G01 X39.7027Y1.8451
N100  G01 X39.7257Y1.7514
N101  G01 X39.7570Y1.6640
N102  G01 X39.7963Y1.5810
N103  G01 X39.8464Y1.4981
N104  G01 X39.9016Y1.4244
N105  G01 X39.9603Y1.3599
N106  G01 X40.0248Y1.3013
N107  G01 X40.1023Y1.2433
N108  G01 X40.1814Y1.1959
N109  G01 X40.2644Y1.1566
N110  G01 X40.3518Y1.1254
N111  G01 X40.4407Y1.1031
N112  G01 X40.5366Y1.0893
N113  G01 X40.6237Y1.0851
N114  G01 X40.7205Y1.0902
N115  G01 X40.8066Y1.1031
N116  G01 X40.8913Y1.1242
N117  G01 X40.9781Y1.1547
N118  G01 X41.0702Y1.1983
N119  G01 X41.1451Y1.2433
N120  G01 X41.2186Y1.2979
N121  G01 X41.2905Y1.3634
N122  G01 X41.3491Y1.4283
N123  G01 X41.4037Y1.5019
N124  G01 X41.4511Y1.5810
N125  G01 X41.4885Y1.6598
N126  G01 X41.5216Y1.7514
N127  G01 X41.5447Y1.8451
N128  G01 X41.5573Y1.9310
N129  G01 X41.5619Y2.0213
N130  G01 X41.5619Y3.6997
N131  G01 X41.5568Y3.7965
N132  G01 X41.5439Y3.8826
N133  G01 X41.5216Y3.9716
N134  G01 X41.4904Y4.0590
N135  G01 X41.4511Y4.1420
N136  G01 X41.4037Y4.2211
N137  G01 X41.3491Y4.2947
N138  G01 X41.2871Y4.3631
N139  G01 X41.2317Y4.4135
N140  G01 X41.2317Y10.8647
N141  G01 X41.8280Y11.4610
N142  G01 X57.1337Y11.4610
N143  G01 X57.1884Y11.4636
N144  G01 X57.2571Y11.4738
N145  G01 X57.3097Y11.4870
N146  G01 X57.3666Y11.5074
N147  G01 X57.4246Y11.5352
N148  G01 X57.4716Y11.5636
N149  G01 X57.5192Y11.5988
N150  G01 X57.5636Y11.6391
N151  G01 X58.5161Y12.5916
N152  G01 X58.5592Y12.6397
N153  G01 X58.5916Y12.6836
N154  G01 X58.6224Y12.7349
N155  G01 X58.6478Y12.7886
N156  G01 X58.6665Y12.8403
N157  G01 X58.6833Y12.9077
N158  G01 X58.6912Y12.9616
N159  G01 X58.6942Y13.0215
N160  G01 X58.6942Y26.4222
N161  G01 X70.8986Y38.6266
N162  G01 X70.9389Y38.6710
N163  G01 X70.9741Y38.7186
N164  G01 X71.0025Y38.7656
N165  G01 X71.0303Y38.8236
N166  G01 X71.0506Y38.8805
N167  G01 X71.0639Y38.9331
N168  G01 X71.0741Y39.0018
N169  G01 X71.0767Y39.0565
N170  G01 X71.0767Y40.5602
N171  G01 X71.3811Y40.8647
N172  G01 X71.3927Y40.8804
N173  G01 X71.4010Y40.8981
N174  G01 X71.4039Y40.9074
N175  G01 X71.4058Y40.9170
N176  G01 X71.4069Y40.9318
N177  G01 X71.4069Y41.6262
N178  G01 X71.4058Y41.6410
N179  G01 X71.4010Y41.6599
N180  G01 X71.3927Y41.6776
N181  G01 X71.3872Y41.6857
N182  G01 X71.3776Y41.6969
N183  G01 X70.8866Y42.1879
N184  G01 X70.8754Y42.1976
N185  G01 X70.8673Y42.2030
N186  G01 X70.8496Y42.2113
N187  G01 X70.8307Y42.2161
N188  G01 X70.8159Y42.2172
N189  G01 X70.1215Y42.2172
N190  G01 X70.1067Y42.2161
N191  G01 X70.0971Y42.2142
N192  G01 X70.0787Y42.2076
N193  G01 X70.0620Y42.1976
N194  G01 X70.0508Y42.1879
N195  G01 X69.5563Y41.6933
N196  G01 X69.5447Y41.6776
N197  G01 X69.5363Y41.6599
N198  G01 X69.5316Y41.6410
N199  G01 X69.5306Y41.6313
N200  G01 X69.5305Y40.9318
N201  G01 X69.5316Y40.9170
N202  G01 X69.5335Y40.9074
N203  G01 X69.5363Y40.8981
N204  G01 X69.5447Y40.8804
N205  G01 X69.5563Y40.8647
N206  G01 X69.8607Y40.5602
N207  G01 X69.8607Y39.3083
N208  G01 X57.6563Y27.1039
N209  G01 X57.6160Y27.0595
N210  G01 X57.5835Y27.0158
N211  G01 X57.5478Y26.9562
N212  G01 X57.5227Y26.9021
N213  G01 X57.5042Y26.8500
N214  G01 X57.4909Y26.7974
N215  G01 X57.4811Y26.7339
N216  G01 X57.4782Y26.6740
N217  G01 X57.4782Y13.2733
N218  G01 X56.8818Y12.6770
N219  G01 X41.5713Y12.6769
N220  G01 X41.5162Y12.6740
N221  G01 X41.4624Y12.6662
N222  G01 X41.4002Y12.6510
N223  G01 X41.3432Y12.6306
N224  G01 X41.2940Y12.6074
N225  G01 X41.2344Y12.5717
N226  G01 X41.1907Y12.5392
N227  G01 X41.1473Y12.4999
N228  G01 X40.6237Y11.9763
N229  G01 X40.1001Y12.4999
N230  G01 X40.0567Y12.5392
N231  G01 X40.0130Y12.5717
N232  G01 X39.9534Y12.6074
N233  G01 X39.9041Y12.6306
N234  G01 X39.8472Y12.6510
N235  G01 X39.7850Y12.6662
N236  G01 X39.7311Y12.6740
N237  G01 X39.6732Y12.6770
N238  G01 X18.9680Y12.6770
N239  G01 X16.7842Y14.8608
N240  G01 X16.7841Y18.1064
N241  G01 X16.7812Y18.1614
N242  G01 X16.7725Y18.2200
N243  G01 X16.7581Y18.2775
N244  G01 X16.7397Y18.3296
N245  G01 X16.7100Y18.3924
N246  G01 X16.6816Y18.4394
N247  G01 X16.6430Y18.4909
N248  G01 X16.6061Y18.5314
N249  G01 X14.3826Y20.7549
N250  G01 X14.3392Y20.7942
N251  G01 X14.2916Y20.8294
N252  G01 X14.2403Y20.8602
N253  G01 X14.1908Y20.8837
N254  G01 X14.1297Y20.9060
N255  G01 X14.0722Y20.9203
N256  G01 X14.0136Y20.9290
N257  G01 X13.9586Y20.9319
N258  G01 X12.8277Y20.9320
N259  G01 X12.8100Y20.9551
N260  G01 X12.7480Y21.0233
N261  G01 X12.6759Y21.0887
N262  G01 X12.5983Y21.1462
N263  G01 X12.5105Y21.1984
N264  G01 X12.4226Y21.2395
N265  G01 X12.3353Y21.2706
N266  G01 X12.2464Y21.2929
N267  G01 X12.1460Y21.3082
N268  G01 X12.0487Y21.3130
N269  G01 X11.9514Y21.3082
N270  G01 X11.8509Y21.2929
N271  G01 X11.7621Y21.2706
N272  G01 X11.6748Y21.2395
N273  G01 X11.5869Y21.1984
N274  G01 X11.4991Y21.1462
N275  G01 X11.4215Y21.0887
N276  G01 X11.3494Y21.0233
N277  G01 X11.2840Y20.9512
N278  G01 X11.2265Y20.8736
N279  G01 X11.1765Y20.7902
N280  G01 X11.1351Y20.7027
N281  G01 X11.1021Y20.6106
N282  G01 X11.0787Y20.5169
N283  G01 X11.0645Y20.4213
N284  G01 X11.0597Y20.3240
N285  G01 X11.0645Y20.2267
N286  G01 X11.0787Y20.1311
N287  G01 X11.1021Y20.0374
N288  G01 X11.1351Y19.9453
N289  G01 X11.1765Y19.8578
N290  G01 X11.2265Y19.7744
N291  G01 X11.2840Y19.6968
N292  G01 X11.3494Y19.6247
N293  G01 X11.4215Y19.5593
N294  G01 X11.4991Y19.5018
N295  G01 X11.5824Y19.4518
N296  G01 X11.6699Y19.4104
N297  G01 X11.7621Y19.3774
N298  G01 X11.8558Y19.3540
N299  G01 X11.9514Y19.3398
N300  G01 X12.0487Y19.3350
N301  G01 X12.1460Y19.3398
N302  G01 X12.2415Y19.3540
N303  G01 X12.3353Y19.3774
N304  G01 X12.4274Y19.4104
N305  G01 X12.5149Y19.4518
N306  G01 X12.5983Y19.5018
N307  G01 X12.6759Y19.5593
N308  G01 X12.7480Y19.6247
N309  G01 X12.8100Y19.6929
N310  G01 X12.8277Y19.7160
N311  G00 Z2.0000
N312  G00 X30.4500Y14.4630
N313  G01 Z-0.0700
N314  G01 X30.6710Y14.6829
N315  G01 X30.8209Y15.0466
N316  G01 X30.8209Y15.4414
N317  G01 X30.6710Y15.8051
N318  G01 X30.3907Y16.0840
N319  G01 X30.0248Y16.2362
N320  G01 X29.6326Y16.2362
N321  G01 X29.2675Y16.0843
N322  G01 X28.9883Y15.8051
N323  G01 X28.8365Y15.4401
N324  G01 X28.8365Y15.0479
N325  G01 X28.9883Y14.6829
N326  G01 X29.2675Y14.4037
N327  G01 X29.6326Y14.2518
N328  G01 X30.0248Y14.2518
N329  G01 X30.3907Y14.4040
N330  G01 X30.4393Y14.4531
N331  G01 X30.4500Y14.4630
N332  G00 Z2.0000
N333  G00 X30.8176Y15.2489
N334  G01 Z-0.0700
N335  G01 X30.8129Y15.3413
N336  G01 X30.7987Y15.4369
N337  G01 X30.7752Y15.5306
N338  G01 X30.7423Y15.6227
N339  G01 X30.7009Y15.7102
N340  G01 X30.6509Y15.7936
N341  G01 X30.5934Y15.8712
N342  G01 X30.5280Y15.9433
N343  G01 X30.4559Y16.0087
N344  G01 X30.3783Y16.0662
N345  G01 X30.2949Y16.1162
N346  G01 X30.2074Y16.1576
N347  G01 X30.1153Y16.1906
N348  G01 X30.0215Y16.2140
N349  G01 X29.9260Y16.2282
N350  G01 X29.8287Y16.2330
N351  G01 X29.7314Y16.2282
N352  G01 X29.6358Y16.2140
N353  G01 X29.5421Y16.1906
N354  G01 X29.4499Y16.1576
N355  G01 X29.3624Y16.1162
N356  G01 X29.2791Y16.0662
N357  G01 X29.2015Y16.0087
N358  G01 X29.1294Y15.9433
N359  G01 X29.0640Y15.8712
N360  G01 X29.0065Y15.7936
N361  G01 X28.9565Y15.7102
N362  G01 X28.9151Y15.6227
N363  G01 X28.8821Y15.5306
N364  G01 X28.8587Y15.4369
N365  G01 X28.8445Y15.3413
N366  G01 X28.8397Y15.2440
N367  G01 X28.8445Y15.1467
N368  G01 X28.8587Y15.0511
N369  G01 X28.8821Y14.9574
N370  G01 X28.9151Y14.8653
N371  G01 X28.9565Y14.7778
N372  G01 X29.0065Y14.6944
N373  G01 X29.0640Y14.6168
N374  G01 X29.1294Y14.5447
N375  G01 X29.2015Y14.4793
N376  G01 X29.2791Y14.4218
N377  G01 X29.3624Y14.3718
N378  G01 X29.4499Y14.3304
N379  G01 X29.5421Y14.2974
N380  G01 X29.6358Y14.2740
N381  G01 X29.7314Y14.2598
N382  G01 X29.8287Y14.2550
N383  G01 X29.9260Y14.2598
N384  G01 X30.0215Y14.2740
N385  G01 X30.1153Y14.2974
N386  G01 X30.2074Y14.3304
N387  G01 X30.2949Y14.3718
N388  G01 X30.3783Y14.4218
N389  G01 X30.4559Y14.4793
N390  G01 X30.5280Y14.5447
N391  G01 X30.5934Y14.6168
N392  G01 X30.6509Y14.6944
N393  G01 X30.7009Y14.7778
N394  G01 X30.7423Y14.8653
N395  G01 X30.7752Y14.9574
N396  G01 X30.7987Y15.0511
N397  G01 X30.8129Y15.1467
N398  G01 X30.8176Y15.2489
N399  G00 Z2.0000
N400  G00 X42.9113Y4.6026
N401  G01 Z-0.0700
N402  G01 X42.8867Y4.5960
N403  G01 X42.8044Y4.5664
N404  G01 X42.7171Y4.5247
N405  G01 X42.6423Y4.4797
N406  G01 X42.5724Y4.4280
N407  G01 X42.5003Y4.3631
N408  G01 X42.4354Y4.2910
N409  G01 X42.3837Y4.2211
N410  G01 X42.3387Y4.1462
N411  G01 X42.2970Y4.0590
N412  G01 X42.2646Y3.9673
N413  G01 X42.2435Y3.8826
N414  G01 X42.2306Y3.7965
N415  G01 X42.2255Y3.7017
N416  G01 X42.2255Y2.0233
N417  G01 X42.2300Y1.9310
N418  G01 X42.2435Y1.8404
N419  G01 X42.2657Y1.7514
N420  G01 X42.2970Y1.6640
N421  G01 X42.3363Y1.5810
N422  G01 X42.3837Y1.5019
N423  G01 X42.4383Y1.4283
N424  G01 X42.5003Y1.3599
N425  G01 X42.5687Y1.2979
N426  G01 X42.6423Y1.2433
N427  G01 X42.7214Y1.1959
N428  G01 X42.8044Y1.1566
N429  G01 X42.8918Y1.1254
N430  G01 X42.9807Y1.1031
N431  G01 X43.0714Y1.0897
N432  G01 X43.1637Y1.0851
N433  G01 X43.2560Y1.0897
N434  G01 X43.3466Y1.1031
N435  G01 X43.4355Y1.1254
N436  G01 X43.5230Y1.1566
N437  G01 X43.6016Y1.1937
N438  G01 X43.6889Y1.2460
N439  G01 X43.7586Y1.2979
N440  G01 X43.8271Y1.3599
N441  G01 X43.8891Y1.4283
N442  G01 X43.9409Y1.4981
N443  G01 X43.9933Y1.5854
N444  G01 X44.0304Y1.6640
N445  G01 X44.0616Y1.7514
N446  G01 X44.0839Y1.8404
N447  G01 X44.0973Y1.9310
N448  G01 X44.1019Y2.0233
N449  G01 X44.1019Y3.7017
N450  G01 X44.0968Y3.7965
N451  G01 X44.0839Y3.8826
N452  G01 X44.0628Y3.9673
N453  G01 X44.0304Y4.0590
N454  G01 X43.9887Y4.1462
N455  G01 X43.9437Y4.2211
N456  G01 X43.8919Y4.2910
N457  G01 X43.8271Y4.3631
N458  G01 X43.7550Y4.4280
N459  G01 X43.6851Y4.4797
N460  G01 X43.6102Y4.5247
N461  G01 X43.5230Y4.5664
N462  G01 X43.4407Y4.5960
N463  G01 X43.4161Y4.6026
N464  G01 X43.4161Y8.1545
N465  G01 X44.2207Y8.9591
N466  G01 X57.3466Y8.9591
N467  G01 X62.0352Y4.2705
N468  G01 X62.0574Y4.2509
N469  G01 X62.0733Y4.2392
N470  G01 X62.0904Y4.2288
N471  G01 X62.1168Y4.2159
N472  G01 X62.1409Y4.2073
N473  G01 X62.1645Y4.2014
N474  G01 X62.1841Y4.1984
N475  G01 X62.2137Y4.1966
N476  G01 X70.9783Y4.1966
N477  G01 X70.9784Y4.1704
N478  G01 X70.9794Y4.1606
N479  G01 X70.9841Y4.1417
N480  G01 X70.9925Y4.1241
N481  G01 X70.9979Y4.1159
N482  G01 X71.0076Y4.1047
N483  G01 X71.3981Y3.7144
N484  G01 X71.4138Y3.7028
N485  G01 X71.4314Y3.6945
N486  G01 X71.4503Y3.6897
N487  G01 X71.4651Y3.6886
N488  G01 X72.0122Y3.6886
N489  G01 X72.0270Y3.6897
N490  G01 X72.0366Y3.6916
N491  G01 X72.0550Y3.6982
N492  G01 X72.0717Y3.7082
N493  G01 X72.0829Y3.7179
N494  G01 X72.4733Y4.1084
N495  G01 X72.4849Y4.1241
N496  G01 X72.4932Y4.1417
N497  G01 X72.4980Y4.1606
N498  G01 X72.4991Y4.1755
N499  G01 X72.4991Y4.7225
N500  G01 X72.4980Y4.7374
N501  G01 X72.4961Y4.7469
N502  G01 X72.4895Y4.7653
N503  G01 X72.4794Y4.7821
N504  G01 X72.4698Y4.7933
N505  G01 X72.0793Y5.1836
N506  G01 X72.0636Y5.1952
N507  G01 X72.0460Y5.2035
N508  G01 X72.0270Y5.2083
N509  G01 X72.0173Y5.2093
N510  G01 X71.4651Y5.2094
N511  G01 X71.4503Y5.2083
N512  G01 X71.4407Y5.2064
N513  G01 X71.4224Y5.1998
N514  G01 X71.4056Y5.1898
N515  G01 X71.3944Y5.1801
N516  G01 X71.0041Y4.7896
N517  G01 X70.9979Y4.7821
N518  G01 X70.9879Y4.7653
N519  G01 X70.9813Y4.7469
N520  G01 X70.9784Y4.7276
N521  G01 X70.9783Y4.7014
N522  G01 X62.3182Y4.7014
N523  G01 X57.6286Y9.3910
N524  G01 X57.6111Y9.4068
N525  G01 X57.5916Y9.4213
N526  G01 X57.5702Y9.4341
N527  G01 X57.5480Y9.4446
N528  G01 X57.5240Y9.4532
N529  G01 X57.5003Y9.4591
N530  G01 X57.4763Y9.4626
N531  G01 X57.4532Y9.4639
N532  G01 X44.1162Y9.4639
N533  G01 X44.0911Y9.4626
N534  G01 X44.0718Y9.4599
N535  G01 X44.0383Y9.4515
N536  G01 X44.0193Y9.4446
N537  G01 X44.0016Y9.4363
N538  G01 X43.9801Y9.4240
N539  G01 X43.9563Y9.4068
N540  G01 X43.9387Y9.3910
N541  G01 X42.9842Y8.4364
N542  G01 X42.9684Y8.4189
N543  G01 X42.9566Y8.4032
N544  G01 X42.9411Y8.3780
N545  G01 X42.9287Y8.3510
N546  G01 X42.9220Y8.3318
N547  G01 X42.9172Y8.3130
N548  G01 X42.9125Y8.2841
N549  G01 X42.9113Y8.2590
N550  G01 X42.9113Y4.6026
N551  G00 Z2.0000
N552  G00 X46.4387Y4.2819
N553  G01 Z-0.0700
N554  G01 X46.4837Y4.2211
N555  G01 X46.5311Y4.1420
N556  G01 X46.5704Y4.0590
N557  G01 X46.6016Y3.9716
N558  G01 X46.6239Y3.8826
N559  G01 X46.6373Y3.7920
N560  G01 X46.6419Y3.7017
N561  G01 X46.6419Y3.5965
N562  G01 X47.3055Y3.5965
N563  G01 X47.3055Y3.7017
N564  G01 X47.3100Y3.7920
N565  G01 X47.3235Y3.8826
N566  G01 X47.3457Y3.9716
N567  G01 X47.3770Y4.0590
N568  G01 X47.4163Y4.1420
N569  G01 X47.4637Y4.2211
N570  G01 X47.5087Y4.2819
N571  G01 X47.5087Y4.8616
N572  G01 X47.4779Y4.8440
N573  G01 X47.4167Y4.7973
N574  G01 X47.3594Y4.7580
N575  G01 X47.2942Y4.7223
N576  G01 X47.2311Y4.6954
N577  G01 X47.1562Y4.6717
N578  G01 X47.0888Y4.6579
N579  G01 X47.0789Y4.6564
N580  G01 X47.0055Y4.6495
N581  G01 X46.9369Y4.6496
N582  G01 X46.8635Y4.6570
N583  G01 X46.7912Y4.6717
N584  G01 X46.7213Y4.6934
N585  G01 X46.6532Y4.7223
N586  G01 X46.5880Y4.7580
N587  G01 X46.5307Y4.7973
N588  G01 X46.4694Y4.8440
N589  G01 X46.4387Y4.8616
N590  G01 X46.4387Y4.2819
N591  G00 Z2.0000
N592  G00 X48.9787Y4.2819
N593  G01 Z-0.0700
N594  G01 X49.0237Y4.2211
N595  G01 X49.0711Y4.1420
N596  G01 X49.1104Y4.0590
N597  G01 X49.1416Y3.9716
N598  G01 X49.1639Y3.8826
N599  G01 X49.1773Y3.7920
N600  G01 X49.1819Y3.7017
N601  G01 X49.1819Y3.5965
N602  G01 X49.6169Y3.5965
N603  G01 X49.6169Y3.7894
N604  G01 X49.5936Y3.9686
N605  G01 X49.5477Y4.1410
N606  G01 X49.4779Y4.3089
N607  G01 X49.3898Y4.4622
N608  G01 X49.2778Y4.6059
N609  G01 X49.1501Y4.7353
N610  G01 X49.0080Y4.8448
N611  G01 X48.9787Y4.8616
N612  G01 X48.9787Y4.2819
N613  G00 Z2.0000
N614  G00 X64.4763Y15.4647
N615  G01 Z-0.0700
N616  G01 X64.9708Y14.9701
N617  G01 X64.9820Y14.9604
N618  G01 X64.9901Y14.9550
N619  G01 X65.0077Y14.9467
N620  G01 X65.0267Y14.9419
N621  G01 X65.0415Y14.9408
N622  G01 X65.7359Y14.9408
N623  G01 X65.7507Y14.9419
N624  G01 X65.7603Y14.9438
N625  G01 X65.7786Y14.9504
N626  G01 X65.7954Y14.9604
N627  G01 X65.8066Y14.9701
N628  G01 X66.2976Y15.4611
N629  G01 X66.3072Y15.4723
N630  G01 X66.3127Y15.4804
N631  G01 X66.3210Y15.4981
N632  G01 X66.3258Y15.5170
N633  G01 X66.3269Y15.5318
N634  G01 X66.3269Y16.2262
N635  G01 X66.3258Y16.2410
N636  G01 X66.3239Y16.2506
N637  G01 X66.3173Y16.2690
N638  G01 X66.3072Y16.2857
N639  G01 X66.2976Y16.2969
N640  G01 X65.8066Y16.7879
N641  G01 X65.7954Y16.7976
N642  G01 X65.7873Y16.8030
N643  G01 X65.7696Y16.8113
N644  G01 X65.7507Y16.8161
N645  G01 X65.7359Y16.8172
N646  G01 X65.0415Y16.8172
N647  G01 X65.0267Y16.8161
N648  G01 X65.0171Y16.8142
N649  G01 X64.9987Y16.8076
N650  G01 X64.9820Y16.7976
N651  G01 X64.9708Y16.7879
N652  G01 X64.4798Y16.2969
N653  G01 X64.4701Y16.2857
N654  G01 X64.4647Y16.2776
N655  G01 X64.4563Y16.2599
N656  G01 X64.4516Y16.2410
N657  G01 X64.4505Y16.2262
N658  G01 X64.4505Y15.5318
N659  G01 X64.4516Y15.5170
N660  G01 X64.4563Y15.4981
N661  G01 X64.4647Y15.4804
N662  G01 X64.4763Y15.4647
N663  G00 Z2.0000
N664  G00 X64.5454Y17.4809
N665  G01 Z-0.0700
N666  G01 X66.2269Y17.4808
N667  G01 X66.2417Y17.4819
N668  G01 X66.2513Y17.4838
N669  G01 X66.2697Y17.4904
N670  G01 X66.2865Y17.5005
N671  G01 X66.3010Y17.5136
N672  G01 X66.3126Y17.5293
N673  G01 X66.3210Y17.5470
N674  G01 X66.3258Y17.5660
N675  G01 X66.3269Y17.5808
N676  G01 X66.3269Y19.2572
N677  G01 X66.3258Y19.2720
N678  G01 X66.3238Y19.2816
N679  G01 X66.3172Y19.3000
N680  G01 X66.3072Y19.3168
N681  G01 X66.2940Y19.3313
N682  G01 X66.2783Y19.3429
N683  G01 X66.2607Y19.3513
N684  G01 X66.2417Y19.3561
N685  G01 X66.2269Y19.3572
N686  G01 X64.5505Y19.3572
N687  G01 X64.5356Y19.3561
N688  G01 X64.5260Y19.3542
N689  G01 X64.5076Y19.3476
N690  G01 X64.4909Y19.3375
N691  G01 X64.4764Y19.3244
N692  G01 X64.4647Y19.3087
N693  G01 X64.4564Y19.2910
N694  G01 X64.4516Y19.2720
N695  G01 X64.4505Y19.2572
N696  G01 X64.4506Y17.5757
N697  G01 X64.4535Y17.5564
N698  G01 X64.4564Y17.5470
N699  G01 X64.4647Y17.5293
N700  G01 X64.4764Y17.5136
N701  G01 X64.4909Y17.5005
N702  G01 X64.5076Y17.4904
N703  G01 X64.5260Y17.4838
N704  G01 X64.5454Y17.4809
N705  G00 Z2.0000
N706  G00 X66.9906Y18.7713
N707  G01 Z-0.0700
N708  G01 X66.9905Y18.0718
N709  G01 X66.9916Y18.0570
N710  G01 X66.9935Y18.0474
N711  G01 X67.0001Y18.0290
N712  G01 X67.0101Y18.0123
N713  G01 X67.0198Y18.0011
N714  G01 X67.5108Y17.5101
N715  G01 X67.5220Y17.5004
N716  G01 X67.5301Y17.4950
N717  G01 X67.5477Y17.4867
N718  G01 X67.5667Y17.4819
N719  G01 X67.5815Y17.4808
N720  G01 X68.2759Y17.4808
N721  G01 X68.2907Y17.4819
N722  G01 X68.3003Y17.4838
N723  G01 X68.3186Y17.4904
N724  G01 X68.3354Y17.5004
N725  G01 X68.3466Y17.5101
N726  G01 X68.8376Y18.0011
N727  G01 X68.8472Y18.0123
N728  G01 X68.8527Y18.0204
N729  G01 X68.8610Y18.0381
N730  G01 X68.8658Y18.0570
N731  G01 X68.8669Y18.0718
N732  G01 X68.8669Y18.7662
N733  G01 X68.8658Y18.7810
N734  G01 X68.8639Y18.7906
N735  G01 X68.8573Y18.8090
N736  G01 X68.8472Y18.8257
N737  G01 X68.8376Y18.8369
N738  G01 X68.3466Y19.3279
N739  G01 X68.3354Y19.3376
N740  G01 X68.3273Y19.3430
N741  G01 X68.3096Y19.3513
N742  G01 X68.2907Y19.3561
N743  G01 X68.2759Y19.3572
N744  G01 X67.5815Y19.3572
N745  G01 X67.5667Y19.3561
N746  G01 X67.5571Y19.3542
N747  G01 X67.5387Y19.3476
N748  G01 X67.5220Y19.3376
N749  G01 X67.5108Y19.3279
N750  G01 X67.0198Y18.8369
N751  G01 X67.0101Y18.8257
N752  G01 X67.0001Y18.8090
N753  G01 X66.9935Y18.7906
N754  G01 X66.9906Y18.7713
N755  G00 Z2.0000
N756  G00 X69.5563Y18.0047
N757  G01 Z-0.0700
N758  G01 X70.0508Y17.5101
N759  G01 X70.0620Y17.5004
N760  G01 X70.0701Y17.4950
N761  G01 X70.0877Y17.4867
N762  G01 X70.1067Y17.4819
N763  G01 X70.1215Y17.4808
N764  G01 X70.8210Y17.4809
N765  G01 X70.8403Y17.4838
N766  G01 X70.8586Y17.4904
N767  G01 X70.8754Y17.5004
N768  G01 X70.8866Y17.5101
N769  G01 X71.3811Y18.0047
N770  G01 X71.3927Y18.0204
N771  G01 X71.3973Y18.0290
N772  G01 X71.4010Y18.0381
N773  G01 X71.4058Y18.0570
N774  G01 X71.4069Y18.0718
N775  G01 X71.4069Y18.7662
N776  G01 X71.4058Y18.7810
N777  G01 X71.4039Y18.7906
N778  G01 X71.3973Y18.8090
N779  G01 X71.3872Y18.8257
N780  G01 X71.3776Y18.8369
N781  G01 X70.8866Y19.3279
N782  G01 X70.8754Y19.3376
N783  G01 X70.8586Y19.3476
N784  G01 X70.8496Y19.3513
N785  G01 X70.8307Y19.3561
N786  G01 X70.8159Y19.3572
N787  G01 X70.7211Y19.3572
N788  G01 X70.7211Y29.1095
N789  G01 X76.9972Y35.3855
N790  G01 X77.0168Y35.4077
N791  G01 X77.0284Y35.4236
N792  G01 X77.0413Y35.4450
N793  G01 X77.0536Y35.4720
N794  G01 X77.0604Y35.4912
N795  G01 X77.0652Y35.5100
N796  G01 X77.0698Y35.5389
N797  G01 X77.0711Y35.5640
N798  G01 X77.0711Y47.8211
N799  G01 X77.0973Y47.8212
N800  G01 X77.1070Y47.8222
N801  G01 X77.1260Y47.8270
N802  G01 X77.1436Y47.8353
N803  G01 X77.1517Y47.8407
N804  G01 X77.1629Y47.8504
N805  G01 X77.5533Y48.2409
N806  G01 X77.5649Y48.2566
N807  G01 X77.5732Y48.2742
N808  G01 X77.5780Y48.2931
N809  G01 X77.5791Y48.3080
N810  G01 X77.5791Y48.8550
N811  G01 X77.5780Y48.8699
N812  G01 X77.5761Y48.8794
N813  G01 X77.5695Y48.8978
N814  G01 X77.5594Y48.9146
N815  G01 X77.5498Y48.9258
N816  G01 X77.1629Y49.3126
N817  G01 X77.1517Y49.3223
N818  G01 X77.1436Y49.3277
N819  G01 X77.1350Y49.3323
N820  G01 X77.1166Y49.3389
N821  G01 X77.1070Y49.3408
N822  G01 X77.0922Y49.3419
N823  G01 X76.5451Y49.3419
N824  G01 X76.5303Y49.3408
N825  G01 X76.5207Y49.3389
N826  G01 X76.5024Y49.3323
N827  G01 X76.4856Y49.3223
N828  G01 X76.4744Y49.3126
N829  G01 X76.0841Y48.9221
N830  G01 X76.0725Y48.9064
N831  G01 X76.0641Y48.8888
N832  G01 X76.0594Y48.8699
N833  G01 X76.0584Y48.8601
N834  G01 X76.0583Y48.3080
N835  G01 X76.0594Y48.2931
N836  G01 X76.0613Y48.2836
N837  G01 X76.0679Y48.2652
N838  G01 X76.0779Y48.2484
N839  G01 X76.0876Y48.2372
N840  G01 X76.4781Y47.8469
N841  G01 X76.4938Y47.8353
N842  G01 X76.5114Y47.8270
N843  G01 X76.5207Y47.8241
N844  G01 X76.5400Y47.8212
N845  G01 X76.5663Y47.8211
N846  G01 X76.5663Y35.6685
N847  G01 X70.2902Y29.3925
N848  G01 X70.2734Y29.3739
N849  G01 X70.2589Y29.3544
N850  G01 X70.2461Y29.3330
N851  G01 X70.2356Y29.3109
N852  G01 X70.2270Y29.2868
N853  G01 X70.2211Y29.2631
N854  G01 X70.2175Y29.2391
N855  G01 X70.2163Y29.2140
N856  G01 X70.2163Y19.3572
N857  G01 X70.1215Y19.3572
N858  G01 X70.1067Y19.3561
N859  G01 X70.0877Y19.3513
N860  G01 X70.0787Y19.3476
N861  G01 X70.0620Y19.3376
N862  G01 X70.0508Y19.3279
N863  G01 X69.5598Y18.8369
N864  G01 X69.5501Y18.8257
N865  G01 X69.5401Y18.8090
N866  G01 X69.5335Y18.7906
N867  G01 X69.5316Y18.7810
N868  G01 X69.5305Y18.7662
N869  G01 X69.5305Y18.0718
N870  G01 X69.5316Y18.0570
N871  G01 X69.5363Y18.0381
N872  G01 X69.5447Y18.0204
N873  G01 X69.5563Y18.0047
N874  G00 Z2.0000
N875  G00 X72.0963Y18.0047
N876  G01 Z-0.0700
N877  G01 X72.5908Y17.5101
N878  G01 X72.6020Y17.5004
N879  G01 X72.6101Y17.4950
N880  G01 X72.6277Y17.4867
N881  G01 X72.6467Y17.4819
N882  G01 X72.6615Y17.4808
N883  G01 X73.3559Y17.4808
N884  G01 X73.3707Y17.4819
N885  G01 X73.3803Y17.4838
N886  G01 X73.3986Y17.4904
N887  G01 X73.4154Y17.5004
N888  G01 X73.4266Y17.5101
N889  G01 X73.9176Y18.0011
N890  G01 X73.9272Y18.0123
N891  G01 X73.9327Y18.0204
N892  G01 X73.9410Y18.0381
N893  G01 X73.9458Y18.0570
N894  G01 X73.9469Y18.0718
N895  G01 X73.9469Y18.7662
N896  G01 X73.9458Y18.7810
N897  G01 X73.9439Y18.7906
N898  G01 X73.9373Y18.8090
N899  G01 X73.9272Y18.8257
N900  G01 X73.9176Y18.8369
N901  G01 X73.4266Y19.3279
N902  G01 X73.4154Y19.3376
N903  G01 X73.4073Y19.3430
N904  G01 X73.3896Y19.3513
N905  G01 X73.3707Y19.3561
N906  G01 X73.3559Y19.3572
N907  G01 X72.6615Y19.3572
N908  G01 X72.6467Y19.3561
N909  G01 X72.6371Y19.3542
N910  G01 X72.6187Y19.3476
N911  G01 X72.6020Y19.3376
N912  G01 X72.5908Y19.3279
N913  G01 X72.0998Y18.8369
N914  G01 X72.0901Y18.8257
N915  G01 X72.0847Y18.8176
N916  G01 X72.0763Y18.7999
N917  G01 X72.0716Y18.7810
N918  G01 X72.0705Y18.7662
N919  G01 X72.0705Y18.0718
N920  G01 X72.0716Y18.0570
N921  G01 X72.0763Y18.0381
N922  G01 X72.0847Y18.0204
N923  G01 X72.0963Y18.0047
N924  G00 Z2.0000
N925  G00 X74.6363Y18.0047
N926  G01 Z-0.0700
N927  G01 X75.1308Y17.5101
N928  G01 X75.1420Y17.5004
N929  G01 X75.1501Y17.4950
N930  G01 X75.1677Y17.4867
N931  G01 X75.1867Y17.4819
N932  G01 X75.2015Y17.4808
N933  G01 X75.8959Y17.4808
N934  G01 X75.9107Y17.4819
N935  G01 X75.9203Y17.4838
N936  G01 X75.9386Y17.4904
N937  G01 X75.9554Y17.5004
N938  G01 X75.9666Y17.5101
N939  G01 X76.4576Y18.0011
N940  G01 X76.4672Y18.0123
N941  G01 X76.4727Y18.0204
N942  G01 X76.4810Y18.0381
N943  G01 X76.4858Y18.0570
N944  G01 X76.4869Y18.0718
N945  G01 X76.4869Y18.7662
N946  G01 X76.4858Y18.7810
N947  G01 X76.4839Y18.7906
N948  G01 X76.4773Y18.8090
N949  G01 X76.4672Y18.8257
N950  G01 X76.4576Y18.8369
N951  G01 X75.9666Y19.3279
N952  G01 X75.9554Y19.3376
N953  G01 X75.9473Y19.3430
N954  G01 X75.9296Y19.3513
N955  G01 X75.9107Y19.3561
N956  G01 X75.8959Y19.3572
N957  G01 X75.2015Y19.3572
N958  G01 X75.1867Y19.3561
N959  G01 X75.1771Y19.3542
N960  G01 X75.1587Y19.3476
N961  G01 X75.1420Y19.3376
N962  G01 X75.1308Y19.3279
N963  G01 X74.6398Y18.8369
N964  G01 X74.6301Y18.8257
N965  G01 X74.6247Y18.8176
N966  G01 X74.6163Y18.7999
N967  G01 X74.6116Y18.7810
N968  G01 X74.6105Y18.7662
N969  G01 X74.6105Y18.0718
N970  G01 X74.6116Y18.0570
N971  G01 X74.6163Y18.0381
N972  G01 X74.6247Y18.0204
N973  G01 X74.6363Y18.0047
N974  G00 Z2.0000
N975  G00 X77.1763Y18.0047
N976  G01 Z-0.0700
N977  G01 X77.6708Y17.5101
N978  G01 X77.6820Y17.5004
N979  G01 X77.6901Y17.4950
N980  G01 X77.7077Y17.4867
N981  G01 X77.7267Y17.4819
N982  G01 X77.7415Y17.4808
N983  G01 X78.4359Y17.4808
N984  G01 X78.4507Y17.4819
N985  G01 X78.4603Y17.4838
N986  G01 X78.4786Y17.4904
N987  G01 X78.4954Y17.5004
N988  G01 X78.5066Y17.5101
N989  G01 X78.9976Y18.0011
N990  G01 X79.0072Y18.0123
N991  G01 X79.0127Y18.0204
N992  G01 X79.0210Y18.0381
N993  G01 X79.0258Y18.0570
N994  G01 X79.0269Y18.0718
N995  G01 X79.0269Y18.7662
N996  G01 X79.0258Y18.7810
N997  G01 X79.0239Y18.7906
N998  G01 X79.0173Y18.8090
N999  G01 X79.0072Y18.8257
N1000  G01 X78.9976Y18.8369
N1001  G01 X78.5066Y19.3279
N1002  G01 X78.4954Y19.3376
N1003  G01 X78.4873Y19.3430
N1004  G01 X78.4696Y19.3513
N1005  G01 X78.4507Y19.3561
N1006  G01 X78.4359Y19.3572
N1007  G01 X77.7415Y19.3572
N1008  G01 X77.7267Y19.3561
N1009  G01 X77.7171Y19.3542
N1010  G01 X77.6987Y19.3476
N1011  G01 X77.6820Y19.3376
N1012  G01 X77.6708Y19.3279
N1013  G01 X77.1798Y18.8369
N1014  G01 X77.1701Y18.8257
N1015  G01 X77.1647Y18.8176
N1016  G01 X77.1563Y18.7999
N1017  G01 X77.1516Y18.7810
N1018  G01 X77.1505Y18.7662
N1019  G01 X77.1505Y18.0718
N1020  G01 X77.1516Y18.0570
N1021  G01 X77.1563Y18.0381
N1022  G01 X77.1647Y18.0204
N1023  G01 X77.1763Y18.0047
N1024  G00 Z2.0000
N1025  G00 X77.1763Y15.4647
N1026  G01 Z-0.0700
N1027  G01 X77.6708Y14.9701
N1028  G01 X77.6820Y14.9604
N1029  G01 X77.6901Y14.9550
N1030  G01 X77.7077Y14.9467
N1031  G01 X77.7267Y14.9419
N1032  G01 X77.7415Y14.9408
N1033  G01 X78.4359Y14.9408
N1034  G01 X78.4507Y14.9419
N1035  G01 X78.4603Y14.9438
N1036  G01 X78.4786Y14.9504
N1037  G01 X78.4954Y14.9604
N1038  G01 X78.5066Y14.9701
N1039  G01 X78.9976Y15.4611
N1040  G01 X79.0072Y15.4723
N1041  G01 X79.0127Y15.4804
N1042  G01 X79.0210Y15.4981
N1043  G01 X79.0258Y15.5170
N1044  G01 X79.0269Y15.5318
N1045  G01 X79.0269Y16.2262
N1046  G01 X79.0258Y16.2410
N1047  G01 X79.0239Y16.2506
N1048  G01 X79.0173Y16.2690
N1049  G01 X79.0072Y16.2857
N1050  G01 X78.9976Y16.2969
N1051  G01 X78.5066Y16.7879
N1052  G01 X78.4954Y16.7976
N1053  G01 X78.4873Y16.8030
N1054  G01 X78.4696Y16.8113
N1055  G01 X78.4507Y16.8161
N1056  G01 X78.4359Y16.8172
N1057  G01 X77.7415Y16.8172
N1058  G01 X77.7267Y16.8161
N1059  G01 X77.7171Y16.8142
N1060  G01 X77.6987Y16.8076
N1061  G01 X77.6820Y16.7976
N1062  G01 X77.6708Y16.7879
N1063  G01 X77.1798Y16.2969
N1064  G01 X77.1701Y16.2857
N1065  G01 X77.1647Y16.2776
N1066  G01 X77.1563Y16.2599
N1067  G01 X77.1516Y16.2410
N1068  G01 X77.1505Y16.2262
N1069  G01 X77.1505Y15.5318
N1070  G01 X77.1516Y15.5170
N1071  G01 X77.1563Y15.4981
N1072  G01 X77.1647Y15.4804
N1073  G01 X77.1763Y15.4647
N1074  G00 Z2.0000
N1075  G00 X79.7163Y15.4647
N1076  G01 Z-0.0700
N1077  G01 X80.2108Y14.9701
N1078  G01 X80.2220Y14.9604
N1079  G01 X80.2301Y14.9550
N1080  G01 X80.2477Y14.9467
N1081  G01 X80.2667Y14.9419
N1082  G01 X80.2815Y14.9408
N1083  G01 X80.9759Y14.9408
N1084  G01 X80.9907Y14.9419
N1085  G01 X81.0003Y14.9438
N1086  G01 X81.0186Y14.9504
N1087  G01 X81.0354Y14.9604
N1088  G01 X81.0466Y14.9701
N1089  G01 X81.5376Y15.4611
N1090  G01 X81.5472Y15.4723
N1091  G01 X81.5527Y15.4804
N1092  G01 X81.5610Y15.4981
N1093  G01 X81.5658Y15.5170
N1094  G01 X81.5669Y15.5318
N1095  G01 X81.5669Y16.2262
N1096  G01 X81.5658Y16.2410
N1097  G01 X81.5639Y16.2506
N1098  G01 X81.5573Y16.2690
N1099  G01 X81.5472Y16.2857
N1100  G01 X81.5376Y16.2969
N1101  G01 X81.0466Y16.7879
N1102  G01 X81.0354Y16.7976
N1103  G01 X81.0273Y16.8030
N1104  G01 X81.0096Y16.8113
N1105  G01 X80.9907Y16.8161
N1106  G01 X80.9759Y16.8172
N1107  G01 X80.2815Y16.8172
N1108  G01 X80.2667Y16.8161
N1109  G01 X80.2571Y16.8142
N1110  G01 X80.2387Y16.8076
N1111  G01 X80.2220Y16.7976
N1112  G01 X80.2108Y16.7879
N1113  G01 X79.7198Y16.2969
N1114  G01 X79.7101Y16.2857
N1115  G01 X79.7047Y16.2776
N1116  G01 X79.6963Y16.2599
N1117  G01 X79.6916Y16.2410
N1118  G01 X79.6905Y16.2262
N1119  G01 X79.6905Y15.5318
N1120  G01 X79.6916Y15.5170
N1121  G01 X79.6963Y15.4981
N1122  G01 X79.7047Y15.4804
N1123  G01 X79.7163Y15.4647
N1124  G00 Z2.0000
N1125  G00 X82.2563Y15.4647
N1126  G01 Z-0.0700
N1127  G01 X82.7508Y14.9701
N1128  G01 X82.7620Y14.9604
N1129  G01 X82.7701Y14.9550
N1130  G01 X82.7877Y14.9467
N1131  G01 X82.8067Y14.9419
N1132  G01 X82.8215Y14.9408
N1133  G01 X83.5159Y14.9408
N1134  G01 X83.5307Y14.9419
N1135  G01 X83.5403Y14.9438
N1136  G01 X83.5586Y14.9504
N1137  G01 X83.5754Y14.9604
N1138  G01 X83.5866Y14.9701
N1139  G01 X84.0776Y15.4611
N1140  G01 X84.0872Y15.4723
N1141  G01 X84.0927Y15.4804
N1142  G01 X84.1010Y15.4981
N1143  G01 X84.1058Y15.5170
N1144  G01 X84.1069Y15.5318
N1145  G01 X84.1069Y16.2262
N1146  G01 X84.1058Y16.2410
N1147  G01 X84.1039Y16.2506
N1148  G01 X84.0973Y16.2690
N1149  G01 X84.0872Y16.2857
N1150  G01 X84.0776Y16.2969
N1151  G01 X83.5866Y16.7879
N1152  G01 X83.5754Y16.7976
N1153  G01 X83.5673Y16.8030
N1154  G01 X83.5496Y16.8113
N1155  G01 X83.5307Y16.8161
N1156  G01 X83.5159Y16.8172
N1157  G01 X82.8215Y16.8172
N1158  G01 X82.8067Y16.8161
N1159  G01 X82.7971Y16.8142
N1160  G01 X82.7787Y16.8076
N1161  G01 X82.7620Y16.7976
N1162  G01 X82.7508Y16.7879
N1163  G01 X82.2598Y16.2969
N1164  G01 X82.2501Y16.2857
N1165  G01 X82.2447Y16.2776
N1166  G01 X82.2363Y16.2599
N1167  G01 X82.2316Y16.2410
N1168  G01 X82.2305Y16.2262
N1169  G01 X82.2305Y15.5318
N1170  G01 X82.2316Y15.5170
N1171  G01 X82.2363Y15.4981
N1172  G01 X82.2447Y15.4804
N1173  G01 X82.2563Y15.4647
N1174  G00 Z2.0000
N1175  G00 X84.7963Y15.4647
N1176  G01 Z-0.0700
N1177  G01 X85.2908Y14.9701
N1178  G01 X85.3020Y14.9604
N1179  G01 X85.3101Y14.9550
N1180  G01 X85.3277Y14.9467
N1181  G01 X85.3467Y14.9419
N1182  G01 X85.3615Y14.9408
N1183  G01 X86.0559Y14.9408
N1184  G01 X86.0707Y14.9419
N1185  G01 X86.0803Y14.9438
N1186  G01 X86.0986Y14.9504
N1187  G01 X86.1154Y14.9604
N1188  G01 X86.1266Y14.9701
N1189  G01 X86.6176Y15.4611
N1190  G01 X86.6272Y15.4723
N1191  G01 X86.6327Y15.4804
N1192  G01 X86.6410Y15.4981
N1193  G01 X86.6458Y15.5170
N1194  G01 X86.6469Y15.5318
N1195  G01 X86.6469Y16.2262
N1196  G01 X86.6458Y16.2410
N1197  G01 X86.6439Y16.2506
N1198  G01 X86.6373Y16.2690
N1199  G01 X86.6272Y16.2857
N1200  G01 X86.6176Y16.2969
N1201  G01 X86.1266Y16.7879
N1202  G01 X86.1154Y16.7976
N1203  G01 X86.1073Y16.8030
N1204  G01 X86.0896Y16.8113
N1205  G01 X86.0707Y16.8161
N1206  G01 X86.0559Y16.8172
N1207  G01 X85.3615Y16.8172
N1208  G01 X85.3467Y16.8161
N1209  G01 X85.3371Y16.8142
N1210  G01 X85.3187Y16.8076
N1211  G01 X85.3020Y16.7976
N1212  G01 X85.2908Y16.7879
N1213  G01 X84.7998Y16.2969
N1214  G01 X84.7901Y16.2857
N1215  G01 X84.7847Y16.2776
N1216  G01 X84.7763Y16.2599
N1217  G01 X84.7716Y16.2410
N1218  G01 X84.7705Y16.2262
N1219  G01 X84.7705Y15.5318
N1220  G01 X84.7716Y15.5170
N1221  G01 X84.7763Y15.4981
N1222  G01 X84.7847Y15.4804
N1223  G01 X84.7963Y15.4647
N1224  G00 Z2.0000
N1225  G00 X84.7963Y18.0047
N1226  G01 Z-0.0700
N1227  G01 X85.2908Y17.5101
N1228  G01 X85.3020Y17.5004
N1229  G01 X85.3101Y17.4950
N1230  G01 X85.3277Y17.4867
N1231  G01 X85.3467Y17.4819
N1232  G01 X85.3615Y17.4808
N1233  G01 X86.0559Y17.4808
N1234  G01 X86.0707Y17.4819
N1235  G01 X86.0803Y17.4838
N1236  G01 X86.0986Y17.4904
N1237  G01 X86.1154Y17.5004
N1238  G01 X86.1266Y17.5101
N1239  G01 X86.6176Y18.0011
N1240  G01 X86.6272Y18.0123
N1241  G01 X86.6327Y18.0204
N1242  G01 X86.6410Y18.0381
N1243  G01 X86.6458Y18.0570
N1244  G01 X86.6469Y18.0718
N1245  G01 X86.6469Y18.7662
N1246  G01 X86.6458Y18.7810
N1247  G01 X86.6439Y18.7906
N1248  G01 X86.6373Y18.8090
N1249  G01 X86.6272Y18.8257
N1250  G01 X86.6176Y18.8369
N1251  G01 X86.1266Y19.3279
N1252  G01 X86.1154Y19.3376
N1253  G01 X86.1073Y19.3430
N1254  G01 X86.0896Y19.3513
N1255  G01 X86.0707Y19.3561
N1256  G01 X86.0559Y19.3572
N1257  G01 X85.3615Y19.3572
N1258  G01 X85.3467Y19.3561
N1259  G01 X85.3371Y19.3542
N1260  G01 X85.3187Y19.3476
N1261  G01 X85.3020Y19.3376
N1262  G01 X85.2908Y19.3279
N1263  G01 X84.7998Y18.8369
N1264  G01 X84.7901Y18.8257
N1265  G01 X84.7847Y18.8176
N1266  G01 X84.7763Y18.7999
N1267  G01 X84.7716Y18.7810
N1268  G01 X84.7705Y18.7662
N1269  G01 X84.7705Y18.0718
N1270  G01 X84.7716Y18.0570
N1271  G01 X84.7763Y18.0381
N1272  G01 X84.7847Y18.0204
N1273  G01 X84.7963Y18.0047
N1274  G00 Z2.0000
N1275  G00 X82.2563Y18.0047
N1276  G01 Z-0.0700
N1277  G01 X82.7508Y17.5101
N1278  G01 X82.7620Y17.5004
N1279  G01 X82.7701Y17.4950
N1280  G01 X82.7877Y17.4867
N1281  G01 X82.8067Y17.4819
N1282  G01 X82.8215Y17.4808
N1283  G01 X83.5159Y17.4808
N1284  G01 X83.5307Y17.4819
N1285  G01 X83.5403Y17.4838
N1286  G01 X83.5586Y17.4904
N1287  G01 X83.5754Y17.5004
N1288  G01 X83.5866Y17.5101
N1289  G01 X84.0776Y18.0011
N1290  G01 X84.0872Y18.0123
N1291  G01 X84.0927Y18.0204
N1292  G01 X84.1010Y18.0381
N1293  G01 X84.1058Y18.0570
N1294  G01 X84.1069Y18.0718
N1295  G01 X84.1069Y18.7662
N1296  G01 X84.1058Y18.7810
N1297  G01 X84.1039Y18.7906
N1298  G01 X84.0973Y18.8090
N1299  G01 X84.0872Y18.8257
N1300  G01 X84.0776Y18.8369
N1301  G01 X83.5866Y19.3279
N1302  G01 X83.5754Y19.3376
N1303  G01 X83.5673Y19.3430
N1304  G01 X83.5496Y19.3513
N1305  G01 X83.5307Y19.3561
N1306  G01 X83.5159Y19.3572
N1307  G01 X82.8215Y19.3572
N1308  G01 X82.8067Y19.3561
N1309  G01 X82.7971Y19.3542
N1310  G01 X82.7787Y19.3476
N1311  G01 X82.7620Y19.3376
N1312  G01 X82.7508Y19.3279
N1313  G01 X82.2598Y18.8369
N1314  G01 X82.2501Y18.8257
N1315  G01 X82.2447Y18.8176
N1316  G01 X82.2363Y18.7999
N1317  G01 X82.2316Y18.7810
N1318  G01 X82.2305Y18.7662
N1319  G01 X82.2305Y18.0718
N1320  G01 X82.2316Y18.0570
N1321  G01 X82.2363Y18.0381
N1322  G01 X82.2447Y18.0204
N1323  G01 X82.2563Y18.0047
N1324  G00 Z2.0000
N1325  G00 X79.6906Y18.7713
N1326  G01 Z-0.0700
N1327  G01 X79.6905Y18.0718
N1328  G01 X79.6916Y18.0570
N1329  G01 X79.6935Y18.0474
N1330  G01 X79.7001Y18.0290
N1331  G01 X79.7101Y18.0123
N1332  G01 X79.7198Y18.0011
N1333  G01 X80.2108Y17.5101
N1334  G01 X80.2220Y17.5004
N1335  G01 X80.2301Y17.4950
N1336  G01 X80.2477Y17.4867
N1337  G01 X80.2667Y17.4819
N1338  G01 X80.2815Y17.4808
N1339  G01 X80.9759Y17.4808
N1340  G01 X80.9907Y17.4819
N1341  G01 X81.0003Y17.4838
N1342  G01 X81.0186Y17.4904
N1343  G01 X81.0354Y17.5004
N1344  G01 X81.0466Y17.5101
N1345  G01 X81.5376Y18.0011
N1346  G01 X81.5472Y18.0123
N1347  G01 X81.5527Y18.0204
N1348  G01 X81.5610Y18.0381
N1349  G01 X81.5658Y18.0570
N1350  G01 X81.5669Y18.0718
N1351  G01 X81.5669Y18.7662
N1352  G01 X81.5658Y18.7810
N1353  G01 X81.5639Y18.7906
N1354  G01 X81.5573Y18.8090
N1355  G01 X81.5472Y18.8257
N1356  G01 X81.5376Y18.8369
N1357  G01 X81.0466Y19.3279
N1358  G01 X81.0354Y19.3376
N1359  G01 X81.0273Y19.3430
N1360  G01 X81.0096Y19.3513
N1361  G01 X80.9907Y19.3561
N1362  G01 X80.9759Y19.3572
N1363  G01 X80.2815Y19.3572
N1364  G01 X80.2667Y19.3561
N1365  G01 X80.2571Y19.3542
N1366  G01 X80.2387Y19.3476
N1367  G01 X80.2220Y19.3376
N1368  G01 X80.2108Y19.3279
N1369  G01 X79.7198Y18.8369
N1370  G01 X79.7101Y18.8257
N1371  G01 X79.7001Y18.8090
N1372  G01 X79.6935Y18.7906
N1373  G01 X79.6906Y18.7713
N1374  G00 Z2.0000
N1375  G00 X87.3363Y18.0047
N1376  G01 Z-0.0700
N1377  G01 X87.8308Y17.5101
N1378  G01 X87.8420Y17.5004
N1379  G01 X87.8501Y17.4950
N1380  G01 X87.8677Y17.4867
N1381  G01 X87.8867Y17.4819
N1382  G01 X87.9015Y17.4808
N1383  G01 X88.5959Y17.4808
N1384  G01 X88.6107Y17.4819
N1385  G01 X88.6203Y17.4838
N1386  G01 X88.6386Y17.4904
N1387  G01 X88.6554Y17.5004
N1388  G01 X88.6666Y17.5101
N1389  G01 X89.1576Y18.0011
N1390  G01 X89.1672Y18.0123
N1391  G01 X89.1727Y18.0204
N1392  G01 X89.1810Y18.0381
N1393  G01 X89.1858Y18.0570
N1394  G01 X89.1869Y18.0718
N1395  G01 X89.1869Y18.7662
N1396  G01 X89.1858Y18.7810
N1397  G01 X89.1839Y18.7906
N1398  G01 X89.1773Y18.8090
N1399  G01 X89.1672Y18.8257
N1400  G01 X89.1576Y18.8369
N1401  G01 X88.6666Y19.3279
N1402  G01 X88.6554Y19.3376
N1403  G01 X88.6473Y19.3430
N1404  G01 X88.6296Y19.3513
N1405  G01 X88.6107Y19.3561
N1406  G01 X88.5959Y19.3572
N1407  G01 X87.9015Y19.3572
N1408  G01 X87.8867Y19.3561
N1409  G01 X87.8771Y19.3542
N1410  G01 X87.8587Y19.3476
N1411  G01 X87.8420Y19.3376
N1412  G01 X87.8308Y19.3279
N1413  G01 X87.3398Y18.8369
N1414  G01 X87.3301Y18.8257
N1415  G01 X87.3247Y18.8176
N1416  G01 X87.3163Y18.7999
N1417  G01 X87.3116Y18.7810
N1418  G01 X87.3105Y18.7662
N1419  G01 X87.3105Y18.0718
N1420  G01 X87.3116Y18.0570
N1421  G01 X87.3163Y18.0381
N1422  G01 X87.3247Y18.0204
N1423  G01 X87.3363Y18.0047
N1424  G00 Z2.0000
N1425  G00 X88.9837Y14.6715
N1426  G01 Z-0.0700
N1427  G01 X89.4562Y15.1440
N1428  G01 X88.9837Y15.1440
N1429  G01 X88.9837Y14.6715
N1430  G00 Z2.0000
N1431  G00 X76.2837Y5.1840
N1432  G01 Z-0.0700
N1433  G01 X76.5047Y5.1840
N1434  G01 X76.2837Y5.4051
N1435  G01 X76.2837Y5.1840
N1436  G00 Z2.0000
N1437  G00 X74.8137Y5.1840
N1438  G01 Z-0.0700
N1439  G01 X74.8137Y5.4051
N1440  G01 X74.5926Y5.1840
N1441  G01 X74.8137Y5.1840
N1442  G00 Z2.0000
N1443  G00 X74.8137Y3.4929
N1444  G01 Z-0.0700
N1445  G01 X74.8137Y3.7140
N1446  G01 X74.5926Y3.7140
N1447  G01 X74.8137Y3.4929
N1448  G00 Z2.0000
N1449  G00 X76.2837Y3.4929
N1450  G01 Z-0.0700
N1451  G01 X76.5047Y3.7140
N1452  G01 X76.2837Y3.7140
N1453  G01 X76.2837Y3.4929
N1454  G00 Z2.0000
N1455  G00 X71.0041Y11.7284
N1456  G01 Z-0.0700
N1457  G01 X71.3981Y11.3344
N1458  G01 X71.4138Y11.3228
N1459  G01 X71.4314Y11.3145
N1460  G01 X71.4503Y11.3097
N1461  G01 X71.4600Y11.3087
N1462  G01 X72.0122Y11.3086
N1463  G01 X72.0270Y11.3097
N1464  G01 X72.0366Y11.3116
N1465  G01 X72.0550Y11.3182
N1466  G01 X72.0717Y11.3282
N1467  G01 X72.0829Y11.3379
N1468  G01 X72.4698Y11.7247
N1469  G01 X72.4794Y11.7359
N1470  G01 X72.4849Y11.7441
N1471  G01 X72.4895Y11.7527
N1472  G01 X72.4945Y11.7658
N1473  G01 X74.7929Y11.7658
N1474  G01 X74.7979Y11.7527
N1475  G01 X74.8025Y11.7441
N1476  G01 X74.8079Y11.7359
N1477  G01 X74.8176Y11.7247
N1478  G01 X75.2044Y11.3379
N1479  G01 X75.2156Y11.3282
N1480  G01 X75.2238Y11.3228
N1481  G01 X75.2414Y11.3145
N1482  G01 X75.2603Y11.3097
N1483  G01 X75.2751Y11.3086
N1484  G01 X75.8273Y11.3087
N1485  G01 X75.8466Y11.3116
N1486  G01 X75.8650Y11.3182
N1487  G01 X75.8817Y11.3282
N1488  G01 X75.8893Y11.3344
N1489  G01 X76.2798Y11.7247
N1490  G01 X76.2894Y11.7359
N1491  G01 X76.2995Y11.7527
N1492  G01 X76.3061Y11.7711
N1493  G01 X76.3080Y11.7806
N1494  G01 X76.3091Y11.7955
N1495  G01 X76.3091Y12.3425
N1496  G01 X76.3080Y12.3574
N1497  G01 X76.3032Y12.3763
N1498  G01 X76.2949Y12.3939
N1499  G01 X76.2833Y12.4096
N1500  G01 X75.8929Y12.8001
N1501  G01 X75.8817Y12.8098
N1502  G01 X75.8736Y12.8152
N1503  G01 X75.8560Y12.8235
N1504  G01 X75.8370Y12.8283
N1505  G01 X75.8273Y12.8293
N1506  G01 X75.8011Y12.8294
N1507  G01 X75.8011Y14.9408
N1508  G01 X75.8959Y14.9408
N1509  G01 X75.9107Y14.9419
N1510  G01 X75.9296Y14.9467
N1511  G01 X75.9473Y14.9550
N1512  G01 X75.9554Y14.9604
N1513  G01 X75.9666Y14.9701
N1514  G01 X76.4576Y15.4611
N1515  G01 X76.4672Y15.4723
N1516  G01 X76.4773Y15.4890
N1517  G01 X76.4839Y15.5074
N1518  G01 X76.4858Y15.5170
N1519  G01 X76.4869Y15.5318
N1520  G01 X76.4869Y16.2262
N1521  G01 X76.4858Y16.2410
N1522  G01 X76.4810Y16.2599
N1523  G01 X76.4727Y16.2776
N1524  G01 X76.4611Y16.2933
N1525  G01 X75.9666Y16.7879
N1526  G01 X75.9554Y16.7976
N1527  G01 X75.9386Y16.8076
N1528  G01 X75.9203Y16.8142
N1529  G01 X75.9107Y16.8161
N1530  G01 X75.8959Y16.8172
N1531  G01 X75.2015Y16.8172
N1532  G01 X75.1867Y16.8161
N1533  G01 X75.1677Y16.8113
N1534  G01 X75.1501Y16.8030
N1535  G01 X75.1344Y16.7914
N1536  G01 X74.6398Y16.2969
N1537  G01 X74.6301Y16.2857
N1538  G01 X74.6201Y16.2690
N1539  G01 X74.6135Y16.2506
N1540  G01 X74.6116Y16.2410
N1541  G01 X74.6105Y16.2262
N1542  G01 X74.6105Y15.5318
N1543  G01 X74.6116Y15.5170
N1544  G01 X74.6135Y15.5074
N1545  G01 X74.6201Y15.4890
N1546  G01 X74.6301Y15.4723
N1547  G01 X74.6398Y15.4611
N1548  G01 X75.1308Y14.9701
N1549  G01 X75.1420Y14.9604
N1550  G01 X75.1501Y14.9550
N1551  G01 X75.1677Y14.9467
N1552  G01 X75.1867Y14.9419
N1553  G01 X75.2015Y14.9408
N1554  G01 X75.2963Y14.9408
N1555  G01 X75.2963Y12.8294
N1556  G01 X75.2700Y12.8293
N1557  G01 X75.2507Y12.8264
N1558  G01 X75.2324Y12.8198
N1559  G01 X75.2238Y12.8152
N1560  G01 X75.2081Y12.8036
N1561  G01 X74.8176Y12.4133
N1562  G01 X74.8079Y12.4021
N1563  G01 X74.8025Y12.3939
N1564  G01 X74.7979Y12.3853
N1565  G01 X74.7929Y12.3722
N1566  G01 X72.4945Y12.3722
N1567  G01 X72.4895Y12.3853
N1568  G01 X72.4849Y12.3939
N1569  G01 X72.4794Y12.4021
N1570  G01 X72.4698Y12.4133
N1571  G01 X72.0829Y12.8001
N1572  G01 X72.0717Y12.8098
N1573  G01 X72.0550Y12.8198
N1574  G01 X72.0366Y12.8264
N1575  G01 X72.0270Y12.8283
N1576  G01 X72.0122Y12.8294
N1577  G01 X71.4651Y12.8294
N1578  G01 X71.4503Y12.8283
N1579  G01 X71.4314Y12.8235
N1580  G01 X71.4224Y12.8198
N1581  G01 X71.4056Y12.8098
N1582  G01 X71.3944Y12.8001
N1583  G01 X71.0076Y12.4133
N1584  G01 X70.9979Y12.4021
N1585  G01 X70.9925Y12.3939
N1586  G01 X70.9841Y12.3763
N1587  G01 X70.9794Y12.3574
N1588  G01 X70.9783Y12.3425
N1589  G01 X70.9784Y11.7904
N1590  G01 X70.9813Y11.7711
N1591  G01 X70.9841Y11.7617
N1592  G01 X70.9925Y11.7441
N1593  G01 X71.0041Y11.7284
N1594  G00 Z2.0000
N1595  G00 X72.0963Y15.4647
N1596  G01 Z-0.0700
N1597  G01 X72.5908Y14.9701
N1598  G01 X72.6020Y14.9604
N1599  G01 X72.6101Y14.9550
N1600  G01 X72.6277Y14.9467
N1601  G01 X72.6467Y14.9419
N1602  G01 X72.6615Y14.9408
N1603  G01 X73.3559Y14.9408
N1604  G01 X73.3707Y14.9419
N1605  G01 X73.3803Y14.9438
N1606  G01 X73.3986Y14.9504
N1607  G01 X73.4154Y14.9604
N1608  G01 X73.4266Y14.9701
N1609  G01 X73.9176Y15.4611
N1610  G01 X73.9272Y15.4723
N1611  G01 X73.9327Y15.4804
N1612  G01 X73.9410Y15.4981
N1613  G01 X73.9458Y15.5170
N1614  G01 X73.9469Y15.5318
N1615  G01 X73.9469Y16.2262
N1616  G01 X73.9458Y16.2410
N1617  G01 X73.9439Y16.2506
N1618  G01 X73.9373Y16.2690
N1619  G01 X73.9272Y16.2857
N1620  G01 X73.9176Y16.2969
N1621  G01 X73.4266Y16.7879
N1622  G01 X73.4154Y16.7976
N1623  G01 X73.4073Y16.8030
N1624  G01 X73.3896Y16.8113
N1625  G01 X73.3707Y16.8161
N1626  G01 X73.3559Y16.8172
N1627  G01 X72.6615Y16.8172
N1628  G01 X72.6467Y16.8161
N1629  G01 X72.6371Y16.8142
N1630  G01 X72.6187Y16.8076
N1631  G01 X72.6020Y16.7976
N1632  G01 X72.5908Y16.7879
N1633  G01 X72.0998Y16.2969
N1634  G01 X72.0901Y16.2857
N1635  G01 X72.0847Y16.2776
N1636  G01 X72.0763Y16.2599
N1637  G01 X72.0716Y16.2410
N1638  G01 X72.0705Y16.2262
N1639  G01 X72.0705Y15.5318
N1640  G01 X72.0716Y15.5170
N1641  G01 X72.0763Y15.4981
N1642  G01 X72.0847Y15.4804
N1643  G01 X72.0963Y15.4647
N1644  G00 Z2.0000
N1645  G00 X69.5563Y15.4647
N1646  G01 Z-0.0700
N1647  G01 X70.0508Y14.9701
N1648  G01 X70.0620Y14.9604
N1649  G01 X70.0701Y14.9550
N1650  G01 X70.0877Y14.9467
N1651  G01 X70.1067Y14.9419
N1652  G01 X70.1215Y14.9408
N1653  G01 X70.8159Y14.9408
N1654  G01 X70.8307Y14.9419
N1655  G01 X70.8403Y14.9438
N1656  G01 X70.8586Y14.9504
N1657  G01 X70.8754Y14.9604
N1658  G01 X70.8866Y14.9701
N1659  G01 X71.3776Y15.4611
N1660  G01 X71.3872Y15.4723
N1661  G01 X71.3927Y15.4804
N1662  G01 X71.4010Y15.4981
N1663  G01 X71.4058Y15.5170
N1664  G01 X71.4069Y15.5318
N1665  G01 X71.4069Y16.2262
N1666  G01 X71.4058Y16.2410
N1667  G01 X71.4039Y16.2506
N1668  G01 X71.3973Y16.2690
N1669  G01 X71.3872Y16.2857
N1670  G01 X71.3776Y16.2969
N1671  G01 X70.8866Y16.7879
N1672  G01 X70.8754Y16.7976
N1673  G01 X70.8673Y16.8030
N1674  G01 X70.8496Y16.8113
N1675  G01 X70.8307Y16.8161
N1676  G01 X70.8159Y16.8172
N1677  G01 X70.1215Y16.8172
N1678  G01 X70.1067Y16.8161
N1679  G01 X70.0971Y16.8142
N1680  G01 X70.0787Y16.8076
N1681  G01 X70.0620Y16.7976
N1682  G01 X70.0508Y16.7879
N1683  G01 X69.5598Y16.2969
N1684  G01 X69.5501Y16.2857
N1685  G01 X69.5447Y16.2776
N1686  G01 X69.5363Y16.2599
N1687  G01 X69.5316Y16.2410
N1688  G01 X69.5305Y16.2262
N1689  G01 X69.5305Y15.5318
N1690  G01 X69.5316Y15.5170
N1691  G01 X69.5363Y15.4981
N1692  G01 X69.5447Y15.4804
N1693  G01 X69.5563Y15.4647
N1694  G00 Z2.0000
N1695  G00 X67.0163Y15.4647
N1696  G01 Z-0.0700
N1697  G01 X67.5108Y14.9701
N1698  G01 X67.5220Y14.9604
N1699  G01 X67.5301Y14.9550
N1700  G01 X67.5477Y14.9467
N1701  G01 X67.5667Y14.9419
N1702  G01 X67.5815Y14.9408
N1703  G01 X68.2759Y14.9408
N1704  G01 X68.2907Y14.9419
N1705  G01 X68.3003Y14.9438
N1706  G01 X68.3186Y14.9504
N1707  G01 X68.3354Y14.9604
N1708  G01 X68.3466Y14.9701
N1709  G01 X68.8376Y15.4611
N1710  G01 X68.8472Y15.4723
N1711  G01 X68.8527Y15.4804
N1712  G01 X68.8610Y15.4981
N1713  G01 X68.8658Y15.5170
N1714  G01 X68.8669Y15.5318
N1715  G01 X68.8669Y16.2262
N1716  G01 X68.8658Y16.2410
N1717  G01 X68.8639Y16.2506
N1718  G01 X68.8573Y16.2690
N1719  G01 X68.8472Y16.2857
N1720  G01 X68.8376Y16.2969
N1721  G01 X68.3466Y16.7879
N1722  G01 X68.3354Y16.7976
N1723  G01 X68.3273Y16.8030
N1724  G01 X68.3096Y16.8113
N1725  G01 X68.2907Y16.8161
N1726  G01 X68.2759Y16.8172
N1727  G01 X67.5815Y16.8172
N1728  G01 X67.5667Y16.8161
N1729  G01 X67.5571Y16.8142
N1730  G01 X67.5387Y16.8076
N1731  G01 X67.5220Y16.7976
N1732  G01 X67.5108Y16.7879
N1733  G01 X67.0198Y16.2969
N1734  G01 X67.0101Y16.2857
N1735  G01 X67.0047Y16.2776
N1736  G01 X66.9963Y16.2599
N1737  G01 X66.9916Y16.2410
N1738  G01 X66.9905Y16.2262
N1739  G01 X66.9905Y15.5318
N1740  G01 X66.9916Y15.5170
N1741  G01 X66.9963Y15.4981
N1742  G01 X67.0047Y15.4804
N1743  G01 X67.0163Y15.4647
N1744  G00 Z2.0000
N1745  G00 X67.0163Y40.8647
N1746  G01 Z-0.0700
N1747  G01 X67.5108Y40.3701
N1748  G01 X67.5220Y40.3604
N1749  G01 X67.5301Y40.3550
N1750  G01 X67.5477Y40.3467
N1751  G01 X67.5667Y40.3419
N1752  G01 X67.5815Y40.3408
N1753  G01 X68.2759Y40.3408
N1754  G01 X68.2907Y40.3419
N1755  G01 X68.3003Y40.3438
N1756  G01 X68.3186Y40.3504
N1757  G01 X68.3354Y40.3604
N1758  G01 X68.3466Y40.3701
N1759  G01 X68.8376Y40.8611
N1760  G01 X68.8472Y40.8723
N1761  G01 X68.8527Y40.8804
N1762  G01 X68.8610Y40.8981
N1763  G01 X68.8658Y40.9170
N1764  G01 X68.8669Y40.9318
N1765  G01 X68.8669Y41.6262
N1766  G01 X68.8658Y41.6410
N1767  G01 X68.8639Y41.6506
N1768  G01 X68.8573Y41.6690
N1769  G01 X68.8472Y41.6857
N1770  G01 X68.8376Y41.6969
N1771  G01 X68.3466Y42.1879
N1772  G01 X68.3354Y42.1976
N1773  G01 X68.3273Y42.2030
N1774  G01 X68.3096Y42.2113
N1775  G01 X68.2907Y42.2161
N1776  G01 X68.2759Y42.2172
N1777  G01 X67.5815Y42.2172
N1778  G01 X67.5667Y42.2161
N1779  G01 X67.5571Y42.2142
N1780  G01 X67.5387Y42.2076
N1781  G01 X67.5220Y42.1976
N1782  G01 X67.5108Y42.1879
N1783  G01 X67.0198Y41.6969
N1784  G01 X67.0101Y41.6857
N1785  G01 X67.0047Y41.6776
N1786  G01 X66.9963Y41.6599
N1787  G01 X66.9916Y41.6410
N1788  G01 X66.9905Y41.6262
N1789  G01 X66.9905Y40.9318
N1790  G01 X66.9916Y40.9170
N1791  G01 X66.9963Y40.8981
N1792  G01 X67.0047Y40.8804
N1793  G01 X67.0163Y40.8647
N1794  G00 Z2.0000
N1795  G00 X64.4763Y40.8647
N1796  G01 Z-0.0700
N1797  G01 X64.9708Y40.3701
N1798  G01 X64.9820Y40.3604
N1799  G01 X64.9901Y40.3550
N1800  G01 X65.0077Y40.3467
N1801  G01 X65.0267Y40.3419
N1802  G01 X65.0415Y40.3408
N1803  G01 X65.7359Y40.3408
N1804  G01 X65.7507Y40.3419
N1805  G01 X65.7603Y40.3438
N1806  G01 X65.7786Y40.3504
N1807  G01 X65.7954Y40.3604
N1808  G01 X65.8066Y40.3701
N1809  G01 X66.2976Y40.8611
N1810  G01 X66.3072Y40.8723
N1811  G01 X66.3127Y40.8804
N1812  G01 X66.3210Y40.8981
N1813  G01 X66.3258Y40.9170
N1814  G01 X66.3269Y40.9318
N1815  G01 X66.3269Y41.6262
N1816  G01 X66.3258Y41.6410
N1817  G01 X66.3239Y41.6506
N1818  G01 X66.3173Y41.6690
N1819  G01 X66.3072Y41.6857
N1820  G01 X66.2976Y41.6969
N1821  G01 X65.8066Y42.1879
N1822  G01 X65.7954Y42.1976
N1823  G01 X65.7873Y42.2030
N1824  G01 X65.7696Y42.2113
N1825  G01 X65.7507Y42.2161
N1826  G01 X65.7359Y42.2172
N1827  G01 X65.0415Y42.2172
N1828  G01 X65.0267Y42.2161
N1829  G01 X65.0171Y42.2142
N1830  G01 X64.9987Y42.2076
N1831  G01 X64.9820Y42.1976
N1832  G01 X64.9708Y42.1879
N1833  G01 X64.4798Y41.6969
N1834  G01 X64.4701Y41.6857
N1835  G01 X64.4647Y41.6776
N1836  G01 X64.4563Y41.6599
N1837  G01 X64.4516Y41.6410
N1838  G01 X64.4505Y41.6262
N1839  G01 X64.4505Y40.9318
N1840  G01 X64.4516Y40.9170
N1841  G01 X64.4563Y40.8981
N1842  G01 X64.4647Y40.8804
N1843  G01 X64.4763Y40.8647
N1844  G00 Z2.0000
N1845  G00 X64.5454Y42.8809
N1846  G01 Z-0.0700
N1847  G01 X66.2269Y42.8808
N1848  G01 X66.2417Y42.8819
N1849  G01 X66.2513Y42.8838
N1850  G01 X66.2697Y42.8904
N1851  G01 X66.2865Y42.9005
N1852  G01 X66.3010Y42.9136
N1853  G01 X66.3126Y42.9293
N1854  G01 X66.3210Y42.9470
N1855  G01 X66.3258Y42.9660
N1856  G01 X66.3269Y42.9808
N1857  G01 X66.3269Y44.6572
N1858  G01 X66.3258Y44.6720
N1859  G01 X66.3238Y44.6816
N1860  G01 X66.3172Y44.7000
N1861  G01 X66.3072Y44.7168
N1862  G01 X66.2940Y44.7313
N1863  G01 X66.2783Y44.7429
N1864  G01 X66.2607Y44.7513
N1865  G01 X66.2417Y44.7561
N1866  G01 X66.2269Y44.7572
N1867  G01 X64.5505Y44.7572
N1868  G01 X64.5356Y44.7561
N1869  G01 X64.5260Y44.7542
N1870  G01 X64.5076Y44.7476
N1871  G01 X64.4909Y44.7375
N1872  G01 X64.4764Y44.7244
N1873  G01 X64.4647Y44.7087
N1874  G01 X64.4564Y44.6910
N1875  G01 X64.4516Y44.6720
N1876  G01 X64.4505Y44.6572
N1877  G01 X64.4506Y42.9757
N1878  G01 X64.4516Y42.9660
N1879  G01 X64.4564Y42.9470
N1880  G01 X64.4647Y42.9293
N1881  G01 X64.4764Y42.9136
N1882  G01 X64.4909Y42.9005
N1883  G01 X64.5076Y42.8904
N1884  G01 X64.5260Y42.8838
N1885  G01 X64.5454Y42.8809
N1886  G00 Z2.0000
N1887  G00 X67.0163Y43.4047
N1888  G01 Z-0.0700
N1889  G01 X67.5108Y42.9101
N1890  G01 X67.5220Y42.9004
N1891  G01 X67.5301Y42.8950
N1892  G01 X67.5477Y42.8867
N1893  G01 X67.5667Y42.8819
N1894  G01 X67.5815Y42.8808
N1895  G01 X68.2759Y42.8808
N1896  G01 X68.2907Y42.8819
N1897  G01 X68.3003Y42.8838
N1898  G01 X68.3186Y42.8904
N1899  G01 X68.3354Y42.9004
N1900  G01 X68.3466Y42.9101
N1901  G01 X68.8376Y43.4011
N1902  G01 X68.8472Y43.4123
N1903  G01 X68.8527Y43.4204
N1904  G01 X68.8610Y43.4381
N1905  G01 X68.8658Y43.4570
N1906  G01 X68.8669Y43.4718
N1907  G01 X68.8669Y44.1662
N1908  G01 X68.8658Y44.1810
N1909  G01 X68.8639Y44.1906
N1910  G01 X68.8573Y44.2090
N1911  G01 X68.8472Y44.2257
N1912  G01 X68.8376Y44.2369
N1913  G01 X68.3466Y44.7279
N1914  G01 X68.3354Y44.7376
N1915  G01 X68.3273Y44.7430
N1916  G01 X68.3096Y44.7513
N1917  G01 X68.2907Y44.7561
N1918  G01 X68.2759Y44.7572
N1919  G01 X67.5815Y44.7572
N1920  G01 X67.5667Y44.7561
N1921  G01 X67.5571Y44.7542
N1922  G01 X67.5387Y44.7476
N1923  G01 X67.5220Y44.7376
N1924  G01 X67.5108Y44.7279
N1925  G01 X67.0198Y44.2369
N1926  G01 X67.0101Y44.2257
N1927  G01 X67.0047Y44.2176
N1928  G01 X66.9963Y44.1999
N1929  G01 X66.9916Y44.1810
N1930  G01 X66.9905Y44.1662
N1931  G01 X66.9905Y43.4718
N1932  G01 X66.9916Y43.4570
N1933  G01 X66.9963Y43.4381
N1934  G01 X67.0047Y43.4204
N1935  G01 X67.0163Y43.4047
N1936  G00 Z2.0000
N1937  G00 X69.5563Y43.4047
N1938  G01 Z-0.0700
N1939  G01 X70.0508Y42.9101
N1940  G01 X70.0620Y42.9004
N1941  G01 X70.0701Y42.8950
N1942  G01 X70.0877Y42.8867
N1943  G01 X70.1067Y42.8819
N1944  G01 X70.1215Y42.8808
N1945  G01 X70.8159Y42.8808
N1946  G01 X70.8307Y42.8819
N1947  G01 X70.8403Y42.8838
N1948  G01 X70.8586Y42.8904
N1949  G01 X70.8754Y42.9004
N1950  G01 X70.8866Y42.9101
N1951  G01 X71.3776Y43.4011
N1952  G01 X71.3872Y43.4123
N1953  G01 X71.3927Y43.4204
N1954  G01 X71.4010Y43.4381
N1955  G01 X71.4058Y43.4570
N1956  G01 X71.4069Y43.4718
N1957  G01 X71.4069Y44.1662
N1958  G01 X71.4058Y44.1810
N1959  G01 X71.4039Y44.1906
N1960  G01 X71.3973Y44.2090
N1961  G01 X71.3872Y44.2257
N1962  G01 X71.3776Y44.2369
N1963  G01 X70.8866Y44.7279
N1964  G01 X70.8754Y44.7376
N1965  G01 X70.8673Y44.7430
N1966  G01 X70.8496Y44.7513
N1967  G01 X70.8307Y44.7561
N1968  G01 X70.8159Y44.7572
N1969  G01 X70.1215Y44.7572
N1970  G01 X70.1067Y44.7561
N1971  G01 X70.0971Y44.7542
N1972  G01 X70.0787Y44.7476
N1973  G01 X70.0620Y44.7376
N1974  G01 X70.0508Y44.7279
N1975  G01 X69.5598Y44.2369
N1976  G01 X69.5501Y44.2257
N1977  G01 X69.5447Y44.2176
N1978  G01 X69.5363Y44.1999
N1979  G01 X69.5316Y44.1810
N1980  G01 X69.5305Y44.1662
N1981  G01 X69.5305Y43.4718
N1982  G01 X69.5316Y43.4570
N1983  G01 X69.5363Y43.4381
N1984  G01 X69.5447Y43.4204
N1985  G01 X69.5563Y43.4047
N1986  G00 Z2.0000
N1987  G00 X72.0963Y43.4047
N1988  G01 Z-0.0700
N1989  G01 X72.5908Y42.9101
N1990  G01 X72.6020Y42.9004
N1991  G01 X72.6101Y42.8950
N1992  G01 X72.6277Y42.8867
N1993  G01 X72.6467Y42.8819
N1994  G01 X72.6615Y42.8808
N1995  G01 X73.3559Y42.8808
N1996  G01 X73.3707Y42.8819
N1997  G01 X73.3803Y42.8838
N1998  G01 X73.3986Y42.8904
N1999  G01 X73.4154Y42.9004
N2000  G01 X73.4266Y42.9101
N2001  G01 X73.9176Y43.4011
N2002  G01 X73.9272Y43.4123
N2003  G01 X73.9327Y43.4204
N2004  G01 X73.9410Y43.4381
N2005  G01 X73.9458Y43.4570
N2006  G01 X73.9469Y43.4718
N2007  G01 X73.9469Y44.1662
N2008  G01 X73.9458Y44.1810
N2009  G01 X73.9439Y44.1906
N2010  G01 X73.9373Y44.2090
N2011  G01 X73.9272Y44.2257
N2012  G01 X73.9176Y44.2369
N2013  G01 X73.4266Y44.7279
N2014  G01 X73.4154Y44.7376
N2015  G01 X73.4073Y44.7430
N2016  G01 X73.3896Y44.7513
N2017  G01 X73.3707Y44.7561
N2018  G01 X73.3559Y44.7572
N2019  G01 X72.6615Y44.7572
N2020  G01 X72.6467Y44.7561
N2021  G01 X72.6371Y44.7542
N2022  G01 X72.6187Y44.7476
N2023  G01 X72.6020Y44.7376
N2024  G01 X72.5908Y44.7279
N2025  G01 X72.0998Y44.2369
N2026  G01 X72.0901Y44.2257
N2027  G01 X72.0847Y44.2176
N2028  G01 X72.0763Y44.1999
N2029  G01 X72.0716Y44.1810
N2030  G01 X72.0705Y44.1662
N2031  G01 X72.0705Y43.4718
N2032  G01 X72.0716Y43.4570
N2033  G01 X72.0763Y43.4381
N2034  G01 X72.0847Y43.4204
N2035  G01 X72.0963Y43.4047
N2036  G00 Z2.0000
N2037  G00 X74.6363Y40.8647
N2038  G01 Z-0.0700
N2039  G01 X75.1308Y40.3701
N2040  G01 X75.1420Y40.3604
N2041  G01 X75.1501Y40.3550
N2042  G01 X75.1677Y40.3467
N2043  G01 X75.1867Y40.3419
N2044  G01 X75.2015Y40.3408
N2045  G01 X75.8959Y40.3408
N2046  G01 X75.9107Y40.3419
N2047  G01 X75.9203Y40.3438
N2048  G01 X75.9386Y40.3504
N2049  G01 X75.9554Y40.3604
N2050  G01 X75.9666Y40.3701
N2051  G01 X76.4576Y40.8611
N2052  G01 X76.4672Y40.8723
N2053  G01 X76.4727Y40.8804
N2054  G01 X76.4810Y40.8981
N2055  G01 X76.4858Y40.9170
N2056  G01 X76.4869Y40.9318
N2057  G01 X76.4869Y41.6262
N2058  G01 X76.4858Y41.6410
N2059  G01 X76.4839Y41.6506
N2060  G01 X76.4773Y41.6690
N2061  G01 X76.4672Y41.6857
N2062  G01 X76.4576Y41.6969
N2063  G01 X75.9666Y42.1879
N2064  G01 X75.9554Y42.1976
N2065  G01 X75.9473Y42.2030
N2066  G01 X75.9296Y42.2113
N2067  G01 X75.9107Y42.2161
N2068  G01 X75.8959Y42.2172
N2069  G01 X75.2015Y42.2172
N2070  G01 X75.1867Y42.2161
N2071  G01 X75.1771Y42.2142
N2072  G01 X75.1587Y42.2076
N2073  G01 X75.1420Y42.1976
N2074  G01 X75.1308Y42.1879
N2075  G01 X74.6398Y41.6969
N2076  G01 X74.6301Y41.6857
N2077  G01 X74.6247Y41.6776
N2078  G01 X74.6163Y41.6599
N2079  G01 X74.6116Y41.6410
N2080  G01 X74.6105Y41.6262
N2081  G01 X74.6105Y40.9318
N2082  G01 X74.6116Y40.9170
N2083  G01 X74.6163Y40.8981
N2084  G01 X74.6247Y40.8804
N2085  G01 X74.6363Y40.8647
N2086  G00 Z2.0000
N2087  G00 X77.1763Y40.8647
N2088  G01 Z-0.0700
N2089  G01 X77.6708Y40.3701
N2090  G01 X77.6820Y40.3604
N2091  G01 X77.6901Y40.3550
N2092  G01 X77.7077Y40.3467
N2093  G01 X77.7267Y40.3419
N2094  G01 X77.7415Y40.3408
N2095  G01 X78.4359Y40.3408
N2096  G01 X78.4507Y40.3419
N2097  G01 X78.4603Y40.3438
N2098  G01 X78.4786Y40.3504
N2099  G01 X78.4954Y40.3604
N2100  G01 X78.5066Y40.3701
N2101  G01 X78.9976Y40.8611
N2102  G01 X79.0072Y40.8723
N2103  G01 X79.0127Y40.8804
N2104  G01 X79.0210Y40.8981
N2105  G01 X79.0258Y40.9170
N2106  G01 X79.0269Y40.9318
N2107  G01 X79.0269Y41.6262
N2108  G01 X79.0258Y41.6410
N2109  G01 X79.0239Y41.6506
N2110  G01 X79.0173Y41.6690
N2111  G01 X79.0072Y41.6857
N2112  G01 X78.9976Y41.6969
N2113  G01 X78.5066Y42.1879
N2114  G01 X78.4954Y42.1976
N2115  G01 X78.4873Y42.2030
N2116  G01 X78.4696Y42.2113
N2117  G01 X78.4507Y42.2161
N2118  G01 X78.4359Y42.2172
N2119  G01 X77.7415Y42.2172
N2120  G01 X77.7267Y42.2161
N2121  G01 X77.7171Y42.2142
N2122  G01 X77.6987Y42.2076
N2123  G01 X77.6820Y42.1976
N2124  G01 X77.6708Y42.1879
N2125  G01 X77.1798Y41.6969
N2126  G01 X77.1701Y41.6857
N2127  G01 X77.1647Y41.6776
N2128  G01 X77.1563Y41.6599
N2129  G01 X77.1516Y41.6410
N2130  G01 X77.1505Y41.6262
N2131  G01 X77.1505Y40.9318
N2132  G01 X77.1516Y40.9170
N2133  G01 X77.1563Y40.8981
N2134  G01 X77.1647Y40.8804
N2135  G01 X77.1763Y40.8647
N2136  G00 Z2.0000
N2137  G00 X79.7163Y40.8647
N2138  G01 Z-0.0700
N2139  G01 X80.2108Y40.3701
N2140  G01 X80.2220Y40.3604
N2141  G01 X80.2301Y40.3550
N2142  G01 X80.2477Y40.3467
N2143  G01 X80.2667Y40.3419
N2144  G01 X80.2815Y40.3408
N2145  G01 X80.9759Y40.3408
N2146  G01 X80.9907Y40.3419
N2147  G01 X81.0003Y40.3438
N2148  G01 X81.0186Y40.3504
N2149  G01 X81.0354Y40.3604
N2150  G01 X81.0466Y40.3701
N2151  G01 X81.5376Y40.8611
N2152  G01 X81.5472Y40.8723
N2153  G01 X81.5527Y40.8804
N2154  G01 X81.5610Y40.8981
N2155  G01 X81.5658Y40.9170
N2156  G01 X81.5669Y40.9318
N2157  G01 X81.5669Y41.6262
N2158  G01 X81.5658Y41.6410
N2159  G01 X81.5639Y41.6506
N2160  G01 X81.5573Y41.6690
N2161  G01 X81.5472Y41.6857
N2162  G01 X81.5376Y41.6969
N2163  G01 X81.0466Y42.1879
N2164  G01 X81.0354Y42.1976
N2165  G01 X81.0273Y42.2030
N2166  G01 X81.0096Y42.2113
N2167  G01 X80.9907Y42.2161
N2168  G01 X80.9759Y42.2172
N2169  G01 X80.2815Y42.2172
N2170  G01 X80.2667Y42.2161
N2171  G01 X80.2571Y42.2142
N2172  G01 X80.2387Y42.2076
N2173  G01 X80.2220Y42.1976
N2174  G01 X80.2108Y42.1879
N2175  G01 X79.7198Y41.6969
N2176  G01 X79.7101Y41.6857
N2177  G01 X79.7047Y41.6776
N2178  G01 X79.6963Y41.6599
N2179  G01 X79.6916Y41.6410
N2180  G01 X79.6905Y41.6262
N2181  G01 X79.6905Y40.9318
N2182  G01 X79.6916Y40.9170
N2183  G01 X79.6963Y40.8981
N2184  G01 X79.7047Y40.8804
N2185  G01 X79.7163Y40.8647
N2186  G00 Z2.0000
N2187  G00 X82.2563Y40.8647
N2188  G01 Z-0.0700
N2189  G01 X82.7508Y40.3701
N2190  G01 X82.7620Y40.3604
N2191  G01 X82.7701Y40.3550
N2192  G01 X82.7877Y40.3467
N2193  G01 X82.8067Y40.3419
N2194  G01 X82.8215Y40.3408
N2195  G01 X83.5159Y40.3408
N2196  G01 X83.5307Y40.3419
N2197  G01 X83.5403Y40.3438
N2198  G01 X83.5586Y40.3504
N2199  G01 X83.5754Y40.3604
N2200  G01 X83.5866Y40.3701
N2201  G01 X84.0776Y40.8611
N2202  G01 X84.0872Y40.8723
N2203  G01 X84.0927Y40.8804
N2204  G01 X84.1010Y40.8981
N2205  G01 X84.1058Y40.9170
N2206  G01 X84.1069Y40.9318
N2207  G01 X84.1069Y41.6262
N2208  G01 X84.1058Y41.6410
N2209  G01 X84.1039Y41.6506
N2210  G01 X84.0973Y41.6690
N2211  G01 X84.0872Y41.6857
N2212  G01 X84.0776Y41.6969
N2213  G01 X83.5866Y42.1879
N2214  G01 X83.5754Y42.1976
N2215  G01 X83.5673Y42.2030
N2216  G01 X83.5496Y42.2113
N2217  G01 X83.5307Y42.2161
N2218  G01 X83.5159Y42.2172
N2219  G01 X82.8215Y42.2172
N2220  G01 X82.8067Y42.2161
N2221  G01 X82.7971Y42.2142
N2222  G01 X82.7787Y42.2076
N2223  G01 X82.7620Y42.1976
N2224  G01 X82.7508Y42.1879
N2225  G01 X82.2598Y41.6969
N2226  G01 X82.2501Y41.6857
N2227  G01 X82.2447Y41.6776
N2228  G01 X82.2363Y41.6599
N2229  G01 X82.2316Y41.6410
N2230  G01 X82.2305Y41.6262
N2231  G01 X82.2305Y40.9318
N2232  G01 X82.2316Y40.9170
N2233  G01 X82.2363Y40.8981
N2234  G01 X82.2447Y40.8804
N2235  G01 X82.2563Y40.8647
N2236  G00 Z2.0000
N2237  G00 X82.2563Y43.4047
N2238  G01 Z-0.0700
N2239  G01 X82.7508Y42.9101
N2240  G01 X82.7620Y42.9004
N2241  G01 X82.7701Y42.8950
N2242  G01 X82.7877Y42.8867
N2243  G01 X82.8067Y42.8819
N2244  G01 X82.8215Y42.8808
N2245  G01 X83.5159Y42.8808
N2246  G01 X83.5307Y42.8819
N2247  G01 X83.5403Y42.8838
N2248  G01 X83.5586Y42.8904
N2249  G01 X83.5754Y42.9004
N2250  G01 X83.5866Y42.9101
N2251  G01 X84.0776Y43.4011
N2252  G01 X84.0872Y43.4123
N2253  G01 X84.0927Y43.4204
N2254  G01 X84.1010Y43.4381
N2255  G01 X84.1058Y43.4570
N2256  G01 X84.1069Y43.4718
N2257  G01 X84.1069Y44.1662
N2258  G01 X84.1058Y44.1810
N2259  G01 X84.1039Y44.1906
N2260  G01 X84.0973Y44.2090
N2261  G01 X84.0872Y44.2257
N2262  G01 X84.0776Y44.2369
N2263  G01 X83.5866Y44.7279
N2264  G01 X83.5754Y44.7376
N2265  G01 X83.5673Y44.7430
N2266  G01 X83.5496Y44.7513
N2267  G01 X83.5307Y44.7561
N2268  G01 X83.5159Y44.7572
N2269  G01 X82.8215Y44.7572
N2270  G01 X82.8067Y44.7561
N2271  G01 X82.7971Y44.7542
N2272  G01 X82.7787Y44.7476
N2273  G01 X82.7620Y44.7376
N2274  G01 X82.7508Y44.7279
N2275  G01 X82.2598Y44.2369
N2276  G01 X82.2501Y44.2257
N2277  G01 X82.2447Y44.2176
N2278  G01 X82.2363Y44.1999
N2279  G01 X82.2316Y44.1810
N2280  G01 X82.2305Y44.1662
N2281  G01 X82.2305Y43.4718
N2282  G01 X82.2316Y43.4570
N2283  G01 X82.2363Y43.4381
N2284  G01 X82.2447Y43.4204
N2285  G01 X82.2563Y43.4047
N2286  G00 Z2.0000
N2287  G00 X84.7963Y43.4047
N2288  G01 Z-0.0700
N2289  G01 X85.2908Y42.9101
N2290  G01 X85.3020Y42.9004
N2291  G01 X85.3101Y42.8950
N2292  G01 X85.3277Y42.8867
N2293  G01 X85.3467Y42.8819
N2294  G01 X85.3615Y42.8808
N2295  G01 X86.0559Y42.8808
N2296  G01 X86.0707Y42.8819
N2297  G01 X86.0803Y42.8838
N2298  G01 X86.0986Y42.8904
N2299  G01 X86.1154Y42.9004
N2300  G01 X86.1266Y42.9101
N2301  G01 X86.6176Y43.4011
N2302  G01 X86.6272Y43.4123
N2303  G01 X86.6327Y43.4204
N2304  G01 X86.6410Y43.4381
N2305  G01 X86.6458Y43.4570
N2306  G01 X86.6469Y43.4718
N2307  G01 X86.6469Y44.1662
N2308  G01 X86.6458Y44.1810
N2309  G01 X86.6439Y44.1906
N2310  G01 X86.6373Y44.2090
N2311  G01 X86.6272Y44.2257
N2312  G01 X86.6176Y44.2369
N2313  G01 X86.1266Y44.7279
N2314  G01 X86.1154Y44.7376
N2315  G01 X86.1073Y44.7430
N2316  G01 X86.0896Y44.7513
N2317  G01 X86.0707Y44.7561
N2318  G01 X86.0559Y44.7572
N2319  G01 X85.3615Y44.7572
N2320  G01 X85.3467Y44.7561
N2321  G01 X85.3371Y44.7542
N2322  G01 X85.3187Y44.7476
N2323  G01 X85.3020Y44.7376
N2324  G01 X85.2908Y44.7279
N2325  G01 X84.7998Y44.2369
N2326  G01 X84.7901Y44.2257
N2327  G01 X84.7847Y44.2176
N2328  G01 X84.7763Y44.1999
N2329  G01 X84.7716Y44.1810
N2330  G01 X84.7705Y44.1662
N2331  G01 X84.7705Y43.4718
N2332  G01 X84.7716Y43.4570
N2333  G01 X84.7763Y43.4381
N2334  G01 X84.7847Y43.4204
N2335  G01 X84.7963Y43.4047
N2336  G00 Z2.0000
N2337  G00 X84.7963Y40.8647
N2338  G01 Z-0.0700
N2339  G01 X85.2908Y40.3701
N2340  G01 X85.3020Y40.3604
N2341  G01 X85.3101Y40.3550
N2342  G01 X85.3277Y40.3467
N2343  G01 X85.3467Y40.3419
N2344  G01 X85.3615Y40.3408
N2345  G01 X86.0559Y40.3408
N2346  G01 X86.0707Y40.3419
N2347  G01 X86.0803Y40.3438
N2348  G01 X86.0986Y40.3504
N2349  G01 X86.1154Y40.3604
N2350  G01 X86.1266Y40.3701
N2351  G01 X86.6176Y40.8611
N2352  G01 X86.6272Y40.8723
N2353  G01 X86.6327Y40.8804
N2354  G01 X86.6410Y40.8981
N2355  G01 X86.6458Y40.9170
N2356  G01 X86.6469Y40.9318
N2357  G01 X86.6469Y41.6262
N2358  G01 X86.6458Y41.6410
N2359  G01 X86.6439Y41.6506
N2360  G01 X86.6373Y41.6690
N2361  G01 X86.6272Y41.6857
N2362  G01 X86.6176Y41.6969
N2363  G01 X86.1266Y42.1879
N2364  G01 X86.1154Y42.1976
N2365  G01 X86.1073Y42.2030
N2366  G01 X86.0896Y42.2113
N2367  G01 X86.0707Y42.2161
N2368  G01 X86.0559Y42.2172
N2369  G01 X85.3615Y42.2172
N2370  G01 X85.3467Y42.2161
N2371  G01 X85.3371Y42.2142
N2372  G01 X85.3187Y42.2076
N2373  G01 X85.3020Y42.1976
N2374  G01 X85.2908Y42.1879
N2375  G01 X84.7998Y41.6969
N2376  G01 X84.7901Y41.6857
N2377  G01 X84.7847Y41.6776
N2378  G01 X84.7763Y41.6599
N2379  G01 X84.7716Y41.6410
N2380  G01 X84.7705Y41.6262
N2381  G01 X84.7705Y40.9318
N2382  G01 X84.7716Y40.9170
N2383  G01 X84.7763Y40.8981
N2384  G01 X84.7847Y40.8804
N2385  G01 X84.7963Y40.8647
N2386  G00 Z2.0000
N2387  G00 X87.3363Y40.8647
N2388  G01 Z-0.0700
N2389  G01 X87.8308Y40.3701
N2390  G01 X87.8420Y40.3604
N2391  G01 X87.8501Y40.3550
N2392  G01 X87.8677Y40.3467
N2393  G01 X87.8867Y40.3419
N2394  G01 X87.9015Y40.3408
N2395  G01 X88.5959Y40.3408
N2396  G01 X88.6107Y40.3419
N2397  G01 X88.6203Y40.3438
N2398  G01 X88.6386Y40.3504
N2399  G01 X88.6554Y40.3604
N2400  G01 X88.6666Y40.3701
N2401  G01 X89.1576Y40.8611
N2402  G01 X89.1672Y40.8723
N2403  G01 X89.1727Y40.8804
N2404  G01 X89.1810Y40.8981
N2405  G01 X89.1858Y40.9170
N2406  G01 X89.1869Y40.9318
N2407  G01 X89.1869Y41.6262
N2408  G01 X89.1858Y41.6410
N2409  G01 X89.1839Y41.6506
N2410  G01 X89.1773Y41.6690
N2411  G01 X89.1672Y41.6857
N2412  G01 X89.1576Y41.6969
N2413  G01 X88.6666Y42.1879
N2414  G01 X88.6554Y42.1976
N2415  G01 X88.6473Y42.2030
N2416  G01 X88.6296Y42.2113
N2417  G01 X88.6107Y42.2161
N2418  G01 X88.5959Y42.2172
N2419  G01 X87.9015Y42.2172
N2420  G01 X87.8867Y42.2161
N2421  G01 X87.8771Y42.2142
N2422  G01 X87.8587Y42.2076
N2423  G01 X87.8420Y42.1976
N2424  G01 X87.8308Y42.1879
N2425  G01 X87.3398Y41.6969
N2426  G01 X87.3301Y41.6857
N2427  G01 X87.3247Y41.6776
N2428  G01 X87.3163Y41.6599
N2429  G01 X87.3116Y41.6410
N2430  G01 X87.3105Y41.6262
N2431  G01 X87.3105Y40.9318
N2432  G01 X87.3116Y40.9170
N2433  G01 X87.3163Y40.8981
N2434  G01 X87.3247Y40.8804
N2435  G01 X87.3363Y40.8647
N2436  G00 Z2.0000
N2437  G00 X88.9837Y44.5540
N2438  G01 Z-0.0700
N2439  G01 X89.4562Y44.5540
N2440  G01 X88.9837Y45.0265
N2441  G01 X88.9837Y44.5540
N2442  G00 Z2.0000
N2443  G00 X85.1737Y47.6254
N2444  G01 Z-0.0700
N2445  G01 X85.3947Y47.8465
N2446  G01 X85.1737Y47.8465
N2447  G01 X85.1737Y47.6254
N2448  G00 Z2.0000
N2449  G00 X85.1737Y49.3165
N2450  G01 Z-0.0700
N2451  G01 X85.3947Y49.3165
N2452  G01 X85.1737Y49.5376
N2453  G01 X85.1737Y49.3165
N2454  G00 Z2.0000
N2455  G00 X83.7037Y49.5376
N2456  G01 Z-0.0700
N2457  G01 X83.4826Y49.3165
N2458  G01 X83.7037Y49.3165
N2459  G01 X83.7037Y49.5376
N2460  G00 Z2.0000
N2461  G00 X83.4826Y47.8465
N2462  G01 Z-0.0700
N2463  G01 X83.7037Y47.6254
N2464  G01 X83.7037Y47.8465
N2465  G01 X83.4826Y47.8465
N2466  G00 Z2.0000
N2467  G00 X77.1763Y43.4047
N2468  G01 Z-0.0700
N2469  G01 X77.6708Y42.9101
N2470  G01 X77.6820Y42.9004
N2471  G01 X77.6901Y42.8950
N2472  G01 X77.7077Y42.8867
N2473  G01 X77.7267Y42.8819
N2474  G01 X77.7415Y42.8808
N2475  G01 X78.4359Y42.8808
N2476  G01 X78.4507Y42.8819
N2477  G01 X78.4603Y42.8838
N2478  G01 X78.4786Y42.8904
N2479  G01 X78.4954Y42.9004
N2480  G01 X78.5066Y42.9101
N2481  G01 X78.9976Y43.4011
N2482  G01 X79.0072Y43.4123
N2483  G01 X79.0127Y43.4204
N2484  G01 X79.0210Y43.4381
N2485  G01 X79.0258Y43.4570
N2486  G01 X79.0269Y43.4718
N2487  G01 X79.0269Y44.1662
N2488  G01 X79.0258Y44.1810
N2489  G01 X79.0239Y44.1906
N2490  G01 X79.0173Y44.2090
N2491  G01 X79.0072Y44.2257
N2492  G01 X78.9976Y44.2369
N2493  G01 X78.5066Y44.7279
N2494  G01 X78.4954Y44.7376
N2495  G01 X78.4873Y44.7430
N2496  G01 X78.4696Y44.7513
N2497  G01 X78.4507Y44.7561
N2498  G01 X78.4359Y44.7572
N2499  G01 X77.7415Y44.7572
N2500  G01 X77.7267Y44.7561
N2501  G01 X77.7171Y44.7542
N2502  G01 X77.6987Y44.7476
N2503  G01 X77.6820Y44.7376
N2504  G01 X77.6708Y44.7279
N2505  G01 X77.1798Y44.2369
N2506  G01 X77.1701Y44.2257
N2507  G01 X77.1647Y44.2176
N2508  G01 X77.1563Y44.1999
N2509  G01 X77.1516Y44.1810
N2510  G01 X77.1505Y44.1662
N2511  G01 X77.1505Y43.4718
N2512  G01 X77.1516Y43.4570
N2513  G01 X77.1563Y43.4381
N2514  G01 X77.1647Y43.4204
N2515  G01 X77.1763Y43.4047
N2516  G00 Z2.0000
N2517  G00 X69.2482Y52.4327
N2518  G01 Z-0.0700
N2519  G01 X70.0574Y51.6534
N2520  G01 X70.0739Y51.6389
N2521  G01 X70.0919Y51.6256
N2522  G01 X70.1120Y51.6134
N2523  G01 X70.1314Y51.6039
N2524  G01 X70.1506Y51.5965
N2525  G01 X70.3923Y51.5160
N2526  G01 X70.4148Y51.5099
N2527  G01 X70.4411Y51.5056
N2528  G01 X70.4687Y51.5041
N2529  G01 X79.8891Y51.5041
N2530  G01 X80.3763Y51.0170
N2531  G01 X80.3763Y49.3419
N2532  G01 X80.3500Y49.3418
N2533  G01 X80.3403Y49.3408
N2534  G01 X80.3214Y49.3360
N2535  G01 X80.3038Y49.3277
N2536  G01 X80.2956Y49.3223
N2537  G01 X80.2844Y49.3126
N2538  G01 X79.8941Y48.9221
N2539  G01 X79.8825Y48.9064
N2540  G01 X79.8741Y48.8888
N2541  G01 X79.8694Y48.8699
N2542  G01 X79.8683Y48.8550
N2543  G01 X79.8683Y48.3080
N2544  G01 X79.8694Y48.2931
N2545  G01 X79.8713Y48.2836
N2546  G01 X79.8779Y48.2652
N2547  G01 X79.8879Y48.2484
N2548  G01 X79.8976Y48.2372
N2549  G01 X80.2881Y47.8469
N2550  G01 X80.3038Y47.8353
N2551  G01 X80.3214Y47.8270
N2552  G01 X80.3307Y47.8241
N2553  G01 X80.3500Y47.8212
N2554  G01 X80.3763Y47.8211
N2555  G01 X80.3763Y44.7572
N2556  G01 X80.2815Y44.7572
N2557  G01 X80.2667Y44.7561
N2558  G01 X80.2477Y44.7513
N2559  G01 X80.2301Y44.7430
N2560  G01 X80.2220Y44.7376
N2561  G01 X80.2108Y44.7279
N2562  G01 X79.7198Y44.2369
N2563  G01 X79.7101Y44.2257
N2564  G01 X79.7001Y44.2090
N2565  G01 X79.6935Y44.1906
N2566  G01 X79.6916Y44.1810
N2567  G01 X79.6905Y44.1662
N2568  G01 X79.6905Y43.4718
N2569  G01 X79.6916Y43.4570
N2570  G01 X79.6935Y43.4474
N2571  G01 X79.6963Y43.4381
N2572  G01 X79.7047Y43.4204
N2573  G01 X79.7101Y43.4123
N2574  G01 X79.7198Y43.4011
N2575  G01 X80.2108Y42.9101
N2576  G01 X80.2220Y42.9004
N2577  G01 X80.2301Y42.8950
N2578  G01 X80.2477Y42.8867
N2579  G01 X80.2667Y42.8819
N2580  G01 X80.2815Y42.8808
N2581  G01 X80.9759Y42.8808
N2582  G01 X80.9907Y42.8819
N2583  G01 X81.0003Y42.8838
N2584  G01 X81.0186Y42.8904
N2585  G01 X81.0354Y42.9004
N2586  G01 X81.0466Y42.9101
N2587  G01 X81.5376Y43.4011
N2588  G01 X81.5472Y43.4123
N2589  G01 X81.5527Y43.4204
N2590  G01 X81.5610Y43.4381
N2591  G01 X81.5658Y43.4570
N2592  G01 X81.5669Y43.4718
N2593  G01 X81.5669Y44.1662
N2594  G01 X81.5658Y44.1810
N2595  G01 X81.5639Y44.1906
N2596  G01 X81.5573Y44.2090
N2597  G01 X81.5472Y44.2257
N2598  G01 X81.5376Y44.2369
N2599  G01 X81.0466Y44.7279
N2600  G01 X81.0354Y44.7376
N2601  G01 X81.0186Y44.7476
N2602  G01 X81.0096Y44.7513
N2603  G01 X80.9907Y44.7561
N2604  G01 X80.9759Y44.7572
N2605  G01 X80.8811Y44.7572
N2606  G01 X80.8811Y47.8211
N2607  G01 X80.9073Y47.8212
N2608  G01 X80.9266Y47.8241
N2609  G01 X80.9360Y47.8270
N2610  G01 X80.9536Y47.8353
N2611  G01 X80.9693Y47.8469
N2612  G01 X81.3598Y48.2372
N2613  G01 X81.3694Y48.2484
N2614  G01 X81.3795Y48.2652
N2615  G01 X81.3861Y48.2836
N2616  G01 X81.3880Y48.2931
N2617  G01 X81.3891Y48.3080
N2618  G01 X81.3891Y48.8550
N2619  G01 X81.3880Y48.8699
N2620  G01 X81.3861Y48.8794
N2621  G01 X81.3795Y48.8978
N2622  G01 X81.3694Y48.9146
N2623  G01 X81.3633Y48.9221
N2624  G01 X80.9693Y49.3161
N2625  G01 X80.9617Y49.3223
N2626  G01 X80.9450Y49.3323
N2627  G01 X80.9266Y49.3389
N2628  G01 X80.9073Y49.3418
N2629  G01 X80.8811Y49.3419
N2630  G01 X80.8811Y51.1235
N2631  G01 X80.8798Y51.1466
N2632  G01 X80.8762Y51.1706
N2633  G01 X80.8704Y51.1943
N2634  G01 X80.8618Y51.2184
N2635  G01 X80.8513Y51.2405
N2636  G01 X80.8384Y51.2619
N2637  G01 X80.8240Y51.2814
N2638  G01 X80.8082Y51.2989
N2639  G01 X80.1722Y51.9350
N2640  G01 X80.1536Y51.9518
N2641  G01 X80.1379Y51.9635
N2642  G01 X80.1083Y51.9813
N2643  G01 X80.0905Y51.9896
N2644  G01 X80.0665Y51.9982
N2645  G01 X80.0428Y52.0041
N2646  G01 X80.0233Y52.0071
N2647  G01 X79.9937Y52.0089
N2648  G01 X70.5096Y52.0089
N2649  G01 X70.3664Y52.0566
N2650  G01 X69.5975Y52.7972
N2651  G01 X69.6354Y52.8607
N2652  G01 X69.6853Y52.9662
N2653  G01 X69.7250Y53.0771
N2654  G01 X69.7522Y53.1854
N2655  G01 X69.7708Y53.3108
N2656  G01 X69.7762Y53.4227
N2657  G01 X69.7704Y53.5399
N2658  G01 X69.7533Y53.6552
N2659  G01 X69.7250Y53.7683
N2660  G01 X69.6853Y53.8792
N2661  G01 X69.6376Y53.9804
N2662  G01 X69.5725Y54.0891
N2663  G01 X69.5058Y54.1788
N2664  G01 X69.4235Y54.2691
N2665  G01 X69.3401Y54.3445
N2666  G01 X69.2465Y54.4139
N2667  G01 X69.1460Y54.4742
N2668  G01 X69.0447Y54.5222
N2669  G01 X68.9253Y54.5649
N2670  G01 X68.8165Y54.5921
N2671  G01 X68.7012Y54.6092
N2672  G01 X68.5840Y54.6149
N2673  G01 X68.4720Y54.6096
N2674  G01 X68.3466Y54.5910
N2675  G01 X68.2384Y54.5637
N2676  G01 X68.1275Y54.5241
N2677  G01 X68.0220Y54.4742
N2678  G01 X67.9215Y54.4139
N2679  G01 X67.8279Y54.3445
N2680  G01 X67.7410Y54.2658
N2681  G01 X67.6622Y54.1788
N2682  G01 X67.5928Y54.0852
N2683  G01 X67.5326Y53.9848
N2684  G01 X67.4827Y53.8792
N2685  G01 X67.4430Y53.7683
N2686  G01 X67.4147Y53.6552
N2687  G01 X67.3976Y53.5399
N2688  G01 X67.3918Y53.4227
N2689  G01 X67.3976Y53.3055
N2690  G01 X67.4147Y53.1902
N2691  G01 X67.4430Y53.0771
N2692  G01 X67.4827Y52.9662
N2693  G01 X67.5326Y52.8607
N2694  G01 X67.5928Y52.7602
N2695  G01 X67.6622Y52.6666
N2696  G01 X67.7410Y52.5797
N2697  G01 X67.8279Y52.5010
N2698  G01 X67.9215Y52.4316
N2699  G01 X68.0220Y52.3713
N2700  G01 X68.1275Y52.3214
N2701  G01 X68.2384Y52.2817
N2702  G01 X68.3515Y52.2534
N2703  G01 X68.4668Y52.2363
N2704  G01 X68.5840Y52.2305
N2705  G01 X68.7012Y52.2363
N2706  G01 X68.8165Y52.2534
N2707  G01 X68.9296Y52.2817
N2708  G01 X69.0405Y52.3214
N2709  G01 X69.1460Y52.3713
N2710  G01 X69.2482Y52.4327
N2711  G00 Z2.0000
N2712  G00 X67.1751Y53.4276
N2713  G01 Z-0.0700
N2714  G01 X67.1695Y53.5399
N2715  G01 X67.1524Y53.6552
N2716  G01 X67.1240Y53.7683
N2717  G01 X67.0844Y53.8792
N2718  G01 X67.0345Y53.9848
N2719  G01 X66.9742Y54.0852
N2720  G01 X66.9048Y54.1788
N2721  G01 X66.8261Y54.2658
N2722  G01 X66.7391Y54.3445
N2723  G01 X66.6455Y54.4139
N2724  G01 X66.5451Y54.4742
N2725  G01 X66.4395Y54.5241
N2726  G01 X66.3286Y54.5637
N2727  G01 X66.2155Y54.5921
N2728  G01 X66.1002Y54.6092
N2729  G01 X65.9830Y54.6149
N2730  G01 X65.8658Y54.6092
N2731  G01 X65.7505Y54.5921
N2732  G01 X65.6374Y54.5637
N2733  G01 X65.5265Y54.5241
N2734  G01 X65.4210Y54.4742
N2735  G01 X65.3205Y54.4139
N2736  G01 X65.2269Y54.3445
N2737  G01 X65.1400Y54.2658
N2738  G01 X65.0613Y54.1788
N2739  G01 X64.9919Y54.0852
N2740  G01 X64.9316Y53.9848
N2741  G01 X64.8817Y53.8792
N2742  G01 X64.8420Y53.7683
N2743  G01 X64.8137Y53.6552
N2744  G01 X64.7966Y53.5399
N2745  G01 X64.7908Y53.4227
N2746  G01 X64.7966Y53.3055
N2747  G01 X64.8137Y53.1902
N2748  G01 X64.8420Y53.0771
N2749  G01 X64.8817Y52.9662
N2750  G01 X64.9316Y52.8607
N2751  G01 X64.9919Y52.7602
N2752  G01 X65.0613Y52.6666
N2753  G01 X65.1400Y52.5797
N2754  G01 X65.2269Y52.5010
N2755  G01 X65.3205Y52.4316
N2756  G01 X65.4210Y52.3713
N2757  G01 X65.5265Y52.3214
N2758  G01 X65.6374Y52.2817
N2759  G01 X65.7505Y52.2534
N2760  G01 X65.8658Y52.2363
N2761  G01 X65.9830Y52.2305
N2762  G01 X66.1002Y52.2363
N2763  G01 X66.2155Y52.2534
N2764  G01 X66.3286Y52.2817
N2765  G01 X66.4395Y52.3214
N2766  G01 X66.5451Y52.3713
N2767  G01 X66.6455Y52.4316
N2768  G01 X66.7391Y52.5010
N2769  G01 X66.8261Y52.5797
N2770  G01 X66.9048Y52.6666
N2771  G01 X66.9742Y52.7602
N2772  G01 X67.0345Y52.8607
N2773  G01 X67.0844Y52.9662
N2774  G01 X67.1240Y53.0771
N2775  G01 X67.1524Y53.1902
N2776  G01 X67.1695Y53.3055
N2777  G01 X67.1751Y53.4276
N2778  G00 Z2.0000
N2779  G00 X62.1764Y53.4276
N2780  G01 Z-0.0700
N2781  G01 X62.1707Y53.5399
N2782  G01 X62.1536Y53.6552
N2783  G01 X62.1253Y53.7683
N2784  G01 X62.0857Y53.8792
N2785  G01 X62.0357Y53.9848
N2786  G01 X61.9755Y54.0852
N2787  G01 X61.9061Y54.1788
N2788  G01 X61.8273Y54.2658
N2789  G01 X61.7404Y54.3445
N2790  G01 X61.6468Y54.4139
N2791  G01 X61.5463Y54.4742
N2792  G01 X61.4408Y54.5241
N2793  G01 X61.3299Y54.5637
N2794  G01 X61.2168Y54.5921
N2795  G01 X61.1015Y54.6092
N2796  G01 X60.9843Y54.6149
N2797  G01 X60.8671Y54.6092
N2798  G01 X60.7518Y54.5921
N2799  G01 X60.6387Y54.5637
N2800  G01 X60.5278Y54.5241
N2801  G01 X60.4223Y54.4742
N2802  G01 X60.3218Y54.4139
N2803  G01 X60.2282Y54.3445
N2804  G01 X60.1413Y54.2658
N2805  G01 X60.0626Y54.1788
N2806  G01 X59.9931Y54.0852
N2807  G01 X59.9329Y53.9848
N2808  G01 X59.8830Y53.8792
N2809  G01 X59.8433Y53.7683
N2810  G01 X59.8150Y53.6552
N2811  G01 X59.7979Y53.5399
N2812  G01 X59.7921Y53.4227
N2813  G01 X59.7979Y53.3055
N2814  G01 X59.8150Y53.1902
N2815  G01 X59.8433Y53.0771
N2816  G01 X59.8830Y52.9662
N2817  G01 X59.9329Y52.8607
N2818  G01 X59.9931Y52.7602
N2819  G01 X60.0626Y52.6666
N2820  G01 X60.1413Y52.5797
N2821  G01 X60.2282Y52.5010
N2822  G01 X60.3218Y52.4316
N2823  G01 X60.4223Y52.3713
N2824  G01 X60.5278Y52.3214
N2825  G01 X60.6387Y52.2817
N2826  G01 X60.7518Y52.2534
N2827  G01 X60.8671Y52.2363
N2828  G01 X60.9843Y52.2305
N2829  G01 X61.1015Y52.2363
N2830  G01 X61.2168Y52.2534
N2831  G01 X61.3299Y52.2817
N2832  G01 X61.4408Y52.3214
N2833  G01 X61.5463Y52.3713
N2834  G01 X61.6468Y52.4316
N2835  G01 X61.7404Y52.5010
N2836  G01 X61.8273Y52.5797
N2837  G01 X61.9061Y52.6666
N2838  G01 X61.9755Y52.7602
N2839  G01 X62.0357Y52.8607
N2840  G01 X62.0857Y52.9662
N2841  G01 X62.1253Y53.0771
N2842  G01 X62.1536Y53.1902
N2843  G01 X62.1707Y53.3055
N2844  G01 X62.1764Y53.4276
N2845  G00 Z2.0000
N2846  G00 X59.5754Y53.4276
N2847  G01 Z-0.0700
N2848  G01 X59.5698Y53.5399
N2849  G01 X59.5527Y53.6552
N2850  G01 X59.5244Y53.7683
N2851  G01 X59.4847Y53.8792
N2852  G01 X59.4348Y53.9848
N2853  G01 X59.3745Y54.0852
N2854  G01 X59.3051Y54.1788
N2855  G01 X59.2264Y54.2658
N2856  G01 X59.1395Y54.3445
N2857  G01 X59.0459Y54.4139
N2858  G01 X58.9454Y54.4742
N2859  G01 X58.8399Y54.5241
N2860  G01 X58.7290Y54.5637
N2861  G01 X58.6159Y54.5921
N2862  G01 X58.5006Y54.6092
N2863  G01 X58.3834Y54.6149
N2864  G01 X58.2662Y54.6092
N2865  G01 X58.1509Y54.5921
N2866  G01 X58.0378Y54.5637
N2867  G01 X57.9269Y54.5241
N2868  G01 X57.8213Y54.4742
N2869  G01 X57.7209Y54.4139
N2870  G01 X57.6273Y54.3445
N2871  G01 X57.5403Y54.2658
N2872  G01 X57.4616Y54.1788
N2873  G01 X57.3922Y54.0852
N2874  G01 X57.3319Y53.9848
N2875  G01 X57.2820Y53.8792
N2876  G01 X57.2424Y53.7683
N2877  G01 X57.2140Y53.6552
N2878  G01 X57.1969Y53.5399
N2879  G01 X57.1912Y53.4227
N2880  G01 X57.1969Y53.3055
N2881  G01 X57.2140Y53.1902
N2882  G01 X57.2424Y53.0771
N2883  G01 X57.2820Y52.9662
N2884  G01 X57.3319Y52.8607
N2885  G01 X57.3922Y52.7602
N2886  G01 X57.4616Y52.6666
N2887  G01 X57.5403Y52.5797
N2888  G01 X57.6273Y52.5010
N2889  G01 X57.7209Y52.4316
N2890  G01 X57.8213Y52.3713
N2891  G01 X57.9269Y52.3214
N2892  G01 X58.0378Y52.2817
N2893  G01 X58.1509Y52.2534
N2894  G01 X58.2662Y52.2363
N2895  G01 X58.3834Y52.2305
N2896  G01 X58.5006Y52.2363
N2897  G01 X58.6159Y52.2534
N2898  G01 X58.7290Y52.2817
N2899  G01 X58.8399Y52.3214
N2900  G01 X58.9454Y52.3713
N2901  G01 X59.0459Y52.4316
N2902  G01 X59.1395Y52.5010
N2903  G01 X59.2264Y52.5797
N2904  G01 X59.3051Y52.6666
N2905  G01 X59.3745Y52.7602
N2906  G01 X59.4348Y52.8607
N2907  G01 X59.4847Y52.9662
N2908  G01 X59.5244Y53.0771
N2909  G01 X59.5527Y53.1902
N2910  G01 X59.5698Y53.3055
N2911  G01 X59.5754Y53.4276
N2912  G00 Z2.0000
N2913  G00 X64.1286Y57.4221
N2914  G01 Z-0.0700
N2915  G01 X65.5287Y56.0220
N2916  G01 X65.5463Y56.0062
N2917  G01 X65.5619Y55.9945
N2918  G01 X65.5872Y55.9789
N2919  G01 X65.6142Y55.9665
N2920  G01 X65.6334Y55.9598
N2921  G01 X65.6522Y55.9550
N2922  G01 X65.6811Y55.9504
N2923  G01 X65.7062Y55.9491
N2924  G01 X71.8275Y55.9491
N2925  G01 X71.8314Y55.9356
N2926  G01 X71.8616Y55.8526
N2927  G01 X71.8974Y55.7772
N2928  G01 X71.9429Y55.7013
N2929  G01 X71.9952Y55.6307
N2930  G01 X72.0513Y55.5686
N2931  G01 X72.1204Y55.5055
N2932  G01 X72.1910Y55.4532
N2933  G01 X72.2626Y55.4101
N2934  G01 X72.3465Y55.3700
N2935  G01 X72.4304Y55.3400
N2936  G01 X72.5108Y55.3198
N2937  G01 X72.6078Y55.3054
N2938  G01 X72.6912Y55.3014
N2939  G01 X72.7798Y55.3058
N2940  G01 X72.8667Y55.3187
N2941  G01 X72.9477Y55.3388
N2942  G01 X73.0401Y55.3719
N2943  G01 X73.1155Y55.4077
N2944  G01 X73.1914Y55.4532
N2945  G01 X73.2620Y55.5055
N2946  G01 X73.3276Y55.5650
N2947  G01 X73.3872Y55.6307
N2948  G01 X73.4368Y55.6974
N2949  G01 X73.4850Y55.7772
N2950  G01 X73.5208Y55.8526
N2951  G01 X73.5510Y55.9356
N2952  G01 X73.5549Y55.9491
N2953  G01 X76.0583Y55.9491
N2954  G01 X76.0584Y55.9229
N2955  G01 X76.0594Y55.9131
N2956  G01 X76.0641Y55.8942
N2957  G01 X76.0725Y55.8766
N2958  G01 X76.0779Y55.8684
N2959  G01 X76.0876Y55.8572
N2960  G01 X76.4781Y55.4669
N2961  G01 X76.4938Y55.4553
N2962  G01 X76.5114Y55.4470
N2963  G01 X76.5303Y55.4422
N2964  G01 X76.5451Y55.4411
N2965  G01 X77.0922Y55.4411
N2966  G01 X77.1070Y55.4422
N2967  G01 X77.1166Y55.4441
N2968  G01 X77.1350Y55.4507
N2969  G01 X77.1517Y55.4607
N2970  G01 X77.1629Y55.4704
N2971  G01 X77.5533Y55.8609
N2972  G01 X77.5649Y55.8766
N2973  G01 X77.5695Y55.8852
N2974  G01 X77.5761Y55.9036
N2975  G01 X77.5789Y55.9229
N2976  G01 X77.5791Y55.9491
N2977  G01 X79.8683Y55.9491
N2978  G01 X79.8684Y55.9229
N2979  G01 X79.8694Y55.9131
N2980  G01 X79.8741Y55.8942
N2981  G01 X79.8825Y55.8766
N2982  G01 X79.8879Y55.8684
N2983  G01 X79.8976Y55.8572
N2984  G01 X80.2881Y55.4669
N2985  G01 X80.3038Y55.4553
N2986  G01 X80.3214Y55.4470
N2987  G01 X80.3403Y55.4422
N2988  G01 X80.3551Y55.4411
N2989  G01 X80.9022Y55.4411
N2990  G01 X80.9170Y55.4422
N2991  G01 X80.9266Y55.4441
N2992  G01 X80.9450Y55.4507
N2993  G01 X80.9617Y55.4607
N2994  G01 X80.9729Y55.4704
N2995  G01 X81.3598Y55.8572
N2996  G01 X81.3694Y55.8684
N2997  G01 X81.3749Y55.8766
N2998  G01 X81.3795Y55.8852
N2999  G01 X81.3845Y55.8983
N3000  G01 X83.6829Y55.8983
N3001  G01 X83.6879Y55.8852
N3002  G01 X83.6925Y55.8766
N3003  G01 X83.6979Y55.8684
N3004  G01 X83.7076Y55.8572
N3005  G01 X84.0944Y55.4704
N3006  G01 X84.1056Y55.4607
N3007  G01 X84.1224Y55.4507
N3008  G01 X84.1407Y55.4441
N3009  G01 X84.1503Y55.4422
N3010  G01 X84.1651Y55.4411
N3011  G01 X84.7173Y55.4412
N3012  G01 X84.7366Y55.4441
N3013  G01 X84.7550Y55.4507
N3014  G01 X84.7717Y55.4607
N3015  G01 X84.7793Y55.4669
N3016  G01 X85.1698Y55.8572
N3017  G01 X85.1794Y55.8684
N3018  G01 X85.1895Y55.8852
N3019  G01 X85.1961Y55.9036
N3020  G01 X85.1989Y55.9229
N3021  G01 X85.1991Y56.4750
N3022  G01 X85.1980Y56.4899
N3023  G01 X85.1961Y56.4994
N3024  G01 X85.1895Y56.5178
N3025  G01 X85.1794Y56.5346
N3026  G01 X85.1698Y56.5458
N3027  G01 X84.7793Y56.9361
N3028  G01 X84.7636Y56.9477
N3029  G01 X84.7460Y56.9560
N3030  G01 X84.7270Y56.9608
N3031  G01 X84.7173Y56.9618
N3032  G01 X84.1651Y56.9619
N3033  G01 X84.1503Y56.9608
N3034  G01 X84.1407Y56.9589
N3035  G01 X84.1224Y56.9523
N3036  G01 X84.1056Y56.9423
N3037  G01 X84.0944Y56.9326
N3038  G01 X83.7076Y56.5458
N3039  G01 X83.6979Y56.5346
N3040  G01 X83.6925Y56.5264
N3041  G01 X83.6879Y56.5178
N3042  G01 X83.6829Y56.5047
N3043  G01 X81.3845Y56.5047
N3044  G01 X81.3795Y56.5178
N3045  G01 X81.3749Y56.5264
N3046  G01 X81.3694Y56.5346
N3047  G01 X81.3598Y56.5458
N3048  G01 X80.9729Y56.9326
N3049  G01 X80.9617Y56.9423
N3050  G01 X80.9450Y56.9523
N3051  G01 X80.9266Y56.9589
N3052  G01 X80.9170Y56.9608
N3053  G01 X80.9022Y56.9619
N3054  G01 X80.3551Y56.9619
N3055  G01 X80.3403Y56.9608
N3056  G01 X80.3214Y56.9560
N3057  G01 X80.3038Y56.9477
N3058  G01 X80.2881Y56.9361
N3059  G01 X79.8976Y56.5458
N3060  G01 X79.8879Y56.5346
N3061  G01 X79.8825Y56.5264
N3062  G01 X79.8741Y56.5088
N3063  G01 X79.8694Y56.4899
N3064  G01 X79.8684Y56.4801
N3065  G01 X79.8683Y56.4539
N3066  G01 X77.5791Y56.4539
N3067  G01 X77.5789Y56.4801
N3068  G01 X77.5761Y56.4994
N3069  G01 X77.5695Y56.5178
N3070  G01 X77.5649Y56.5264
N3071  G01 X77.5533Y56.5421
N3072  G01 X77.1629Y56.9326
N3073  G01 X77.1517Y56.9423
N3074  G01 X77.1350Y56.9523
N3075  G01 X77.1166Y56.9589
N3076  G01 X77.1070Y56.9608
N3077  G01 X77.0922Y56.9619
N3078  G01 X76.5451Y56.9619
N3079  G01 X76.5303Y56.9608
N3080  G01 X76.5114Y56.9560
N3081  G01 X76.4938Y56.9477
N3082  G01 X76.4781Y56.9361
N3083  G01 X76.0876Y56.5458
N3084  G01 X76.0779Y56.5346
N3085  G01 X76.0725Y56.5264
N3086  G01 X76.0641Y56.5088
N3087  G01 X76.0594Y56.4899
N3088  G01 X76.0584Y56.4801
N3089  G01 X76.0583Y56.4539
N3090  G01 X73.5549Y56.4539
N3091  G01 X73.5510Y56.4674
N3092  G01 X73.5208Y56.5504
N3093  G01 X73.4850Y56.6258
N3094  G01 X73.4395Y56.7017
N3095  G01 X73.3872Y56.7723
N3096  G01 X73.3310Y56.8344
N3097  G01 X73.2583Y56.9003
N3098  G01 X73.1914Y56.9498
N3099  G01 X73.1155Y56.9953
N3100  G01 X73.0359Y57.0330
N3101  G01 X72.9571Y57.0613
N3102  G01 X72.8667Y57.0843
N3103  G01 X72.7843Y57.0967
N3104  G01 X72.6863Y57.1015
N3105  G01 X72.6026Y57.0972
N3106  G01 X72.5204Y57.0851
N3107  G01 X72.4252Y57.0613
N3108  G01 X72.3465Y57.0330
N3109  G01 X72.2669Y56.9953
N3110  G01 X72.1910Y56.9498
N3111  G01 X72.1240Y56.9003
N3112  G01 X72.0513Y56.8344
N3113  G01 X71.9952Y56.7723
N3114  G01 X71.9429Y56.7017
N3115  G01 X71.8974Y56.6258
N3116  G01 X71.8616Y56.5504
N3117  G01 X71.8314Y56.4674
N3118  G01 X71.8275Y56.4539
N3119  G01 X65.8107Y56.4539
N3120  G01 X64.4855Y57.7791
N3121  G01 X64.5351Y57.8620
N3122  G01 X64.5850Y57.9675
N3123  G01 X64.6247Y58.0784
N3124  G01 X64.6519Y58.1866
N3125  G01 X64.6705Y58.3120
N3126  G01 X64.6759Y58.4240
N3127  G01 X64.6701Y58.5412
N3128  G01 X64.6530Y58.6565
N3129  G01 X64.6247Y58.7696
N3130  G01 X64.5850Y58.8805
N3131  G01 X64.5373Y58.9816
N3132  G01 X64.4721Y59.0904
N3133  G01 X64.4054Y59.1801
N3134  G01 X64.3267Y59.2670
N3135  G01 X64.2398Y59.3458
N3136  G01 X64.1500Y59.4125
N3137  G01 X64.0413Y59.4776
N3138  G01 X63.9402Y59.5253
N3139  G01 X63.8293Y59.5650
N3140  G01 X63.7162Y59.5933
N3141  G01 X63.6009Y59.6104
N3142  G01 X63.4837Y59.6162
N3143  G01 X63.3717Y59.6108
N3144  G01 X63.2463Y59.5922
N3145  G01 X63.1381Y59.5650
N3146  G01 X63.0272Y59.5253
N3147  G01 X62.9217Y59.4754
N3148  G01 X62.8212Y59.4152
N3149  G01 X62.7276Y59.3458
N3150  G01 X62.6407Y59.2670
N3151  G01 X62.5619Y59.1801
N3152  G01 X62.4925Y59.0865
N3153  G01 X62.4323Y58.9860
N3154  G01 X62.3823Y58.8805
N3155  G01 X62.3427Y58.7696
N3156  G01 X62.3144Y58.6565
N3157  G01 X62.2973Y58.5412
N3158  G01 X62.2915Y58.4240
N3159  G01 X62.2973Y58.3068
N3160  G01 X62.3144Y58.1915
N3161  G01 X62.3427Y58.0784
N3162  G01 X62.3823Y57.9675
N3163  G01 X62.4323Y57.8620
N3164  G01 X62.4925Y57.7615
N3165  G01 X62.5619Y57.6679
N3166  G01 X62.6407Y57.5810
N3167  G01 X62.7276Y57.5022
N3168  G01 X62.8212Y57.4328
N3169  G01 X62.9217Y57.3726
N3170  G01 X63.0272Y57.3227
N3171  G01 X63.1381Y57.2830
N3172  G01 X63.2512Y57.2547
N3173  G01 X63.3665Y57.2376
N3174  G01 X63.4837Y57.2318
N3175  G01 X63.6009Y57.2376
N3176  G01 X63.7162Y57.2547
N3177  G01 X63.8293Y57.2830
N3178  G01 X63.9402Y57.3227
N3179  G01 X64.0457Y57.3726
N3180  G01 X64.1286Y57.4221
N3181  G00 Z2.0000
N3182  G00 X30.8040Y41.7194
N3183  G01 Z-0.0700
N3184  G01 X28.8533Y41.7194
N3185  G01 X28.7528Y41.7145
N3186  G01 X28.6436Y41.6987
N3187  G01 X28.5416Y41.6732
N3188  G01 X28.4415Y41.6374
N3189  G01 X28.3464Y41.5924
N3190  G01 X28.2557Y41.5380
N3191  G01 X28.1713Y41.4754
N3192  G01 X28.0929Y41.4044
N3193  G01 X28.0219Y41.3260
N3194  G01 X27.9593Y41.2416
N3195  G01 X27.9050Y41.1509
N3196  G01 X27.8599Y41.0558
N3197  G01 X27.8241Y40.9557
N3198  G01 X27.7986Y40.8537
N3199  G01 X27.7832Y40.7498
N3200  G01 X27.7780Y40.6440
N3201  G01 X27.7832Y40.5382
N3202  G01 X27.7986Y40.4343
N3203  G01 X27.8241Y40.3323
N3204  G01 X27.8599Y40.2322
N3205  G01 X27.9050Y40.1371
N3206  G01 X27.9593Y40.0464
N3207  G01 X28.0253Y39.9581
N3208  G01 X28.0929Y39.8836
N3209  G01 X28.1674Y39.8159
N3210  G01 X28.2557Y39.7500
N3211  G01 X28.3464Y39.6956
N3212  G01 X28.4464Y39.6487
N3213  G01 X28.5416Y39.6148
N3214  G01 X28.6387Y39.5904
N3215  G01 X28.7476Y39.5739
N3216  G01 X28.8533Y39.5686
N3217  G01 X30.8061Y39.5687
N3218  G01 X30.9143Y39.5744
N3219  G01 X31.0137Y39.5893
N3220  G01 X31.1115Y39.6136
N3221  G01 X31.2158Y39.6506
N3222  G01 X31.3066Y39.6934
N3223  G01 X31.3282Y39.7058
N3224  G01 X32.6151Y39.7058
N3225  G01 X33.6103Y38.7106
N3226  G01 X33.6787Y38.6486
N3227  G01 X33.7523Y38.5940
N3228  G01 X33.8271Y38.5490
N3229  G01 X33.9144Y38.5073
N3230  G01 X34.0061Y38.4749
N3231  G01 X34.0907Y38.4538
N3232  G01 X34.1814Y38.4404
N3233  G01 X34.2737Y38.4358
N3234  G01 X44.4357Y38.4358
N3235  G01 X44.5260Y38.4404
N3236  G01 X44.6166Y38.4538
N3237  G01 X44.7055Y38.4761
N3238  G01 X44.7881Y38.5054
N3239  G01 X44.8802Y38.5490
N3240  G01 X44.9551Y38.5940
N3241  G01 X45.0286Y38.6486
N3242  G01 X45.0971Y38.7106
N3243  G01 X48.9081Y42.5216
N3244  G01 X48.9691Y42.5890
N3245  G01 X49.0209Y42.6588
N3246  G01 X49.0711Y42.7417
N3247  G01 X49.1122Y42.8295
N3248  G01 X49.1416Y42.9121
N3249  G01 X49.1628Y42.9962
N3250  G01 X49.1773Y43.0917
N3251  G01 X49.1819Y43.1840
N3252  G01 X49.1819Y45.0449
N3253  G01 X49.2158Y45.0763
N3254  G01 X49.3057Y45.1763
N3255  G01 X49.3827Y45.2802
N3256  G01 X49.4541Y45.4001
N3257  G01 X49.5093Y45.5170
N3258  G01 X49.5548Y45.6443
N3259  G01 X49.5874Y45.7743
N3260  G01 X49.6070Y45.9069
N3261  G01 X49.6137Y46.0415
N3262  G01 X49.6137Y48.5815
N3263  G01 X49.6070Y48.7161
N3264  G01 X49.5874Y48.8487
N3265  G01 X49.5548Y48.9787
N3266  G01 X49.5093Y49.1060
N3267  G01 X49.4519Y49.2273
N3268  G01 X49.3827Y49.3428
N3269  G01 X49.3029Y49.4504
N3270  G01 X49.2158Y49.5467
N3271  G01 X49.1819Y49.5781
N3272  G01 X49.1819Y52.9079
N3273  G01 X49.2006Y52.9340
N3274  G01 X49.2559Y53.0264
N3275  G01 X49.3058Y53.1329
N3276  G01 X49.3422Y53.2348
N3277  G01 X49.3683Y53.3388
N3278  G01 X49.3859Y53.4547
N3279  G01 X49.3914Y53.5675
N3280  G01 X49.3914Y55.6630
N3281  G01 X49.3859Y55.7759
N3282  G01 X49.3702Y55.8821
N3283  G01 X49.3405Y56.0009
N3284  G01 X49.3040Y56.1025
N3285  G01 X49.2559Y56.2041
N3286  G01 X49.1979Y56.3008
N3287  G01 X49.1311Y56.3909
N3288  G01 X49.0517Y56.4780
N3289  G01 X48.9716Y56.5504
N3290  G01 X48.8815Y56.6172
N3291  G01 X48.7848Y56.6752
N3292  G01 X48.6874Y56.7214
N3293  G01 X48.5764Y56.7615
N3294  G01 X48.4675Y56.7887
N3295  G01 X48.3611Y56.8046
N3296  G01 X48.2437Y56.8108
N3297  G01 X48.1263Y56.8046
N3298  G01 X48.0199Y56.7887
N3299  G01 X47.9110Y56.7615
N3300  G01 X47.8000Y56.7214
N3301  G01 X47.7026Y56.6752
N3302  G01 X47.6059Y56.6172
N3303  G01 X47.5158Y56.5504
N3304  G01 X47.4357Y56.4780
N3305  G01 X47.3563Y56.3909
N3306  G01 X47.2895Y56.3008
N3307  G01 X47.2339Y56.2083
N3308  G01 X47.1834Y56.1025
N3309  G01 X47.1440Y55.9915
N3310  G01 X47.1180Y55.8868
N3311  G01 X47.1021Y55.7804
N3312  G01 X47.0959Y55.6630
N3313  G01 X47.0959Y53.5675
N3314  G01 X47.1011Y53.4599
N3315  G01 X47.1191Y53.3388
N3316  G01 X47.1452Y53.2348
N3317  G01 X47.1815Y53.1329
N3318  G01 X47.2315Y53.0264
N3319  G01 X47.2867Y52.9340
N3320  G01 X47.3055Y52.9079
N3321  G01 X47.3055Y49.5781
N3322  G01 X47.2716Y49.5467
N3323  G01 X47.1816Y49.4467
N3324  G01 X47.1047Y49.3428
N3325  G01 X47.0332Y49.2229
N3326  G01 X46.9781Y49.1060
N3327  G01 X46.9325Y48.9787
N3328  G01 X46.9000Y48.8487
N3329  G01 X46.8803Y48.7161
N3330  G01 X46.8737Y48.5815
N3331  G01 X46.8737Y46.0395
N3332  G01 X46.8803Y45.9069
N3333  G01 X46.9000Y45.7743
N3334  G01 X46.9325Y45.6443
N3335  G01 X46.9781Y45.5170
N3336  G01 X47.0355Y45.3957
N3337  G01 X47.1047Y45.2802
N3338  G01 X47.1845Y45.1726
N3339  G01 X47.2716Y45.0763
N3340  G01 X47.3055Y45.0449
N3341  G01 X47.3055Y43.5726
N3342  G01 X44.0451Y40.3122
N3343  G01 X34.6623Y40.3122
N3344  G01 X33.6635Y41.3108
N3345  G01 X33.5986Y41.3694
N3346  G01 X33.5251Y41.4240
N3347  G01 X33.4460Y41.4714
N3348  G01 X33.3581Y41.5126
N3349  G01 X33.2755Y41.5419
N3350  G01 X33.1866Y41.5642
N3351  G01 X33.0960Y41.5776
N3352  G01 X33.0057Y41.5822
N3353  G01 X31.3282Y41.5822
N3354  G01 X31.3066Y41.5946
N3355  G01 X31.2158Y41.6374
N3356  G01 X31.1115Y41.6744
N3357  G01 X31.0137Y41.6987
N3358  G01 X30.9143Y41.7136
N3359  G01 X30.8040Y41.7194
N3360  G00 Z2.0000
N3361  G00 X28.8533Y44.6486
N3362  G01 Z-0.0700
N3363  G01 X30.8089Y44.6488
N3364  G01 X30.9098Y44.6539
N3365  G01 X31.0090Y44.6685
N3366  G01 X31.1115Y44.6936
N3367  G01 X31.2158Y44.7306
N3368  G01 X31.3066Y44.7734
N3369  G01 X31.3282Y44.7858
N3370  G01 X33.0057Y44.7858
N3371  G01 X33.0960Y44.7904
N3372  G01 X33.1915Y44.8049
N3373  G01 X33.2807Y44.8277
N3374  G01 X33.3630Y44.8573
N3375  G01 X33.4416Y44.8944
N3376  G01 X33.5251Y44.9440
N3377  G01 X33.5986Y44.9986
N3378  G01 X33.6671Y45.0606
N3379  G01 X34.6623Y46.0558
N3380  G01 X41.7937Y46.0558
N3381  G01 X41.7938Y46.0366
N3382  G01 X41.8003Y45.9069
N3383  G01 X41.8211Y45.7694
N3384  G01 X41.8525Y45.6443
N3385  G01 X41.8962Y45.5218
N3386  G01 X41.9579Y45.3914
N3387  G01 X42.0247Y45.2802
N3388  G01 X42.1016Y45.1763
N3389  G01 X42.1949Y45.0728
N3390  G01 X42.2948Y44.9823
N3391  G01 X42.3985Y44.9052
N3392  G01 X42.5223Y44.8311
N3393  G01 X42.6391Y44.7759
N3394  G01 X42.7613Y44.7320
N3395  G01 X42.8965Y44.6978
N3396  G01 X43.0290Y44.6781
N3397  G01 X43.1588Y44.6716
N3398  G01 X43.2983Y44.6781
N3399  G01 X43.4309Y44.6978
N3400  G01 X43.5566Y44.7292
N3401  G01 X43.6882Y44.7759
N3402  G01 X43.8138Y44.8357
N3403  G01 X43.9250Y44.9025
N3404  G01 X44.0289Y44.9795
N3405  G01 X44.1324Y45.0728
N3406  G01 X44.2229Y45.1726
N3407  G01 X44.3027Y45.2802
N3408  G01 X44.3741Y45.4001
N3409  G01 X44.4312Y45.5218
N3410  G01 X44.4748Y45.6443
N3411  G01 X44.5063Y45.7694
N3412  G01 X44.5270Y45.9069
N3413  G01 X44.5337Y46.0415
N3414  G01 X44.5337Y48.5815
N3415  G01 X44.5270Y48.7161
N3416  G01 X44.5074Y48.8487
N3417  G01 X44.4748Y48.9787
N3418  G01 X44.4293Y49.1060
N3419  G01 X44.3741Y49.2229
N3420  G01 X44.3027Y49.3428
N3421  G01 X44.2257Y49.4467
N3422  G01 X44.1358Y49.5467
N3423  G01 X44.1019Y49.5781
N3424  G01 X44.1019Y52.9079
N3425  G01 X44.1206Y52.9340
N3426  G01 X44.1759Y53.0264
N3427  G01 X44.2258Y53.1329
N3428  G01 X44.2622Y53.2348
N3429  G01 X44.2883Y53.3388
N3430  G01 X44.3059Y53.4547
N3431  G01 X44.3114Y53.5675
N3432  G01 X44.3114Y55.6630
N3433  G01 X44.3059Y55.7759
N3434  G01 X44.2902Y55.8821
N3435  G01 X44.2605Y56.0009
N3436  G01 X44.2240Y56.1025
N3437  G01 X44.1759Y56.2041
N3438  G01 X44.1179Y56.3008
N3439  G01 X44.0539Y56.3873
N3440  G01 X43.9717Y56.4780
N3441  G01 X43.8916Y56.5504
N3442  G01 X43.8053Y56.6145
N3443  G01 X43.7048Y56.6752
N3444  G01 X43.5983Y56.7252
N3445  G01 X43.4964Y56.7615
N3446  G01 X43.3924Y56.7876
N3447  G01 X43.2765Y56.8052
N3448  G01 X43.1588Y56.8106
N3449  G01 X43.0508Y56.8052
N3450  G01 X42.9399Y56.7887
N3451  G01 X42.8258Y56.7598
N3452  G01 X42.7242Y56.7233
N3453  G01 X42.6226Y56.6752
N3454  G01 X42.5220Y56.6145
N3455  G01 X42.4358Y56.5504
N3456  G01 X42.3557Y56.4780
N3457  G01 X42.2763Y56.3909
N3458  G01 X42.2067Y56.2965
N3459  G01 X42.1515Y56.2041
N3460  G01 X42.1053Y56.1067
N3461  G01 X42.0640Y55.9915
N3462  G01 X42.0380Y55.8868
N3463  G01 X42.0221Y55.7804
N3464  G01 X42.0160Y55.6651
N3465  G01 X42.0160Y53.5655
N3466  G01 X42.0215Y53.4547
N3467  G01 X42.0371Y53.3484
N3468  G01 X42.0652Y53.2348
N3469  G01 X42.1034Y53.1280
N3470  G01 X42.1492Y53.0309
N3471  G01 X42.2067Y52.9340
N3472  G01 X42.2255Y52.9079
N3473  G01 X42.2255Y49.5781
N3474  G01 X42.1916Y49.5467
N3475  G01 X42.1045Y49.4504
N3476  G01 X42.0219Y49.3385
N3477  G01 X41.9555Y49.2273
N3478  G01 X41.9000Y49.1103
N3479  G01 X41.8514Y48.9745
N3480  G01 X41.8200Y48.8487
N3481  G01 X41.7999Y48.7109
N3482  G01 X41.7937Y48.5815
N3483  G01 X41.7937Y47.9322
N3484  G01 X34.2737Y47.9322
N3485  G01 X34.1814Y47.9276
N3486  G01 X34.0907Y47.9142
N3487  G01 X34.0061Y47.8931
N3488  G01 X33.9144Y47.8607
N3489  G01 X33.8271Y47.8190
N3490  G01 X33.7523Y47.7740
N3491  G01 X33.6787Y47.7194
N3492  G01 X33.6103Y47.6574
N3493  G01 X32.6151Y46.6622
N3494  G01 X31.3282Y46.6622
N3495  G01 X31.3066Y46.6746
N3496  G01 X31.2158Y46.7174
N3497  G01 X31.1115Y46.7544
N3498  G01 X31.0137Y46.7787
N3499  G01 X30.9143Y46.7936
N3500  G01 X30.8061Y46.7993
N3501  G01 X28.8513Y46.7993
N3502  G01 X28.7430Y46.7936
N3503  G01 X28.6436Y46.7787
N3504  G01 X28.5459Y46.7544
N3505  G01 X28.4373Y46.7155
N3506  G01 X28.3464Y46.6724
N3507  G01 X28.2519Y46.6153
N3508  G01 X28.1713Y46.5554
N3509  G01 X28.0929Y46.4844
N3510  G01 X28.0219Y46.4060
N3511  G01 X27.9593Y46.3216
N3512  G01 X27.9050Y46.2309
N3513  G01 X27.8599Y46.1358
N3514  G01 X27.8241Y46.0357
N3515  G01 X27.7997Y45.9386
N3516  G01 X27.7832Y45.8298
N3517  G01 X27.7781Y45.7289
N3518  G01 X27.7837Y45.6137
N3519  G01 X27.7986Y45.5143
N3520  G01 X27.8241Y45.4123
N3521  G01 X27.8599Y45.3122
N3522  G01 X27.9050Y45.2171
N3523  G01 X27.9593Y45.1264
N3524  G01 X28.0219Y45.0420
N3525  G01 X28.0929Y44.9636
N3526  G01 X28.1674Y44.8959
N3527  G01 X28.2600Y44.8272
N3528  G01 X28.3464Y44.7756
N3529  G01 X28.4464Y44.7287
N3530  G01 X28.5416Y44.6948
N3531  G01 X28.6436Y44.6693
N3532  G01 X28.7476Y44.6539
N3533  G01 X28.8533Y44.6486
N3534  G00 Z2.0000
N3535  G00 X0.9200Y53.3516
N3536  G01 Z-0.0700
N3537  G01 X0.9200Y8.2514
N3538  G01 X0.9240Y8.1753
N3539  G01 X0.9337Y8.1102
N3540  G01 X0.9510Y8.0402
N3541  G01 X0.9748Y7.9729
N3542  G01 X1.0073Y7.9042
N3543  G01 X1.0415Y7.8466
N3544  G01 X1.0803Y7.7933
N3545  G01 X1.1274Y7.7398
N3546  G01 X1.1831Y7.6879
N3547  G01 X1.2361Y7.6476
N3548  G01 X1.3006Y7.6075
N3549  G01 X1.3650Y7.5760
N3550  G01 X1.4323Y7.5509
N3551  G01 X1.5000Y7.5329
N3552  G01 X1.5710Y7.5212
N3553  G01 X1.6418Y7.5165
N3554  G01 X1.7137Y7.5187
N3555  G01 X1.7842Y7.5278
N3556  G01 X1.8533Y7.5436
N3557  G01 X1.9258Y7.5682
N3558  G01 X1.9908Y7.5977
N3559  G01 X2.0485Y7.6306
N3560  G01 X2.1029Y7.6688
N3561  G01 X2.1607Y7.7180
N3562  G01 X2.2094Y7.7688
N3563  G01 X2.4739Y8.0737
N3564  G01 X3.4214Y8.6833
N3565  G01 X4.5011Y8.9997
N3566  G01 X5.6264Y8.9997
N3567  G01 X6.7086Y8.6832
N3568  G01 X7.6554Y8.0741
N3569  G01 X8.3912Y7.2228
N3570  G01 X8.8598Y6.1979
N3571  G01 X9.0201Y5.0840
N3572  G01 X8.8598Y3.9701
N3573  G01 X8.3913Y2.9454
N3574  G01 X7.6906Y2.1361
N3575  G01 X7.6486Y2.0826
N3576  G01 X7.6067Y2.0172
N3577  G01 X7.5738Y1.9516
N3578  G01 X7.5477Y1.8835
N3579  G01 X7.5297Y1.8180
N3580  G01 X7.5159Y1.7363
N3581  G01 X7.5114Y1.6686
N3582  G01 X7.5142Y1.5906
N3583  G01 X7.5231Y1.5240
N3584  G01 X7.5400Y1.4515
N3585  G01 X7.5631Y1.3840
N3586  G01 X7.5939Y1.3164
N3587  G01 X7.6305Y1.2537
N3588  G01 X7.6704Y1.1985
N3589  G01 X7.7254Y1.1366
N3590  G01 X7.7751Y1.0909
N3591  G01 X7.8347Y1.0461
N3592  G01 X7.8955Y1.0091
N3593  G01 X7.9574Y0.9793
N3594  G01 X8.0307Y0.9523
N3595  G01 X8.1010Y0.9345
N3596  G01 X8.1732Y0.9236
N3597  G01 X8.2463Y0.9200
N3598  G01 X38.9713Y0.9201
N3599  G01 X39.0349Y0.9236
N3600  G01 X39.1058Y0.9341
N3601  G01 X39.1754Y0.9515
N3602  G01 X39.2392Y0.9742
N3603  G01 X39.2565Y0.9815
N3604  G01 X39.3046Y1.0046
N3605  G01 X39.3211Y1.0135
N3606  G01 X39.3784Y1.0490
N3607  G01 X39.4351Y1.0921
N3608  G01 X39.4822Y1.1353
N3609  G01 X39.5309Y1.1889
N3610  G01 X39.5736Y1.2465
N3611  G01 X39.6083Y1.3043
N3612  G01 X39.6171Y1.3209
N3613  G01 X39.6396Y1.3692
N3614  G01 X39.6467Y1.3866
N3615  G01 X39.6685Y1.4505
N3616  G01 X39.6851Y1.5203
N3617  G01 X39.6939Y1.5826
N3618  G01 X39.6975Y1.6550
N3619  G01 X39.6939Y1.7274
N3620  G01 X39.6823Y1.8035
N3621  G01 X39.6823Y3.8858
N3622  G01 X39.8288Y4.2383
N3623  G01 X39.8487Y4.2609
N3624  G01 X39.8912Y4.3191
N3625  G01 X39.9257Y4.3768
N3626  G01 X39.9564Y4.4418
N3627  G01 X39.9810Y4.5104
N3628  G01 X39.9984Y4.5800
N3629  G01 X40.0089Y4.6509
N3630  G01 X40.0124Y4.7184
N3631  G01 X40.0125Y10.5597
N3632  G01 X40.0089Y10.6297
N3633  G01 X39.9995Y10.6949
N3634  G01 X39.9814Y10.7691
N3635  G01 X39.9557Y10.8408
N3636  G01 X39.9271Y10.9015
N3637  G01 X39.8912Y10.9622
N3638  G01 X39.8486Y11.0203
N3639  G01 X39.8037Y11.0708
N3640  G01 X39.6387Y11.2385
N3641  G01 X39.5849Y11.2879
N3642  G01 X39.5272Y11.3313
N3643  G01 X39.4601Y11.3716
N3644  G01 X39.3987Y11.4008
N3645  G01 X39.3302Y11.4256
N3646  G01 X39.2602Y11.4433
N3647  G01 X39.1926Y11.4536
N3648  G01 X39.1149Y11.4578
N3649  G01 X18.5961Y11.4578
N3650  G01 X18.3708Y11.5514
N3651  G01 X15.6586Y14.2636
N3652  G01 X15.5650Y14.4889
N3653  G01 X15.5650Y17.5427
N3654  G01 X15.5618Y17.6098
N3655  G01 X15.5498Y17.6907
N3656  G01 X15.5335Y17.7554
N3657  G01 X15.5089Y17.8243
N3658  G01 X15.4786Y17.8885
N3659  G01 X15.4440Y17.9465
N3660  G01 X15.3953Y18.0123
N3661  G01 X15.3511Y18.0610
N3662  G01 X15.1878Y18.2246
N3663  G01 X15.1643Y18.2504
N3664  G01 X15.1394Y18.2731
N3665  G01 X13.9155Y19.4991
N3666  G01 X13.8645Y19.5453
N3667  G01 X13.8060Y19.5888
