N1   G21 (mm mode)
N2   G90 (abs mode)
N3   G94
N4   G0 Z2
N5   G0 X0 Y0
N7   T0 M6 (Milling Traces)
N8   (T0 D=0.3mm - PCB Milling Bit)
N9    M3 S20000 (spindle on)
N10    F120.00
N11    G4 P1
N12    G00 X4.7867Y14.1145
N13    G01 Z-0.0700
N14    G01 X4.7867Y12.5905
N15    G01 X4.7911Y12.5006
N16    G01 X4.8029Y12.4198
N17    G01 X4.8058Y12.4054
N18    G01 X4.8257Y12.3265
N19    G01 X4.8535Y12.2484
N20    G01 X4.8591Y12.2348
N21    G01 X4.8944Y12.1605
N22    G01 X4.9405Y12.0836
N23    G01 X4.9892Y12.0177
N24    G01 X4.9985Y12.0064
N25    G01 X5.0538Y11.9456
N26    G01 X5.1145Y11.8903
N27    G01 X5.1259Y11.8810
N28    G01 X5.1918Y11.8323
N29    G01 X5.2624Y11.7898
N30    G01 X5.2753Y11.7829
N31    G01 X5.3493Y11.7481
N32    G01 X5.4269Y11.7201
N33    G01 X5.4410Y11.7158
N34    G01 X5.5209Y11.6960
N35    G01 X5.6020Y11.6838
N36    G01 X5.6166Y11.6823
N37    G01 X5.6987Y11.6785
N38    G01 X5.7735Y11.6820
N39    G01 X6.9661Y10.4894
N40    G01 X6.9921Y10.4657
N41    G01 X7.0035Y10.4564
N42    G01 X7.0333Y10.4345
N43    G01 X7.0654Y10.4150
N44    G01 X7.0784Y10.4081
N45    G01 X7.1117Y10.3925
N46    G01 X7.1472Y10.3796
N47    G01 X7.1613Y10.3753
N48    G01 X7.1976Y10.3664
N49    G01 X7.2343Y10.3608
N50    G01 X7.2489Y10.3593
N51    G01 X7.2862Y10.3577
N52    G01 X14.8053Y10.3577
N53    G01 X14.8115Y10.3462
N54    G01 X14.8572Y10.2703
N55    G01 X14.9138Y10.1940
N56    G01 X14.9784Y10.1227
N57    G01 X15.0438Y10.0632
N58    G01 X15.0551Y10.0539
N59    G01 X15.1260Y10.0015
N60    G01 X15.2019Y9.9558
N61    G01 X15.2149Y9.9489
N62    G01 X15.2881Y9.9142
N63    G01 X15.3017Y9.9086
N64    G01 X15.3857Y9.8788
N65    G01 X15.4780Y9.8557
N66    G01 X15.5720Y9.8417
N67    G01 X15.6682Y9.8370
N68    G01 X17.3192Y9.8370
N69    G01 X17.4075Y9.8412
N70    G01 X17.4221Y9.8426
N71    G01 X17.5093Y9.8557
N72    G01 X17.6016Y9.8788
N73    G01 X17.6856Y9.9086
N74    G01 X17.6992Y9.9142
N75    G01 X17.7791Y9.9522
N76    G01 X17.8614Y10.0015
N77    G01 X17.9377Y10.0582
N78    G01 X18.0036Y10.1176
N79    G01 X18.0140Y10.1280
N80    G01 X18.0735Y10.1940
N81    G01 X18.1301Y10.2703
N82    G01 X18.1759Y10.3462
N83    G01 X18.1828Y10.3592
N84    G01 X18.2174Y10.4325
N85    G01 X18.2278Y10.4593
N86    G01 X18.2524Y10.4593
N87    G01 X18.7839Y9.9277
N88    G01 X18.8040Y9.9093
N89    G01 X18.8154Y9.8999
N90    G01 X18.8437Y9.8799
N91    G01 X18.8671Y9.8660
N92    G01 X18.8918Y9.8542
N93    G01 X18.9054Y9.8485
N94    G01 X18.9319Y9.8393
N95    G01 X18.9649Y9.8311
N96    G01 X18.9985Y9.8261
N97    G01 X19.0306Y9.8243
N98    G01 X19.1988Y9.8243
N99    G01 X19.2052Y9.8147
N100    G01 X19.2197Y9.7979
N101    G01 X19.6120Y9.4058
N102    G01 X19.6234Y9.3966
N103    G01 X19.6356Y9.3884
N104    G01 X19.6485Y9.3815
N105    G01 X19.6620Y9.3759
N106    G01 X19.6760Y9.3716
N107    G01 X19.6904Y9.3688
N108    G01 X19.7050Y9.3673
N109    G01 X20.2597Y9.3671
N110    G01 X20.2819Y9.3688
N111    G01 X20.2963Y9.3716
N112    G01 X20.3103Y9.3759
N113    G01 X20.3239Y9.3815
N114    G01 X20.3368Y9.3884
N115    G01 X20.3490Y9.3966
N116    G01 X20.3658Y9.4110
N117    G01 X20.7526Y9.7979
N118    G01 X20.7671Y9.8147
N119    G01 X20.7753Y9.8269
N120    G01 X20.7822Y9.8398
N121    G01 X20.7878Y9.8533
N122    G01 X20.7920Y9.8674
N123    G01 X20.7949Y9.8817
N124    G01 X20.7966Y9.9040
N125    G01 X20.7966Y10.4510
N126    G01 X20.7949Y10.4733
N127    G01 X20.7920Y10.4876
N128    G01 X20.7878Y10.5017
N129    G01 X20.7822Y10.5152
N130    G01 X20.7753Y10.5281
N131    G01 X20.7671Y10.5403
N132    G01 X20.7526Y10.5571
N133    G01 X20.3658Y10.9440
N134    G01 X20.3490Y10.9584
N135    G01 X20.3368Y10.9666
N136    G01 X20.3239Y10.9735
N137    G01 X20.3103Y10.9791
N138    G01 X20.2963Y10.9834
N139    G01 X20.2819Y10.9862
N140    G01 X20.2597Y10.9879
N141    G01 X19.7126Y10.9879
N142    G01 X19.6904Y10.9862
N143    G01 X19.6760Y10.9834
N144    G01 X19.6620Y10.9791
N145    G01 X19.6485Y10.9735
N146    G01 X19.6356Y10.9666
N147    G01 X19.6234Y10.9584
N148    G01 X19.6066Y10.9440
N149    G01 X19.2197Y10.5571
N150    G01 X19.2052Y10.5403
N151    G01 X19.1988Y10.5307
N152    G01 X19.1800Y10.5307
N153    G01 X18.6484Y11.0623
N154    G01 X18.6224Y11.0858
N155    G01 X18.6009Y11.1019
N156    G01 X18.5887Y11.1101
N157    G01 X18.5652Y11.1240
N158    G01 X18.5342Y11.1386
N159    G01 X18.5005Y11.1507
N160    G01 X18.4748Y11.1573
N161    G01 X18.4603Y11.1602
N162    G01 X18.4338Y11.1639
N163    G01 X18.4017Y11.1657
N164    G01 X18.2278Y11.1657
N165    G01 X18.2174Y11.1925
N166    G01 X18.1795Y11.2724
N167    G01 X18.1342Y11.3482
N168    G01 X18.1260Y11.3605
N169    G01 X18.0735Y11.4310
N170    G01 X18.0140Y11.4970
N171    G01 X18.0036Y11.5074
N172    G01 X17.9436Y11.5618
N173    G01 X17.9322Y11.5711
N174    G01 X17.8614Y11.6235
N175    G01 X17.7854Y11.6692
N176    G01 X17.7725Y11.6761
N177    G01 X17.6929Y11.7136
N178    G01 X17.6093Y11.7437
N179    G01 X17.5953Y11.7480
N180    G01 X17.5093Y11.7693
N181    G01 X17.4153Y11.7833
N182    G01 X17.3192Y11.7880
N183    G01 X15.6682Y11.7880
N184    G01 X15.5720Y11.7833
N185    G01 X15.4780Y11.7693
N186    G01 X15.3857Y11.7462
N187    G01 X15.3017Y11.7164
N188    G01 X15.2881Y11.7108
N189    G01 X15.2149Y11.6761
N190    G01 X15.2019Y11.6692
N191    G01 X15.1260Y11.6235
N192    G01 X15.0551Y11.5711
N193    G01 X15.0438Y11.5618
N194    G01 X14.9784Y11.5023
N195    G01 X14.9138Y11.4310
N196    G01 X14.8572Y11.3547
N197    G01 X14.8115Y11.2788
N198    G01 X14.8053Y11.2673
N199    G01 X7.4746Y11.2673
N200    G01 X6.5283Y12.2136
N201    G01 X6.5439Y12.2484
N202    G01 X6.5716Y12.3265
N203    G01 X6.5932Y12.4127
N204    G01 X6.6062Y12.5006
N205    G01 X6.6105Y12.5831
N206    G01 X6.6107Y14.1145
N207    G01 X6.6068Y14.1965
N208    G01 X6.6054Y14.2112
N209    G01 X6.5944Y14.2852
N210    G01 X6.5915Y14.2996
N211    G01 X6.5716Y14.3785
N212    G01 X6.5439Y14.4566
N213    G01 X6.5383Y14.4702
N214    G01 X6.5030Y14.5445
N215    G01 X6.4568Y14.6214
N216    G01 X6.4039Y14.6927
N217    G01 X6.3486Y14.7540
N218    G01 X6.3382Y14.7645
N219    G01 X6.2828Y14.8147
N220    G01 X6.2714Y14.8240
N221    G01 X6.2056Y14.8727
N222    G01 X6.1286Y14.9188
N223    G01 X6.0481Y14.9569
N224    G01 X5.9704Y14.9849
N225    G01 X5.9563Y14.9892
N226    G01 X5.8765Y15.0090
N227    G01 X5.7886Y15.0221
N228    G01 X5.7060Y15.0263
N229    G01 X5.6913Y15.0263
N230    G01 X5.6088Y15.0221
N231    G01 X5.5209Y15.0090
N232    G01 X5.4410Y14.9892
N233    G01 X5.4269Y14.9849
N234    G01 X5.3493Y14.9569
N235    G01 X5.2753Y14.9221
N236    G01 X5.2624Y14.9152
N237    G01 X5.1918Y14.8727
N238    G01 X5.1205Y14.8198
N239    G01 X5.0591Y14.7645
N240    G01 X5.0487Y14.7540
N241    G01 X4.9934Y14.6927
N242    G01 X4.9405Y14.6214
N243    G01 X4.8944Y14.5445
N244    G01 X4.8591Y14.4702
N245    G01 X4.8535Y14.4566
N246    G01 X4.8257Y14.3785
N247    G01 X4.8042Y14.2923
N248    G01 X4.7920Y14.2112
N249    G01 X4.7905Y14.1965
N250    G01 X4.7867Y14.1145
N251    G00 Z2.0000
N252    G00 X9.0237Y15.0856
N253    G01 Z-0.0700
N254    G01 X9.0237Y14.5770
N255    G01 X9.0430Y14.5445
N256    G01 X9.0811Y14.4639
N257    G01 X9.1116Y14.3785
N258    G01 X9.1315Y14.2996
N259    G01 X9.1344Y14.2852
N260    G01 X9.1462Y14.2044
N261    G01 X9.1497Y14.1375
N262    G01 X9.4857Y14.1375
N263    G01 X9.4857Y14.1940
N264    G01 X9.4637Y14.3573
N265    G01 X9.4210Y14.5187
N266    G01 X9.3591Y14.6687
N267    G01 X9.2767Y14.8107
N268    G01 X9.1779Y14.9404
N269    G01 X9.0630Y15.0553
N270    G01 X9.0237Y15.0856
N271    G00 Z2.0000
N272    G00 X14.6194Y15.1075
N273    G01 Z-0.0700
N274    G01 X14.6325Y15.0899
N275    G01 X14.6680Y15.0376
N276    G01 X14.6758Y15.0249
N277    G01 X14.7096Y14.9623
N278    G01 X14.7398Y14.8904
N279    G01 X14.7629Y14.8154
N280    G01 X14.7769Y14.7467
N281    G01 X14.7791Y14.7319
N282    G01 X14.7854Y14.6690
N283    G01 X14.7862Y14.6541
N284    G01 X14.7860Y14.5833
N285    G01 X14.7782Y14.5055
N286    G01 X14.7629Y14.4296
N287    G01 X14.7421Y14.3614
N288    G01 X14.7370Y14.3474
N289    G01 X14.7096Y14.2827
N290    G01 X14.6758Y14.2201
N291    G01 X14.6680Y14.2074
N292    G01 X14.6325Y14.1551
N293    G01 X14.6194Y14.1375
N294    G01 X15.0907Y14.1375
N295    G01 X15.1260Y14.1635
N296    G01 X15.2083Y14.2128
N297    G01 X15.2945Y14.2536
N298    G01 X15.3857Y14.2862
N299    G01 X15.4780Y14.3093
N300    G01 X15.5653Y14.3224
N301    G01 X15.5799Y14.3238
N302    G01 X15.6608Y14.3278
N303    G01 X15.7087Y14.3280
N304    G01 X15.7087Y14.9170
N305    G01 X15.6608Y14.9172
N306    G01 X15.5799Y14.9212
N307    G01 X15.5653Y14.9226
N308    G01 X15.4780Y14.9357
N309    G01 X15.3857Y14.9588
N310    G01 X15.2945Y14.9914
N311    G01 X15.2083Y15.0322
N312    G01 X15.1260Y15.0815
N313    G01 X15.0907Y15.1075
N314    G01 X14.6194Y15.1075
N315    G00 Z2.0000
N316    G00 X17.3192Y6.7080
N317    G01 Z-0.0700
N318    G01 X15.6682Y6.7080
N319    G01 X15.5799Y6.7038
N320    G01 X15.5653Y6.7024
N321    G01 X15.4780Y6.6893
N322    G01 X15.3857Y6.6662
N323    G01 X15.2945Y6.6336
N324    G01 X15.2149Y6.5961
N325    G01 X15.2019Y6.5892
N326    G01 X15.1260Y6.5435
N327    G01 X15.0497Y6.4868
N328    G01 X14.9784Y6.4223
N329    G01 X14.9138Y6.3510
N330    G01 X14.8572Y6.2747
N331    G01 X14.8079Y6.1924
N332    G01 X14.7671Y6.1062
N333    G01 X14.7345Y6.0150
N334    G01 X14.7114Y5.9227
N335    G01 X14.6974Y5.8286
N336    G01 X14.6927Y5.7325
N337    G01 X14.6974Y5.6364
N338    G01 X14.7114Y5.5423
N339    G01 X14.7345Y5.4500
N340    G01 X14.7671Y5.3588
N341    G01 X14.8046Y5.2792
N342    G01 X14.8115Y5.2662
N343    G01 X14.8572Y5.1903
N344    G01 X14.9096Y5.1195
N345    G01 X14.9189Y5.1081
N346    G01 X14.9733Y5.0480
N347    G01 X14.9837Y5.0376
N348    G01 X15.0497Y4.9782
N349    G01 X15.1202Y4.9256
N350    G01 X15.1324Y4.9175
N351    G01 X15.2083Y4.8722
N352    G01 X15.2945Y4.8314
N353    G01 X15.3857Y4.7988
N354    G01 X15.4780Y4.7757
N355    G01 X15.5720Y4.7617
N356    G01 X15.6682Y4.7570
N357    G01 X17.3192Y4.7570
N358    G01 X17.4075Y4.7612
N359    G01 X17.4221Y4.7626
N360    G01 X17.5093Y4.7757
N361    G01 X17.6016Y4.7988
N362    G01 X17.6856Y4.8286
N363    G01 X17.6992Y4.8342
N364    G01 X17.7791Y4.8722
N365    G01 X17.8549Y4.9175
N366    G01 X17.8672Y4.9256
N367    G01 X17.9377Y4.9782
N368    G01 X18.0036Y5.0376
N369    G01 X18.0140Y5.0480
N370    G01 X18.0735Y5.1140
N371    G01 X18.1260Y5.1845
N372    G01 X18.1342Y5.1968
N373    G01 X18.1759Y5.2662
N374    G01 X18.1820Y5.2777
N375    G01 X37.8953Y5.2777
N376    G01 X38.2639Y4.9091
N377    G01 X38.2639Y4.5901
N378    G01 X38.2464Y4.5811
N379    G01 X38.1694Y4.5347
N380    G01 X38.0921Y4.4774
N381    G01 X38.0199Y4.4120
N382    G01 X37.9596Y4.3457
N383    G01 X37.9503Y4.3343
N384    G01 X37.9013Y4.2682
N385    G01 X37.8931Y4.2560
N386    G01 X37.8472Y4.1791
N387    G01 X37.8087Y4.0981
N388    G01 X37.8031Y4.0845
N389    G01 X37.7728Y3.9993
N390    G01 X37.7511Y3.9132
N391    G01 X37.7482Y3.8987
N392    G01 X37.7353Y3.8106
N393    G01 X37.7305Y3.7132
N394    G01 X37.7305Y2.0337
N395    G01 X37.7353Y1.9394
N396    G01 X37.7482Y1.8513
N397    G01 X37.7511Y1.8368
N398    G01 X37.7711Y1.7570
N399    G01 X37.7753Y1.7429
N400    G01 X37.8059Y1.6582
N401    G01 X37.8439Y1.5775
N402    G01 X37.8508Y1.5646
N403    G01 X37.8931Y1.4940
N404    G01 X37.9013Y1.4818
N405    G01 X37.9545Y1.4102
N406    G01 X38.0199Y1.3380
N407    G01 X38.0921Y1.2726
N408    G01 X38.1636Y1.2194
N409    G01 X38.1759Y1.2112
N410    G01 X38.2464Y1.1689
N411    G01 X38.2594Y1.1620
N412    G01 X38.3401Y1.1240
N413    G01 X38.4248Y1.0935
N414    G01 X38.4389Y1.0892
N415    G01 X38.5260Y1.0676
N416    G01 X38.6213Y1.0534
N417    G01 X38.7187Y1.0486
N418    G01 X38.8082Y1.0528
N419    G01 X38.8228Y1.0543
N420    G01 X38.9113Y1.0676
N421    G01 X38.9984Y1.0892
N422    G01 X39.0125Y1.0935
N423    G01 X39.0900Y1.1212
N424    G01 X39.1036Y1.1268
N425    G01 X39.1846Y1.1653
N426    G01 X39.2615Y1.2112
N427    G01 X39.2737Y1.2194
N428    G01 X39.3452Y1.2726
N429    G01 X39.4174Y1.3380
N430    G01 X39.4828Y1.4102
N431    G01 X39.5402Y1.4876
N432    G01 X39.5902Y1.5709
N433    G01 X39.6315Y1.6582
N434    G01 X39.6645Y1.7507
N435    G01 X39.6863Y1.8368
N436    G01 X39.6892Y1.8513
N437    G01 X39.7021Y1.9394
N438    G01 X39.7069Y2.0368
N439    G01 X39.7069Y3.7132
N440    G01 X39.7021Y3.8106
N441    G01 X39.6879Y3.9058
N442    G01 X39.6645Y3.9993
N443    G01 X39.6343Y4.0845
N444    G01 X39.6287Y4.0981
N445    G01 X39.5902Y4.1791
N446    G01 X39.5443Y4.2560
N447    G01 X39.5361Y4.2682
N448    G01 X39.4871Y4.3343
N449    G01 X39.4778Y4.3457
N450    G01 X39.4174Y4.4120
N451    G01 X39.3452Y4.4774
N452    G01 X39.2679Y4.5347
N453    G01 X39.1909Y4.5811
N454    G01 X39.1735Y4.5901
N455    G01 X39.1735Y5.0975
N456    G01 X39.1712Y5.1426
N457    G01 X39.1660Y5.1790
N458    G01 X39.1631Y5.1934
N459    G01 X39.1541Y5.2288
N460    G01 X39.1415Y5.2647
N461    G01 X39.1359Y5.2783
N462    G01 X39.1198Y5.3119
N463    G01 X39.0967Y5.3504
N464    G01 X39.0705Y5.3857
N465    G01 X39.0418Y5.4175
N466    G01 X38.3999Y6.0592
N467    G01 X38.3719Y6.0843
N468    G01 X38.3424Y6.1064
N469    G01 X38.3045Y6.1300
N470    G01 X38.2915Y6.1369
N471    G01 X38.2581Y6.1525
N472    G01 X38.2150Y6.1679
N473    G01 X38.1723Y6.1786
N474    G01 X38.1356Y6.1842
N475    G01 X38.1209Y6.1857
N476    G01 X38.0837Y6.1873
N477    G01 X22.3460Y6.1873
N478    G01 X22.3460Y17.9777
N479    G01 X34.5912Y17.9777
N480    G01 X34.6284Y17.9793
N481    G01 X34.6431Y17.9808
N482    G01 X34.6798Y17.9864
N483    G01 X34.7161Y17.9953
N484    G01 X34.7302Y17.9996
N485    G01 X34.7656Y18.0125
N486    G01 X34.8056Y18.0314
N487    G01 X34.8441Y18.0545
N488    G01 X34.8739Y18.0764
N489    G01 X34.8853Y18.0857
N490    G01 X34.9128Y18.1109
N491    G01 X58.5280Y41.7261
N492    G01 X58.5757Y41.6620
N493    G01 X58.6645Y41.5637
N494    G01 X58.6749Y41.5533
N495    G01 X58.7673Y41.4696
N496    G01 X58.7786Y41.4603
N497    G01 X58.8846Y41.3820
N498    G01 X59.0043Y41.3102
N499    G01 X59.1235Y41.2536
N500    G01 X59.1371Y41.2479
N501    G01 X59.2622Y41.2034
N502    G01 X59.3895Y41.1714
N503    G01 X59.4039Y41.1685
N504    G01 X59.5340Y41.1494
N505    G01 X59.6663Y41.1427
N506    G01 X59.6810Y41.1427
N507    G01 X59.8134Y41.1494
N508    G01 X59.9435Y41.1685
N509    G01 X59.9579Y41.1714
N510    G01 X60.0852Y41.2034
N511    G01 X60.2175Y41.2508
N512    G01 X60.3365Y41.3069
N513    G01 X60.3495Y41.3138
N514    G01 X60.4564Y41.3779
N515    G01 X60.4686Y41.3861
N516    G01 X60.5742Y41.4645
N517    G01 X60.6724Y41.5533
N518    G01 X60.6828Y41.5637
N519    G01 X60.7665Y41.6561
N520    G01 X60.7759Y41.6675
N521    G01 X60.8542Y41.7734
N522    G01 X60.9260Y41.8931
N523    G01 X60.9854Y42.0187
N524    G01 X61.0175Y42.1077
N525    G01 X66.7878Y42.1077
N526    G01 X67.4739Y41.4216
N527    G01 X67.4739Y19.8909
N528    G01 X62.0253Y14.4423
N529    G01 X59.9814Y14.4423
N530    G01 X59.4919Y14.9318
N531    G01 X59.4751Y14.9462
N532    G01 X59.4629Y14.9544
N533    G01 X59.4500Y14.9613
N534    G01 X59.4365Y14.9669
N535    G01 X59.4225Y14.9712
N536    G01 X59.4081Y14.9740
N537    G01 X59.3859Y14.9757
N538    G01 X58.6915Y14.9757
N539    G01 X58.6693Y14.9740
N540    G01 X58.6549Y14.9712
N541    G01 X58.6409Y14.9669
N542    G01 X58.6273Y14.9613
N543    G01 X58.6144Y14.9544
N544    G01 X58.6022Y14.9462
N545    G01 X58.5854Y14.9318
N546    G01 X58.0892Y14.4353
N547    G01 X58.0799Y14.4240
N548    G01 X58.0718Y14.4118
N549    G01 X58.0649Y14.3988
N550    G01 X58.0593Y14.3853
N551    G01 X58.0550Y14.3713
N552    G01 X58.0521Y14.3569
N553    G01 X58.0505Y14.3347
N554    G01 X58.0505Y13.6403
N555    G01 X58.0521Y13.6181
N556    G01 X58.0550Y13.6037
N557    G01 X58.0593Y13.5897
N558    G01 X58.0649Y13.5762
N559    G01 X58.0718Y13.5632
N560    G01 X58.0799Y13.5510
N561    G01 X58.0944Y13.5342
N562    G01 X58.5854Y13.0432
N563    G01 X58.6022Y13.0288
N564    G01 X58.6144Y13.0206
N565    G01 X58.6273Y13.0137
N566    G01 X58.6409Y13.0081
N567    G01 X58.6549Y13.0038
N568    G01 X58.6693Y13.0010
N569    G01 X58.6915Y12.9993
N570    G01 X59.3859Y12.9993
N571    G01 X59.4081Y13.0010
N572    G01 X59.4225Y13.0038
N573    G01 X59.4365Y13.0081
N574    G01 X59.4500Y13.0137
N575    G01 X59.4629Y13.0206
N576    G01 X59.4751Y13.0288
N577    G01 X59.4919Y13.0432
N578    G01 X59.9814Y13.5327
N579    G01 X62.2167Y13.5327
N580    G01 X62.2588Y13.5349
N581    G01 X62.2952Y13.5402
N582    G01 X62.3096Y13.5431
N583    G01 X62.3450Y13.5521
N584    G01 X62.3809Y13.5647
N585    G01 X62.3945Y13.5703
N586    G01 X62.4281Y13.5864
N587    G01 X62.4666Y13.6095
N588    G01 X62.5019Y13.6357
N589    G01 X62.5353Y13.6659
N590    G01 X68.2518Y19.3825
N591    G01 X68.2805Y19.4143
N592    G01 X68.3026Y19.4438
N593    G01 X68.3108Y19.4560
N594    G01 X68.3298Y19.4881
N595    G01 X68.3487Y19.5281
N596    G01 X68.3616Y19.5635
N597    G01 X68.3659Y19.5776
N598    G01 X68.3748Y19.6139
N599    G01 X68.3812Y19.6574
N600    G01 X68.3835Y19.7025
N601    G01 X68.3835Y41.6100
N602    G01 X68.3818Y41.6472
N603    G01 X68.3804Y41.6619
N604    G01 X68.3748Y41.6986
N605    G01 X68.3641Y41.7413
N606    G01 X68.3515Y41.7772
N607    G01 X68.3459Y41.7908
N608    G01 X68.3298Y41.8244
N609    G01 X68.3067Y41.8629
N610    G01 X68.2805Y41.8982
N611    G01 X68.2503Y41.9316
N612    G01 X67.2924Y42.8892
N613    G01 X67.2644Y42.9143
N614    G01 X67.2349Y42.9364
N615    G01 X67.2226Y42.9446
N616    G01 X67.1906Y42.9636
N617    G01 X67.1506Y42.9825
N618    G01 X67.1152Y42.9954
N619    G01 X67.1011Y42.9997
N620    G01 X67.0648Y43.0086
N621    G01 X67.0213Y43.0151
N622    G01 X66.9762Y43.0173
N623    G01 X61.0175Y43.0173
N624    G01 X60.9854Y43.1063
N625    G01 X60.9293Y43.2253
N626    G01 X60.9224Y43.2383
N627    G01 X60.8583Y43.3452
N628    G01 X60.8501Y43.3574
N629    G01 X60.7716Y43.4630
N630    G01 X60.6778Y43.5666
N631    G01 X60.5742Y43.6605
N632    G01 X60.4686Y43.7389
N633    G01 X60.4564Y43.7471
N634    G01 X60.3431Y43.8148
N635    G01 X60.2238Y43.8714
N636    G01 X60.2102Y43.8771
N637    G01 X60.0929Y43.9190
N638    G01 X60.0788Y43.9233
N639    G01 X59.9506Y43.9552
N640    G01 X59.8134Y43.9756
N641    G01 X59.6737Y43.9825
N642    G01 X59.5418Y43.9762
N643    G01 X59.5272Y43.9748
N644    G01 X59.4039Y43.9565
N645    G01 X59.3895Y43.9536
N646    G01 X59.2622Y43.9216
N647    G01 X59.1371Y43.8771
N648    G01 X59.1235Y43.8714
N649    G01 X59.0043Y43.8148
N650    G01 X58.8846Y43.7430
N651    G01 X58.7732Y43.6605
N652    G01 X58.6696Y43.5666
N653    G01 X58.5757Y43.4630
N654    G01 X58.4972Y43.3574
N655    G01 X58.4891Y43.3452
N656    G01 X58.4214Y43.2319
N657    G01 X58.3648Y43.1126
N658    G01 X58.3591Y43.0990
N659    G01 X58.3171Y42.9817
N660    G01 X58.3129Y42.9676
N661    G01 X58.2809Y42.8394
N662    G01 X58.2679Y42.7524
N663    G01 X34.4028Y18.8873
N664    G01 X22.1174Y18.8873
N665    G01 X22.1174Y19.2326
N666    G01 X22.1157Y19.2549
N667    G01 X22.1128Y19.2692
N668    G01 X22.1086Y19.2833
N669    G01 X22.1029Y19.2969
N670    G01 X22.0960Y19.3098
N671    G01 X22.0878Y19.3220
N672    G01 X22.0785Y19.3333
N673    G01 X22.0681Y19.3437
N674    G01 X22.0568Y19.3530
N675    G01 X22.0446Y19.3612
N676    G01 X22.0316Y19.3681
N677    G01 X22.0181Y19.3738
N678    G01 X22.0040Y19.3781
N679    G01 X21.9896Y19.3809
N680    G01 X21.9674Y19.3826
N681    G01 X20.7990Y19.3826
N682    G01 X20.7767Y19.3809
N683    G01 X20.7623Y19.3781
N684    G01 X20.7483Y19.3738
N685    G01 X20.7347Y19.3681
N686    G01 X20.7218Y19.3612
N687    G01 X20.7096Y19.3530
N688    G01 X20.6982Y19.3437
N689    G01 X20.6879Y19.3333
N690    G01 X20.6785Y19.3220
N691    G01 X20.6704Y19.3098
N692    G01 X20.6634Y19.2969
N693    G01 X20.6578Y19.2833
N694    G01 X20.6535Y19.2692
N695    G01 X20.6506Y19.2549
N696    G01 X20.6492Y19.2402
N697    G01 X20.6490Y17.6324
N698    G01 X20.6506Y17.6101
N699    G01 X20.6535Y17.5958
N700    G01 X20.6578Y17.5817
N701    G01 X20.6634Y17.5681
N702    G01 X20.6704Y17.5552
N703    G01 X20.6785Y17.5430
N704    G01 X20.6879Y17.5317
N705    G01 X20.6982Y17.5213
N706    G01 X20.7096Y17.5120
N707    G01 X20.7218Y17.5038
N708    G01 X20.7347Y17.4969
N709    G01 X20.7483Y17.4912
N710    G01 X20.7623Y17.4869
N711    G01 X20.7767Y17.4841
N712    G01 X20.7990Y17.4824
N713    G01 X21.4364Y17.4824
N714    G01 X21.4364Y6.1873
N715    G01 X18.1820Y6.1873
N716    G01 X18.1759Y6.1988
N717    G01 X18.1342Y6.2682
N718    G01 X18.1260Y6.2805
N719    G01 X18.0735Y6.3510
N720    G01 X18.0140Y6.4170
N721    G01 X18.0036Y6.4274
N722    G01 X17.9377Y6.4868
N723    G01 X17.8672Y6.5394
N724    G01 X17.8549Y6.5475
N725    G01 X17.7791Y6.5928
N726    G01 X17.6992Y6.6308
N727    G01 X17.6856Y6.6364
N728    G01 X17.6016Y6.6662
N729    G01 X17.5093Y6.6893
N730    G01 X17.4221Y6.7024
N731    G01 X17.4075Y6.7038
N732    G01 X17.3192Y6.7080
N733    G00 Z2.0000
N734    G00 X22.5415Y7.6301
N735    G01 Z-0.0700
N736    G01 X22.5428Y7.6073
N737    G01 X22.5471Y7.5786
N738    G01 X22.5541Y7.5504
N739    G01 X22.5645Y7.5214
N740    G01 X22.5770Y7.4949
N741    G01 X22.5924Y7.4693
N742    G01 X22.6096Y7.4460
N743    G01 X22.6299Y7.4237
N744    G01 X23.5877Y6.4661
N745    G01 X23.6047Y6.4510
N746    G01 X23.6280Y6.4337
N747    G01 X23.6536Y6.4183
N748    G01 X23.6801Y6.4058
N749    G01 X23.7091Y6.3954
N750    G01 X23.7300Y6.3900
N751    G01 X23.7592Y6.3850
N752    G01 X23.7739Y6.3835
N753    G01 X23.7962Y6.3826
N754    G01 X39.5459Y6.3826
N755    G01 X40.9563Y4.9722
N756    G01 X40.9563Y4.6535
N757    G01 X40.8801Y4.6260
N758    G01 X40.7994Y4.5880
N759    G01 X40.7864Y4.5811
N760    G01 X40.7094Y4.5347
N761    G01 X40.6376Y4.4816
N762    G01 X40.6262Y4.4723
N763    G01 X40.5599Y4.4120
N764    G01 X40.4996Y4.3457
N765    G01 X40.4903Y4.3343
N766    G01 X40.4372Y4.2624
N767    G01 X40.3908Y4.1854
N768    G01 X40.3839Y4.1725
N769    G01 X40.3459Y4.0918
N770    G01 X40.3153Y4.0071
N771    G01 X40.3111Y3.9930
N772    G01 X40.2894Y3.9058
N773    G01 X40.2753Y3.8106
N774    G01 X40.2705Y3.7132
N775    G01 X40.2705Y2.0337
N776    G01 X40.2753Y1.9394
N777    G01 X40.2894Y1.8442
N778    G01 X40.3128Y1.7507
N779    G01 X40.3431Y1.6655
N780    G01 X40.3487Y1.6519
N781    G01 X40.3872Y1.5709
N782    G01 X40.4331Y1.4940
N783    G01 X40.4413Y1.4818
N784    G01 X40.4903Y1.4157
N785    G01 X40.4996Y1.4043
N786    G01 X40.5599Y1.3380
N787    G01 X40.6262Y1.2777
N788    G01 X40.6376Y1.2684
N789    G01 X40.7094Y1.2153
N790    G01 X40.7928Y1.1653
N791    G01 X40.8801Y1.1240
N792    G01 X40.9648Y1.0935
N793    G01 X40.9789Y1.0892
N794    G01 X41.0660Y1.0676
N795    G01 X41.1545Y1.0543
N796    G01 X41.1692Y1.0528
N797    G01 X41.2513Y1.0488
N798    G01 X41.2660Y1.0488
N799    G01 X41.3561Y1.0534
N800    G01 X41.4513Y1.0676
N801    G01 X41.5448Y1.0909
N802    G01 X41.6300Y1.1212
N803    G01 X41.6436Y1.1268
N804    G01 X41.7246Y1.1653
N805    G01 X41.8015Y1.2112
N806    G01 X41.8137Y1.2194
N807    G01 X41.8798Y1.2684
N808    G01 X41.8912Y1.2777
N809    G01 X41.9574Y1.3380
N810    G01 X42.0228Y1.4102
N811    G01 X42.0802Y1.4876
N812    G01 X42.1302Y1.5709
N813    G01 X42.1715Y1.6582
N814    G01 X42.2045Y1.7507
N815    G01 X42.2279Y1.8442
N816    G01 X42.2421Y1.9394
N817    G01 X42.2469Y2.0368
N818    G01 X42.2468Y3.7163
N819    G01 X42.2421Y3.8106
N820    G01 X42.2279Y3.9058
N821    G01 X42.2045Y3.9993
N822    G01 X42.1743Y4.0845
N823    G01 X42.1687Y4.0981
N824    G01 X42.1302Y4.1791
N825    G01 X42.0802Y4.2624
N826    G01 X42.0228Y4.3398
N827    G01 X41.9625Y4.4066
N828    G01 X41.9521Y4.4170
N829    G01 X41.8852Y4.4774
N830    G01 X41.8137Y4.5306
N831    G01 X41.8015Y4.5388
N832    G01 X41.7309Y4.5811
N833    G01 X41.7179Y4.5880
N834    G01 X41.6372Y4.6260
N835    G01 X41.5611Y4.6535
N836    G01 X41.5611Y5.0975
N837    G01 X41.5596Y5.1277
N838    G01 X41.5553Y5.1564
N839    G01 X41.5500Y5.1782
N840    G01 X41.5457Y5.1923
N841    G01 X41.5379Y5.2136
N842    G01 X41.5217Y5.2465
N843    G01 X41.5100Y5.2657
N844    G01 X41.4927Y5.2890
N845    G01 X41.4725Y5.3113
N846    G01 X39.8835Y6.9004
N847    G01 X39.8572Y6.9233
N848    G01 X39.8394Y6.9363
N849    G01 X39.8201Y6.9481
N850    G01 X39.7873Y6.9642
N851    G01 X39.7582Y6.9746
N852    G01 X39.7300Y6.9816
N853    G01 X39.7081Y6.9850
N854    G01 X39.6935Y6.9865
N855    G01 X39.6712Y6.9874
N856    G01 X23.9214Y6.9874
N857    G01 X23.1461Y7.7628
N858    G01 X23.1461Y16.4022
N859    G01 X23.9214Y17.1776
N860    G01 X35.2262Y17.1776
N861    G01 X35.2485Y17.1785
N862    G01 X35.2631Y17.1800
N863    G01 X35.2850Y17.1834
N864    G01 X35.3069Y17.1887
N865    G01 X35.3210Y17.1929
N866    G01 X35.3423Y17.2008
N867    G01 X35.3688Y17.2133
N868    G01 X35.3944Y17.2287
N869    G01 X35.4122Y17.2417
N870    G01 X35.4236Y17.2511
N871    G01 X35.4400Y17.2662
N872    G01 X58.5289Y40.3551
N873    G01 X65.5338Y40.3551
N874    G01 X65.5353Y40.3474
N875    G01 X65.5396Y40.3333
N876    G01 X65.5452Y40.3198
N877    G01 X65.5521Y40.3069
N878    G01 X65.5602Y40.2947
N879    G01 X65.5747Y40.2779
N880    G01 X65.9616Y39.8910
N881    G01 X65.9784Y39.8766
N882    G01 X65.9906Y39.8684
N883    G01 X66.0035Y39.8615
N884    G01 X66.0170Y39.8559
N885    G01 X66.0310Y39.8516
N886    G01 X66.0454Y39.8488
N887    G01 X66.0676Y39.8471
N888    G01 X66.6224Y39.8473
N889    G01 X66.6369Y39.8488
N890    G01 X66.6513Y39.8516
N891    G01 X66.6653Y39.8559
N892    G01 X66.6789Y39.8615
N893    G01 X66.6918Y39.8684
N894    G01 X66.7040Y39.8766
N895    G01 X66.7153Y39.8858
N896    G01 X67.1076Y40.2779
N897    G01 X67.1221Y40.2947
N898    G01 X67.1303Y40.3069
N899    G01 X67.1372Y40.3198
N900    G01 X67.1428Y40.3333
N901    G01 X67.1470Y40.3474
N902    G01 X67.1499Y40.3617
N903    G01 X67.1516Y40.3840
N904    G01 X67.1516Y40.9310
N905    G01 X67.1499Y40.9533
N906    G01 X67.1470Y40.9676
N907    G01 X67.1428Y40.9817
N908    G01 X67.1372Y40.9952
N909    G01 X67.1303Y41.0081
N910    G01 X67.1221Y41.0203
N911    G01 X67.1076Y41.0371
N912    G01 X66.7208Y41.4240
N913    G01 X66.7040Y41.4384
N914    G01 X66.6918Y41.4466
N915    G01 X66.6789Y41.4535
N916    G01 X66.6653Y41.4591
N917    G01 X66.6513Y41.4634
N918    G01 X66.6369Y41.4662
N919    G01 X66.6147Y41.4679
N920    G01 X66.0676Y41.4679
N921    G01 X66.0454Y41.4662
N922    G01 X66.0310Y41.4634
N923    G01 X66.0170Y41.4591
N924    G01 X66.0035Y41.4535
N925    G01 X65.9906Y41.4466
N926    G01 X65.9784Y41.4384
N927    G01 X65.9616Y41.4240
N928    G01 X65.5695Y41.0316
N929    G01 X65.5602Y41.0203
N930    G01 X65.5521Y41.0081
N931    G01 X65.5452Y40.9952
N932    G01 X65.5396Y40.9817
N933    G01 X65.5353Y40.9676
N934    G01 X65.5338Y40.9599
N935    G01 X58.4037Y40.9599
N936    G01 X58.3814Y40.9590
N937    G01 X58.3667Y40.9575
N938    G01 X58.3448Y40.9541
N939    G01 X58.3166Y40.9471
N940    G01 X58.2876Y40.9367
N941    G01 X58.2677Y40.9275
N942    G01 X58.2547Y40.9206
N943    G01 X58.2297Y40.9047
N944    G01 X58.2122Y40.8915
N945    G01 X58.1899Y40.8713
N946    G01 X35.1009Y17.7824
N947    G01 X23.7962Y17.7824
N948    G01 X23.7660Y17.7809
N949    G01 X23.7444Y17.7778
N950    G01 X23.7300Y17.7750
N951    G01 X23.7014Y17.7671
N952    G01 X23.6801Y17.7592
N953    G01 X23.6536Y17.7467
N954    G01 X23.6280Y17.7313
N955    G01 X23.6101Y17.7183
N956    G01 X23.5988Y17.7089
N957    G01 X23.5824Y17.6938
N958    G01 X22.6248Y16.7360
N959    G01 X22.6096Y16.7190
N960    G01 X22.5924Y16.6957
N961    G01 X22.5770Y16.6701
N962    G01 X22.5673Y16.6500
N963    G01 X22.5616Y16.6364
N964    G01 X22.5523Y16.6082
N965    G01 X22.5471Y16.5864
N966    G01 X22.5428Y16.5577
N967    G01 X22.5413Y16.5275
N968    G01 X22.5415Y7.6301
N969    G00 Z2.0000
N970    G00 X26.7960Y10.4587
N971    G01 Z-0.0700
N972    G01 X26.7958Y9.9040
N973    G01 X26.7974Y9.8817
N974    G01 X26.8003Y9.8674
N975    G01 X26.8046Y9.8533
N976    G01 X26.8102Y9.8398
N977    G01 X26.8171Y9.8269
N978    G01 X26.8252Y9.8147
N979    G01 X26.8397Y9.7979
N980    G01 X27.2320Y9.4058
N981    G01 X27.2434Y9.3966
N982    G01 X27.2556Y9.3884
N983    G01 X27.2685Y9.3815
N984    G01 X27.2820Y9.3759
N985    G01 X27.2960Y9.3716
N986    G01 X27.3104Y9.3688
N987    G01 X27.3326Y9.3671
N988    G01 X27.8797Y9.3671
N989    G01 X27.9019Y9.3688
N990    G01 X27.9163Y9.3716
N991    G01 X27.9303Y9.3759
N992    G01 X27.9439Y9.3815
N993    G01 X27.9568Y9.3884
N994    G01 X27.9690Y9.3966
N995    G01 X27.9858Y9.4110
N996    G01 X28.3726Y9.7979
N997    G01 X28.3871Y9.8147
N998    G01 X28.3953Y9.8269
N999    G01 X28.4022Y9.8398
N1000    G01 X28.4078Y9.8533
N1001    G01 X28.4120Y9.8674
N1002    G01 X28.4136Y9.8751
N1003    G01 X29.9738Y9.8751
N1004    G01 X29.9753Y9.8674
N1005    G01 X29.9796Y9.8533
N1006    G01 X29.9852Y9.8398
N1007    G01 X29.9921Y9.8269
N1008    G01 X30.0002Y9.8147
N1009    G01 X30.0095Y9.8034
N1010    G01 X30.4016Y9.4110
N1011    G01 X30.4184Y9.3966
N1012    G01 X30.4306Y9.3884
N1013    G01 X30.4435Y9.3815
N1014    G01 X30.4570Y9.3759
N1015    G01 X30.4710Y9.3716
N1016    G01 X30.4854Y9.3688
N1017    G01 X30.5076Y9.3671
N1018    G01 X31.0547Y9.3671
N1019    G01 X31.0769Y9.3688
N1020    G01 X31.0913Y9.3716
N1021    G01 X31.1053Y9.3759
N1022    G01 X31.1189Y9.3815
N1023    G01 X31.1318Y9.3884
N1024    G01 X31.1440Y9.3966
N1025    G01 X31.1608Y9.4110
N1026    G01 X31.5476Y9.7979
N1027    G01 X31.5621Y9.8147
N1028    G01 X31.5703Y9.8269
N1029    G01 X31.5772Y9.8398
N1030    G01 X31.5828Y9.8533
N1031    G01 X31.5870Y9.8674
N1032    G01 X31.5886Y9.8751
N1033    G01 X50.3409Y9.8751
N1034    G01 X55.0164Y5.1996
N1035    G01 X55.0372Y5.1810
N1036    G01 X55.0605Y5.1637
N1037    G01 X55.0861Y5.1483
N1038    G01 X55.1062Y5.1386
N1039    G01 X55.1198Y5.1330
N1040    G01 X55.1480Y5.1237
N1041    G01 X55.1698Y5.1184
N1042    G01 X55.1985Y5.1141
N1043    G01 X55.2287Y5.1126
N1044    G01 X84.7562Y5.1126
N1045    G01 X84.7863Y5.1141
N1046    G01 X84.8150Y5.1184
N1047    G01 X84.8432Y5.1254
N1048    G01 X84.8723Y5.1358
N1049    G01 X84.8922Y5.1450
N1050    G01 X84.9051Y5.1519
N1051    G01 X84.9302Y5.1678
N1052    G01 X84.9477Y5.1810
N1053    G01 X84.9700Y5.2012
N1054    G01 X86.5590Y6.7902
N1055    G01 X86.5777Y6.8110
N1056    G01 X86.5909Y6.8285
N1057    G01 X86.5991Y6.8407
N1058    G01 X86.6104Y6.8599
N1059    G01 X86.6229Y6.8864
N1060    G01 X86.6307Y6.9077
N1061    G01 X86.6387Y6.9363
N1062    G01 X86.6415Y6.9508
N1063    G01 X86.6446Y6.9723
N1064    G01 X86.6461Y7.0025
N1065    G01 X86.6461Y17.1625
N1066    G01 X86.6446Y17.1927
N1067    G01 X86.6403Y17.2214
N1068    G01 X86.6350Y17.2432
N1069    G01 X86.6257Y17.2714
N1070    G01 X86.6201Y17.2850
N1071    G01 X86.6104Y17.3051
N1072    G01 X86.5950Y17.3307
N1073    G01 X86.5777Y17.3540
N1074    G01 X86.5626Y17.3710
N1075    G01 X85.3513Y18.5826
N1076    G01 X85.3881Y18.6197
N1077    G01 X85.3974Y18.6310
N1078    G01 X85.4056Y18.6432
N1079    G01 X85.4125Y18.6562
N1080    G01 X85.4181Y18.6697
N1081    G01 X85.4223Y18.6837
N1082    G01 X85.4252Y18.6981
N1083    G01 X85.4267Y18.7127
N1084    G01 X85.4269Y19.4147
N1085    G01 X85.4252Y19.4369
N1086    G01 X85.4223Y19.4513
N1087    G01 X85.4181Y19.4653
N1088    G01 X85.4125Y19.4788
N1089    G01 X85.4056Y19.4918
N1090    G01 X85.3974Y19.5040
N1091    G01 X85.3829Y19.5208
N1092    G01 X84.8919Y20.0118
N1093    G01 X84.8751Y20.0262
N1094    G01 X84.8629Y20.0344
N1095    G01 X84.8500Y20.0413
N1096    G01 X84.8365Y20.0469
N1097    G01 X84.8225Y20.0512
N1098    G01 X84.8081Y20.0540
N1099    G01 X84.7859Y20.0557
N1100    G01 X84.0915Y20.0557
N1101    G01 X84.0693Y20.0540
N1102    G01 X84.0549Y20.0512
N1103    G01 X84.0409Y20.0469
N1104    G01 X84.0273Y20.0413
N1105    G01 X84.0144Y20.0344
N1106    G01 X84.0022Y20.0262
N1107    G01 X83.9854Y20.0118
N1108    G01 X83.4944Y19.5208
N1109    G01 X83.4799Y19.5040
N1110    G01 X83.4718Y19.4918
N1111    G01 X83.4649Y19.4788
N1112    G01 X83.4593Y19.4653
N1113    G01 X83.4550Y19.4513
N1114    G01 X83.4521Y19.4369
N1115    G01 X83.4505Y19.4147
N1116    G01 X83.4505Y18.7203
N1117    G01 X83.4521Y18.6981
N1118    G01 X83.4550Y18.6837
N1119    G01 X83.4593Y18.6697
N1120    G01 X83.4649Y18.6562
N1121    G01 X83.4718Y18.6432
N1122    G01 X83.4799Y18.6310
N1123    G01 X83.4944Y18.6142
N1124    G01 X83.9854Y18.1232
N1125    G01 X84.0022Y18.1088
N1126    G01 X84.0144Y18.1006
N1127    G01 X84.0273Y18.0937
N1128    G01 X84.0409Y18.0881
N1129    G01 X84.0549Y18.0838
N1130    G01 X84.0693Y18.0810
N1131    G01 X84.0838Y18.0795
N1132    G01 X84.7935Y18.0795
N1133    G01 X84.8081Y18.0810
N1134    G01 X84.8225Y18.0838
N1135    G01 X84.8365Y18.0881
N1136    G01 X84.8500Y18.0937
N1137    G01 X84.8629Y18.1006
N1138    G01 X84.8751Y18.1088
N1139    G01 X84.8865Y18.1180
N1140    G01 X84.9236Y18.1549
N1141    G01 X86.0413Y17.0372
N1142    G01 X86.0413Y7.1278
N1143    G01 X84.6309Y5.7174
N1144    G01 X55.3539Y5.7174
N1145    G01 X50.6785Y10.3929
N1146    G01 X50.6577Y10.4115
N1147    G01 X50.6402Y10.4247
N1148    G01 X50.6280Y10.4329
N1149    G01 X50.6088Y10.4442
N1150    G01 X50.5823Y10.4567
N1151    G01 X50.5610Y10.4646
N1152    G01 X50.5324Y10.4725
N1153    G01 X50.5179Y10.4753
N1154    G01 X50.4963Y10.4784
N1155    G01 X50.4662Y10.4799
N1156    G01 X31.5886Y10.4799
N1157    G01 X31.5870Y10.4876
N1158    G01 X31.5828Y10.5017
N1159    G01 X31.5772Y10.5152
N1160    G01 X31.5703Y10.5281
N1161    G01 X31.5621Y10.5403
N1162    G01 X31.5528Y10.5516
N1163    G01 X31.1608Y10.9440
N1164    G01 X31.1440Y10.9584
N1165    G01 X31.1318Y10.9666
N1166    G01 X31.1189Y10.9735
N1167    G01 X31.1053Y10.9791
N1168    G01 X31.0913Y10.9834
N1169    G01 X31.0769Y10.9862
N1170    G01 X31.0547Y10.9879
N1171    G01 X30.5076Y10.9879
N1172    G01 X30.4854Y10.9862
N1173    G01 X30.4710Y10.9834
N1174    G01 X30.4570Y10.9791
N1175    G01 X30.4435Y10.9735
N1176    G01 X30.4306Y10.9666
N1177    G01 X30.4184Y10.9584
N1178    G01 X30.4016Y10.9440
N1179    G01 X30.0147Y10.5571
N1180    G01 X30.0002Y10.5403
N1181    G01 X29.9921Y10.5281
N1182    G01 X29.9852Y10.5152
N1183    G01 X29.9796Y10.5017
N1184    G01 X29.9753Y10.4876
N1185    G01 X29.9738Y10.4799
N1186    G01 X28.4136Y10.4799
N1187    G01 X28.4120Y10.4876
N1188    G01 X28.4078Y10.5017
N1189    G01 X28.4022Y10.5152
N1190    G01 X28.3953Y10.5281
N1191    G01 X28.3871Y10.5403
N1192    G01 X28.3726Y10.5571
N1193    G01 X27.9858Y10.9440
N1194    G01 X27.9690Y10.9584
N1195    G01 X27.9568Y10.9666
N1196    G01 X27.9439Y10.9735
N1197    G01 X27.9303Y10.9791
N1198    G01 X27.9163Y10.9834
N1199    G01 X27.9019Y10.9862
N1200    G01 X27.8797Y10.9879
N1201    G01 X27.3326Y10.9879
N1202    G01 X27.3104Y10.9862
N1203    G01 X27.2960Y10.9834
N1204    G01 X27.2820Y10.9791
N1205    G01 X27.2685Y10.9735
N1206    G01 X27.2556Y10.9666
N1207    G01 X27.2434Y10.9584
N1208    G01 X27.2266Y10.9440
N1209    G01 X26.8345Y10.5516
N1210    G01 X26.8252Y10.5403
N1211    G01 X26.8171Y10.5281
N1212    G01 X26.8102Y10.5152
N1213    G01 X26.8046Y10.5017
N1214    G01 X26.8003Y10.4876
N1215    G01 X26.7974Y10.4733
N1216    G01 X26.7960Y10.4587
N1217    G00 Z2.0000
N1218    G00 X26.8345Y13.6134
N1219    G01 Z-0.0700
N1220    G01 X27.2320Y13.2158
N1221    G01 X27.2434Y13.2066
N1222    G01 X27.2556Y13.1984
N1223    G01 X27.2685Y13.1915
N1224    G01 X27.2820Y13.1859
N1225    G01 X27.2960Y13.1816
N1226    G01 X27.3104Y13.1788
N1227    G01 X27.3326Y13.1771
N1228    G01 X27.8797Y13.1771
N1229    G01 X27.9019Y13.1788
N1230    G01 X27.9163Y13.1816
N1231    G01 X27.9303Y13.1859
N1232    G01 X27.9439Y13.1915
N1233    G01 X27.9568Y13.1984
N1234    G01 X27.9690Y13.2066
N1235    G01 X27.9858Y13.2210
N1236    G01 X28.3726Y13.6079
N1237    G01 X28.3871Y13.6247
N1238    G01 X28.3935Y13.6343
N1239    G01 X29.9938Y13.6343
N1240    G01 X30.0002Y13.6247
N1241    G01 X30.0147Y13.6079
N1242    G01 X30.4016Y13.2210
N1243    G01 X30.4184Y13.2066
N1244    G01 X30.4306Y13.1984
N1245    G01 X30.4435Y13.1915
N1246    G01 X30.4570Y13.1859
N1247    G01 X30.4710Y13.1816
N1248    G01 X30.4854Y13.1788
N1249    G01 X30.5076Y13.1771
N1250    G01 X31.0547Y13.1771
N1251    G01 X31.0769Y13.1788
N1252    G01 X31.0913Y13.1816
N1253    G01 X31.1053Y13.1859
N1254    G01 X31.1189Y13.1915
N1255    G01 X31.1318Y13.1984
N1256    G01 X31.1440Y13.2066
N1257    G01 X31.1608Y13.2210
N1258    G01 X31.5528Y13.6134
N1259    G01 X31.5621Y13.6247
N1260    G01 X31.5703Y13.6369
N1261    G01 X31.5772Y13.6498
N1262    G01 X31.5828Y13.6633
N1263    G01 X31.5870Y13.6774
N1264    G01 X31.5886Y13.6851
N1265    G01 X50.4662Y13.6851
N1266    G01 X50.4963Y13.6866
N1267    G01 X50.5179Y13.6897
N1268    G01 X50.5324Y13.6925
N1269    G01 X50.5610Y13.7004
N1270    G01 X50.5823Y13.7083
N1271    G01 X50.6022Y13.7175
N1272    G01 X50.6280Y13.7321
N1273    G01 X50.6577Y13.7535
N1274    G01 X50.6785Y13.7721
N1275    G01 X53.2200Y16.3137
N1276    G01 X53.2351Y16.3301
N1277    G01 X53.2445Y16.3415
N1278    G01 X53.2575Y16.3593
N1279    G01 X53.2692Y16.3785
N1280    G01 X53.2854Y16.4114
N1281    G01 X53.2958Y16.4404
N1282    G01 X53.3028Y16.4686
N1283    G01 X53.3062Y16.4906
N1284    G01 X53.3077Y16.5052
N1285    G01 X53.3086Y16.5275
N1286    G01 X53.3086Y22.4347
N1287    G01 X54.7189Y23.8451
N1288    G01 X55.5105Y23.8451
N1289    G01 X55.5107Y23.7927
N1290    G01 X55.5121Y23.7781
N1291    G01 X55.5150Y23.7637
N1292    G01 X55.5193Y23.7497
N1293    G01 X55.5249Y23.7362
N1294    G01 X55.5318Y23.7232
N1295    G01 X55.5399Y23.7110
N1296    G01 X55.5492Y23.6997
N1297    G01 X56.0454Y23.2032
N1298    G01 X56.0622Y23.1888
N1299    G01 X56.0744Y23.1806
N1300    G01 X56.0873Y23.1737
N1301    G01 X56.1009Y23.1681
N1302    G01 X56.1149Y23.1638
N1303    G01 X56.1293Y23.1610
N1304    G01 X56.1515Y23.1593
N1305    G01 X56.8459Y23.1593
N1306    G01 X56.8681Y23.1610
N1307    G01 X56.8825Y23.1638
N1308    G01 X56.8965Y23.1681
N1309    G01 X56.9100Y23.1737
N1310    G01 X56.9229Y23.1806
N1311    G01 X56.9351Y23.1888
N1312    G01 X56.9519Y23.2032
N1313    G01 X57.4429Y23.6942
N1314    G01 X57.4574Y23.7110
N1315    G01 X57.4656Y23.7232
N1316    G01 X57.4725Y23.7362
N1317    G01 X57.4781Y23.7497
N1318    G01 X57.4823Y23.7637
N1319    G01 X57.4852Y23.7781
N1320    G01 X57.4869Y23.8003
N1321    G01 X57.4869Y24.4947
N1322    G01 X57.4852Y24.5169
N1323    G01 X57.4823Y24.5313
N1324    G01 X57.4781Y24.5453
N1325    G01 X57.4725Y24.5588
N1326    G01 X57.4656Y24.5718
N1327    G01 X57.4574Y24.5840
N1328    G01 X57.4429Y24.6008
N1329    G01 X56.9519Y25.0918
N1330    G01 X56.9351Y25.1062
N1331    G01 X56.9229Y25.1144
N1332    G01 X56.9100Y25.1213
N1333    G01 X56.8965Y25.1269
N1334    G01 X56.8825Y25.1312
N1335    G01 X56.8681Y25.1340
N1336    G01 X56.8459Y25.1357
N1337    G01 X56.1515Y25.1357
N1338    G01 X56.1293Y25.1340
N1339    G01 X56.1149Y25.1312
N1340    G01 X56.1009Y25.1269
N1341    G01 X56.0873Y25.1213
N1342    G01 X56.0744Y25.1144
N1343    G01 X56.0622Y25.1062
N1344    G01 X56.0454Y25.0918
N1345    G01 X55.5492Y24.5953
N1346    G01 X55.5399Y24.5840
N1347    G01 X55.5318Y24.5718
N1348    G01 X55.5249Y24.5588
N1349    G01 X55.5193Y24.5453
N1350    G01 X55.5150Y24.5313
N1351    G01 X55.5121Y24.5169
N1352    G01 X55.5107Y24.5023
N1353    G01 X55.5105Y24.4499
N1354    G01 X54.5937Y24.4499
N1355    G01 X54.5714Y24.4490
N1356    G01 X54.5567Y24.4475
N1357    G01 X54.5275Y24.4425
N1358    G01 X54.5066Y24.4371
N1359    G01 X54.4848Y24.4295
N1360    G01 X54.4712Y24.4239
N1361    G01 X54.4511Y24.4142
N1362    G01 X54.4319Y24.4029
N1363    G01 X54.4197Y24.3947
N1364    G01 X54.4022Y24.3815
N1365    G01 X54.3799Y24.3613
N1366    G01 X52.7924Y22.7738
N1367    G01 X52.7721Y22.7515
N1368    G01 X52.7549Y22.7282
N1369    G01 X52.7395Y22.7026
N1370    G01 X52.7298Y22.6825
N1371    G01 X52.7241Y22.6689
N1372    G01 X52.7166Y22.6471
N1373    G01 X52.7096Y22.6189
N1374    G01 X52.7061Y22.5969
N1375    G01 X52.7047Y22.5823
N1376    G01 X52.7038Y22.5600
N1377    G01 X52.7038Y16.6528
N1378    G01 X50.3409Y14.2899
N1379    G01 X31.5886Y14.2899
N1380    G01 X31.5870Y14.2976
N1381    G01 X31.5828Y14.3117
N1382    G01 X31.5772Y14.3252
N1383    G01 X31.5703Y14.3381
N1384    G01 X31.5621Y14.3503
N1385    G01 X31.5528Y14.3616
N1386    G01 X31.1608Y14.7540
N1387    G01 X31.1440Y14.7684
N1388    G01 X31.1318Y14.7766
N1389    G01 X31.1189Y14.7835
N1390    G01 X31.1053Y14.7891
N1391    G01 X31.0913Y14.7934
N1392    G01 X31.0769Y14.7962
N1393    G01 X31.0547Y14.7979
N1394    G01 X30.5076Y14.7979
N1395    G01 X30.4854Y14.7962
N1396    G01 X30.4710Y14.7934
N1397    G01 X30.4570Y14.7891
N1398    G01 X30.4435Y14.7835
N1399    G01 X30.4306Y14.7766
N1400    G01 X30.4184Y14.7684
N1401    G01 X30.4016Y14.7540
N1402    G01 X30.0147Y14.3671
N1403    G01 X30.0002Y14.3503
N1404    G01 X29.9938Y14.3407
N1405    G01 X28.3935Y14.3407
N1406    G01 X28.3871Y14.3503
N1407    G01 X28.3726Y14.3671
N1408    G01 X27.9858Y14.7540
N1409    G01 X27.9690Y14.7684
N1410    G01 X27.9568Y14.7766
N1411    G01 X27.9439Y14.7835
N1412    G01 X27.9303Y14.7891
N1413    G01 X27.9163Y14.7934
N1414    G01 X27.9019Y14.7962
N1415    G01 X27.8797Y14.7979
N1416    G01 X27.3250Y14.7977
N1417    G01 X27.3104Y14.7962
N1418    G01 X27.2960Y14.7934
N1419    G01 X27.2820Y14.7891
N1420    G01 X27.2685Y14.7835
N1421    G01 X27.2556Y14.7766
N1422    G01 X27.2434Y14.7684
N1423    G01 X27.2320Y14.7592
N1424    G01 X26.8397Y14.3671
N1425    G01 X26.8252Y14.3503
N1426    G01 X26.8171Y14.3381
N1427    G01 X26.8102Y14.3252
N1428    G01 X26.8046Y14.3117
N1429    G01 X26.8003Y14.2976
N1430    G01 X26.7974Y14.2833
N1431    G01 X26.7958Y14.2610
N1432    G01 X26.7960Y13.7063
N1433    G01 X26.7974Y13.6917
N1434    G01 X26.8003Y13.6774
N1435    G01 X26.8046Y13.6633
N1436    G01 X26.8102Y13.6498
N1437    G01 X26.8171Y13.6369
N1438    G01 X26.8252Y13.6247
N1439    G01 X26.8345Y13.6134
N1440    G00 Z2.0000
N1441    G00 X31.1850Y27.3299
N1442    G01 Z-0.0700
N1443    G01 X31.1801Y27.4249
N1444    G01 X31.1652Y27.5251
N1445    G01 X31.1407Y27.6234
N1446    G01 X31.1059Y27.7205
N1447    G01 X31.0625Y27.8123
N1448    G01 X31.0099Y27.9000
N1449    G01 X30.9496Y27.9813
N1450    G01 X30.8809Y28.0572
N1451    G01 X30.8050Y28.1259
N1452    G01 X30.7236Y28.1862
N1453    G01 X30.6360Y28.2388
N1454    G01 X30.5442Y28.2822
N1455    G01 X30.4471Y28.3170
N1456    G01 X30.3487Y28.3416
N1457    G01 X30.2485Y28.3564
N1458    G01 X30.1462Y28.3615
N1459    G01 X30.0438Y28.3564
N1460    G01 X29.9436Y28.3416
N1461    G01 X29.8453Y28.3170
N1462    G01 X29.7482Y28.2822
N1463    G01 X29.6564Y28.2388
N1464    G01 X29.5687Y28.1862
N1465    G01 X29.4874Y28.1259
N1466    G01 X29.4115Y28.0572
N1467    G01 X29.3427Y27.9813
N1468    G01 X29.2824Y27.9000
N1469    G01 X29.2299Y27.8123
N1470    G01 X29.1864Y27.7205
N1471    G01 X29.1517Y27.6234
N1472    G01 X29.1271Y27.5251
N1473    G01 X29.1122Y27.4249
N1474    G01 X29.1072Y27.3225
N1475    G01 X29.1122Y27.2201
N1476    G01 X29.1271Y27.1199
N1477    G01 X29.1517Y27.0216
N1478    G01 X29.1864Y26.9245
N1479    G01 X29.2299Y26.8327
N1480    G01 X29.2824Y26.7450
N1481    G01 X29.3427Y26.6637
N1482    G01 X29.4115Y26.5878
N1483    G01 X29.4874Y26.5191
N1484    G01 X29.5687Y26.4588
N1485    G01 X29.6564Y26.4062
N1486    G01 X29.7482Y26.3628
N1487    G01 X29.8453Y26.3280
N1488    G01 X29.9436Y26.3034
N1489    G01 X30.0438Y26.2886
N1490    G01 X30.1462Y26.2835
N1491    G01 X30.2485Y26.2886
N1492    G01 X30.3487Y26.3034
N1493    G01 X30.4471Y26.3280
N1494    G01 X30.5442Y26.3628
N1495    G01 X30.6360Y26.4062
N1496    G01 X30.7236Y26.4588
N1497    G01 X30.8050Y26.5191
N1498    G01 X30.8809Y26.5878
N1499    G01 X30.9496Y26.6637
N1500    G01 X31.0099Y26.7450
N1501    G01 X31.0625Y26.8327
N1502    G01 X31.1059Y26.9245
N1503    G01 X31.1407Y27.0216
N1504    G01 X31.1652Y27.1199
N1505    G01 X31.1801Y27.2201
N1506    G01 X31.1850Y27.3151
N1507    G01 X31.1850Y27.3299
N1508    G00 Z2.0000
N1509    G00 X13.1512Y26.5375
N1510    G01 Z-0.0700
N1511    G01 X13.1512Y26.1939
N1512    G01 X13.2775Y26.2905
N1513    G01 X13.4018Y26.4132
N1514    G01 X13.4954Y26.5375
N1515    G01 X13.1512Y26.5375
N1516    G00 Z2.0000
N1517    G00 X13.1512Y28.4511
N1518    G01 Z-0.0700
N1519    G01 X13.1512Y28.1075
N1520    G01 X13.4954Y28.1075
N1521    G01 X13.4018Y28.2318
N1522    G01 X13.2775Y28.3545
N1523    G01 X13.1512Y28.4511
N1524    G00 Z2.0000
N1525    G00 X11.2376Y28.1075
N1526    G01 Z-0.0700
N1527    G01 X11.5812Y28.1075
N1528    G01 X11.5812Y28.4511
N1529    G01 X11.4568Y28.3561
N1530    G01 X11.3326Y28.2319
N1531    G01 X11.2376Y28.1075
N1532    G00 Z2.0000
N1533    G00 X11.2376Y26.5375
N1534    G01 Z-0.0700
N1535    G01 X11.3326Y26.4131
N1536    G01 X11.4568Y26.2889
N1537    G01 X11.5812Y26.1939
N1538    G01 X11.5812Y26.5375
N1539    G01 X11.2376Y26.5375
N1540    G00 Z2.0000
N1541    G00 X8.5521Y22.8734
N1542    G01 Z-0.0700
N1543    G01 X13.3146Y18.1109
N1544    G01 X13.3480Y18.0807
N1545    G01 X13.3775Y18.0586
N1546    G01 X13.3897Y18.0504
N1547    G01 X13.4284Y18.0281
N1548    G01 X13.4617Y18.0125
N1549    G01 X13.4972Y17.9996
N1550    G01 X13.5113Y17.9953
N1551    G01 X13.5476Y17.9864
N1552    G01 X13.5843Y17.9808
N1553    G01 X13.6288Y17.9779
N1554    G01 X14.8053Y17.9777
N1555    G01 X14.8115Y17.9662
N1556    G01 X14.8531Y17.8968
N1557    G01 X14.8613Y17.8845
N1558    G01 X14.9138Y17.8140
N1559    G01 X14.9733Y17.7480
N1560    G01 X14.9837Y17.7376
N1561    G01 X15.0497Y17.6782
N1562    G01 X15.1202Y17.6256
N1563    G01 X15.1324Y17.6175
N1564    G01 X15.2083Y17.5722
N1565    G01 X15.2881Y17.5342
N1566    G01 X15.3017Y17.5286
N1567    G01 X15.3857Y17.4988
N1568    G01 X15.4780Y17.4757
N1569    G01 X15.5653Y17.4626
N1570    G01 X15.5799Y17.4612
N1571    G01 X15.6682Y17.4570
N1572    G01 X17.3192Y17.4570
N1573    G01 X17.4153Y17.4617
N1574    G01 X17.5022Y17.4745
N1575    G01 X17.5167Y17.4774
N1576    G01 X17.6016Y17.4988
N1577    G01 X17.6929Y17.5314
N1578    G01 X17.7791Y17.5722
N1579    G01 X17.8549Y17.6175
N1580    G01 X17.8672Y17.6256
N1581    G01 X17.9322Y17.6739
N1582    G01 X17.9436Y17.6832
N1583    G01 X18.0090Y17.7427
N1584    G01 X18.0684Y17.8081
N1585    G01 X18.0778Y17.8195
N1586    G01 X18.1301Y17.8903
N1587    G01 X18.1759Y17.9662
N1588    G01 X18.1820Y17.9777
N1589    G01 X18.8964Y17.9777
N1590    G01 X18.8966Y17.1551
N1591    G01 X18.8986Y17.1174
N1592    G01 X18.9051Y17.0739
N1593    G01 X18.9157Y17.0312
N1594    G01 X18.9312Y16.9881
N1595    G01 X18.9501Y16.9481
N1596    G01 X18.9732Y16.9096
N1597    G01 X18.9993Y16.8743
N1598    G01 X19.0245Y16.8462
N1599    G01 X19.5314Y16.3391
N1600    G01 X19.5314Y14.6788
N1601    G01 X19.2145Y14.3616
N1602    G01 X19.2052Y14.3503
N1603    G01 X19.1971Y14.3381
N1604    G01 X19.1902Y14.3252
N1605    G01 X19.1846Y14.3117
N1606    G01 X19.1803Y14.2976
N1607    G01 X19.1774Y14.2833
N1608    G01 X19.1758Y14.2610
N1609    G01 X19.1758Y13.7140
N1610    G01 X19.1774Y13.6917
N1611    G01 X19.1803Y13.6774
N1612    G01 X19.1846Y13.6633
N1613    G01 X19.1902Y13.6498
N1614    G01 X19.1971Y13.6369
N1615    G01 X19.2052Y13.6247
N1616    G01 X19.2197Y13.6079
N1617    G01 X19.6120Y13.2158
N1618    G01 X19.6234Y13.2066
N1619    G01 X19.6356Y13.1984
N1620    G01 X19.6485Y13.1915
N1621    G01 X19.6620Y13.1859
N1622    G01 X19.6760Y13.1816
N1623    G01 X19.6904Y13.1788
N1624    G01 X19.7126Y13.1771
N1625    G01 X20.2597Y13.1771
N1626    G01 X20.2819Y13.1788
N1627    G01 X20.2963Y13.1816
N1628    G01 X20.3103Y13.1859
N1629    G01 X20.3239Y13.1915
N1630    G01 X20.3368Y13.1984
N1631    G01 X20.3490Y13.2066
N1632    G01 X20.3658Y13.2210
N1633    G01 X20.7526Y13.6079
N1634    G01 X20.7671Y13.6247
N1635    G01 X20.7753Y13.6369
N1636    G01 X20.7822Y13.6498
N1637    G01 X20.7878Y13.6633
N1638    G01 X20.7920Y13.6774
N1639    G01 X20.7949Y13.6917
N1640    G01 X20.7964Y13.7063
N1641    G01 X20.7966Y14.2610
N1642    G01 X20.7949Y14.2833
N1643    G01 X20.7920Y14.2976
N1644    G01 X20.7878Y14.3117
N1645    G01 X20.7822Y14.3252
N1646    G01 X20.7753Y14.3381
N1647    G01 X20.7671Y14.3503
N1648    G01 X20.7578Y14.3616
N1649    G01 X20.4410Y14.6788
N1650    G01 X20.4410Y16.5275
N1651    G01 X20.4393Y16.5647
N1652    G01 X20.4379Y16.5794
N1653    G01 X20.4323Y16.6161
N1654    G01 X20.4234Y16.6524
N1655    G01 X20.4191Y16.6665
N1656    G01 X20.4062Y16.7019
N1657    G01 X20.3873Y16.7419
N1658    G01 X20.3642Y16.7804
N1659    G01 X20.3423Y16.8102
N1660    G01 X20.3329Y16.8216
N1661    G01 X20.3078Y16.8491
N1662    G01 X19.8060Y17.3509
N1663    G01 X19.8060Y17.4824
N1664    G01 X20.4434Y17.4824
N1665    G01 X20.4656Y17.4841
N1666    G01 X20.4800Y17.4869
N1667    G01 X20.4941Y17.4912
N1668    G01 X20.5076Y17.4969
N1669    G01 X20.5206Y17.5038
N1670    G01 X20.5328Y17.5120
N1671    G01 X20.5441Y17.5213
N1672    G01 X20.5545Y17.5317
N1673    G01 X20.5638Y17.5430
N1674    G01 X20.5720Y17.5552
N1675    G01 X20.5789Y17.5681
N1676    G01 X20.5846Y17.5817
N1677    G01 X20.5888Y17.5958
N1678    G01 X20.5917Y17.6101
N1679    G01 X20.5934Y17.6324
N1680    G01 X20.5934Y19.2326
N1681    G01 X20.5917Y19.2549
N1682    G01 X20.5888Y19.2692
N1683    G01 X20.5846Y19.2833
N1684    G01 X20.5789Y19.2969
N1685    G01 X20.5720Y19.3098
N1686    G01 X20.5638Y19.3220
N1687    G01 X20.5545Y19.3333
N1688    G01 X20.5441Y19.3437
N1689    G01 X20.5328Y19.3530
N1690    G01 X20.5206Y19.3612
N1691    G01 X20.5076Y19.3681
N1692    G01 X20.4941Y19.3738
N1693    G01 X20.4800Y19.3781
N1694    G01 X20.4656Y19.3809
N1695    G01 X20.4510Y19.3824
N1696    G01 X19.2750Y19.3826
N1697    G01 X19.2527Y19.3809
N1698    G01 X19.2383Y19.3781
N1699    G01 X19.2243Y19.3738
N1700    G01 X19.2107Y19.3681
N1701    G01 X19.1978Y19.3612
N1702    G01 X19.1856Y19.3530
N1703    G01 X19.1742Y19.3437
N1704    G01 X19.1639Y19.3333
N1705    G01 X19.1545Y19.3220
N1706    G01 X19.1464Y19.3098
N1707    G01 X19.1394Y19.2969
N1708    G01 X19.1338Y19.2833
N1709    G01 X19.1295Y19.2692
N1710    G01 X19.1266Y19.2549
N1711    G01 X19.1250Y19.2326
N1712    G01 X19.1250Y18.8873
N1713    G01 X18.1820Y18.8873
N1714    G01 X18.1759Y18.8988
N1715    G01 X18.1301Y18.9747
N1716    G01 X18.0735Y19.0510
N1717    G01 X18.0090Y19.1223
N1718    G01 X17.9436Y19.1818
N1719    G01 X17.9322Y19.1911
N1720    G01 X17.8614Y19.2435
N1721    G01 X17.7854Y19.2892
N1722    G01 X17.7725Y19.2961
N1723    G01 X17.6992Y19.3308
N1724    G01 X17.6856Y19.3364
N1725    G01 X17.6016Y19.3662
N1726    G01 X17.5093Y19.3893
N1727    G01 X17.4153Y19.4033
N1728    G01 X17.3192Y19.4080
N1729    G01 X15.6682Y19.4080
N1730    G01 X15.5799Y19.4038
N1731    G01 X15.5653Y19.4024
N1732    G01 X15.4780Y19.3893
N1733    G01 X15.3921Y19.3680
N1734    G01 X15.3780Y19.3637
N1735    G01 X15.2945Y19.3336
N1736    G01 X15.2149Y19.2961
N1737    G01 X15.2019Y19.2892
N1738    G01 X15.1260Y19.2435
N1739    G01 X15.0551Y19.1911
N1740    G01 X15.0438Y19.1818
N1741    G01 X14.9784Y19.1223
N1742    G01 X14.9189Y19.0569
N1743    G01 X14.9096Y19.0455
N1744    G01 X14.8572Y18.9747
N1745    G01 X14.8115Y18.8988
N1746    G01 X14.8053Y18.8873
N1747    G01 X13.8246Y18.8873
N1748    G01 X9.3285Y23.3834
N1749    G01 X9.3285Y30.6266
N1750    G01 X10.6496Y31.9477
N1751    G01 X11.4331Y31.9477
N1752    G01 X11.4499Y31.9127
N1753    G01 X11.5024Y31.8250
N1754    G01 X11.5585Y31.7492
N1755    G01 X11.5678Y31.7378
N1756    G01 X11.6315Y31.6678
N1757    G01 X11.7015Y31.6042
N1758    G01 X11.7128Y31.5948
N1759    G01 X11.7887Y31.5388
N1760    G01 X11.8764Y31.4862
N1761    G01 X11.9618Y31.4456
N1762    G01 X11.9754Y31.4399
N1763    G01 X12.0653Y31.4080
N1764    G01 X12.1563Y31.3851
N1765    G01 X12.1707Y31.3822
N1766    G01 X12.2570Y31.3694
N1767    G01 X12.2717Y31.3680
N1768    G01 X12.3662Y31.3635
N1769    G01 X12.4685Y31.3686
N1770    G01 X12.5687Y31.3834
N1771    G01 X12.6671Y31.4080
N1772    G01 X12.7642Y31.4428
N1773    G01 X12.8560Y31.4862
N1774    G01 X12.9436Y31.5388
N1775    G01 X13.0250Y31.5991
N1776    G01 X13.1009Y31.6678
N1777    G01 X13.1645Y31.7378
N1778    G01 X13.1739Y31.7492
N1779    G01 X13.2299Y31.8250
N1780    G01 X13.2789Y31.9063
N1781    G01 X13.2858Y31.9193
N1782    G01 X13.3259Y32.0045
N1783    G01 X13.3581Y32.0939
N1784    G01 X13.3624Y32.1080
N1785    G01 X13.3852Y32.1999
N1786    G01 X13.3993Y32.2934
N1787    G01 X13.4007Y32.3080
N1788    G01 X13.4052Y32.4025
N1789    G01 X13.4007Y32.4970
N1790    G01 X13.3993Y32.5116
N1791    G01 X13.3852Y32.6051
N1792    G01 X13.3624Y32.6970
N1793    G01 X13.3581Y32.7111
N1794    G01 X13.3259Y32.8005
N1795    G01 X13.2858Y32.8857
N1796    G01 X13.2789Y32.8987
N1797    G01 X13.2299Y32.9800
N1798    G01 X13.1739Y33.0558
N1799    G01 X13.1645Y33.0672
N1800    G01 X13.1009Y33.1372
N1801    G01 X13.0309Y33.2008
N1802    G01 X13.0195Y33.2102
N1803    G01 X12.9436Y33.2662
N1804    G01 X12.8624Y33.3152
N1805    G01 X12.8494Y33.3221
N1806    G01 X12.7642Y33.3622
N1807    G01 X12.6671Y33.3970
N1808    G01 X12.5687Y33.4216
N1809    G01 X12.4685Y33.4364
N1810    G01 X12.3662Y33.4415
N1811    G01 X12.2638Y33.4364
N1812    G01 X12.1636Y33.4216
N1813    G01 X12.0653Y33.3970
N1814    G01 X11.9754Y33.3651
N1815    G01 X11.9618Y33.3594
N1816    G01 X11.8764Y33.3188
N1817    G01 X11.7887Y33.2662
N1818    G01 X11.7074Y33.2059
N1819    G01 X11.6368Y33.1423
N1820    G01 X11.6264Y33.1319
N1821    G01 X11.5627Y33.0613
N1822    G01 X11.5065Y32.9858
N1823    G01 X11.4983Y32.9735
N1824    G01 X11.4535Y32.8987
N1825    G01 X11.4331Y32.8573
N1826    G01 X10.4538Y32.8571
N1827    G01 X10.4093Y32.8542
N1828    G01 X10.3726Y32.8486
N1829    G01 X10.3363Y32.8397
N1830    G01 X10.3222Y32.8354
N1831    G01 X10.2867Y32.8225
N1832    G01 X10.2468Y32.8036
N1833    G01 X10.2147Y32.7846
N1834    G01 X10.2025Y32.7764
N1835    G01 X10.1730Y32.7543
N1836    G01 X10.1411Y32.7256
N1837    G01 X8.5521Y31.1366
N1838    G01 X8.5218Y31.1032
N1839    G01 X8.4957Y31.0679
N1840    G01 X8.4726Y31.0294
N1841    G01 X8.4537Y30.9894
N1842    G01 X8.4382Y30.9463
N1843    G01 X8.4276Y30.9036
N1844    G01 X8.4211Y30.8601
N1845    G01 X8.4189Y30.8150
N1846    G01 X8.4189Y23.1919
N1847    G01 X8.4211Y23.1499
N1848    G01 X8.4276Y23.1064
N1849    G01 X8.4382Y23.0637
N1850    G01 X8.4537Y23.0206
N1851    G01 X8.4726Y22.9806
N1852    G01 X8.4957Y22.9421
N1853    G01 X8.5218Y22.9068
N1854    G01 X8.5521Y22.8734
N1855    G00 Z2.0000
N1856    G00 X0.8700Y53.3651
N1857    G01 Z-0.0700
N1858    G01 X0.8700Y8.2649
N1859    G01 X0.8732Y8.1961
N1860    G01 X0.8746Y8.1816
N1861    G01 X0.8846Y8.1144
N1862    G01 X0.9031Y8.0393
N1863    G01 X0.9285Y7.9674
N1864    G01 X0.9574Y7.9051
N1865    G01 X0.9642Y7.8923
N1866    G01 X0.9999Y7.8324
N1867    G01 X1.0400Y7.7773
N1868    G01 X1.0491Y7.7660
N1869    G01 X1.0901Y7.7200
N1870    G01 X1.1003Y7.7096
N1871    G01 X1.1510Y7.6630
N1872    G01 X1.2059Y7.6212
N1873    G01 X1.2179Y7.6130
N1874    G01 X1.2764Y7.5772
N1875    G01 X1.3454Y7.5435
N1876    G01 X1.4174Y7.5167
N1877    G01 X1.4892Y7.4976
N1878    G01 X1.5653Y7.4850
N1879    G01 X1.6408Y7.4800
N1880    G01 X1.7178Y7.4824
N1881    G01 X1.7930Y7.4921
N1882    G01 X1.8666Y7.5089
N1883    G01 X1.9408Y7.5338
N1884    G01 X2.0078Y7.5637
N1885    G01 X2.0690Y7.5981
N1886    G01 X2.0813Y7.6059
N1887    G01 X2.1383Y7.6463
N1888    G01 X2.1899Y7.6905
N1889    G01 X2.2005Y7.7005
N1890    G01 X2.2468Y7.7491
N1891    G01 X2.5070Y8.0491
N1892    G01 X3.4424Y8.6509
N1893    G01 X4.5083Y8.9632
N1894    G01 X5.6193Y8.9632
N1895    G01 X6.6877Y8.6507
N1896    G01 X7.6223Y8.0495
N1897    G01 X8.3486Y7.2091
N1898    G01 X8.8113Y6.1972
N1899    G01 X8.9696Y5.0975
N1900    G01 X8.8113Y3.9978
N1901    G01 X8.3488Y2.9862
N1902    G01 X7.6528Y2.1823
N1903    G01 X7.6092Y2.1269
N1904    G01 X7.6006Y2.1147
N1905    G01 X7.5633Y2.0555
N1906    G01 X7.5280Y1.9852
N1907    G01 X7.5002Y1.9125
N1908    G01 X7.4815Y1.8447
N1909    G01 X7.4783Y1.8302
N1910    G01 X7.4678Y1.7680
N1911    G01 X7.4660Y1.7532
N1912    G01 X7.4614Y1.6832
N1913    G01 X7.4635Y1.6124
N1914    G01 X7.4647Y1.5976
N1915    G01 X7.4738Y1.5290
N1916    G01 X7.4921Y1.4508
N1917    G01 X7.5165Y1.3794
N1918    G01 X7.5496Y1.3067
N1919    G01 X7.5886Y1.2400
N1920    G01 X7.6299Y1.1827
N1921    G01 X7.6392Y1.1711
N1922    G01 X7.6811Y1.1240
N1923    G01 X7.6915Y1.1133
N1924    G01 X7.7429Y1.0661
N1925    G01 X7.8070Y1.0179
N1926    G01 X7.8713Y0.9789
N1927    G01 X7.9358Y0.9477
N1928    G01 X7.9495Y0.9419
N1929    G01 X8.0161Y0.9180
N1930    G01 X8.0910Y0.8990
N1931    G01 X8.1681Y0.8874
N1932    G01 X8.2463Y0.8835
N1933    G01 X28.9427Y0.8835
N1934    G01 X29.0171Y0.8873
N1935    G01 X29.0927Y0.8986
N1936    G01 X29.1668Y0.9171
N1937    G01 X29.2332Y0.9406
N1938    G01 X29.2468Y0.9462
N1939    G01 X29.3098Y0.9762
N1940    G01 X29.3696Y1.0119
N1941    G01 X29.3818Y1.0200
N1942    G01 X29.4373Y1.0614
N1943    G01 X29.4894Y1.1083
N1944    G01 X29.4998Y1.1188
N1945    G01 X29.5417Y1.1649
N1946    G01 X29.5510Y1.1763
N1947    G01 X29.5922Y1.2322
N1948    G01 X29.6320Y1.2984
N1949    G01 X29.6648Y1.3677
N1950    G01 X29.6911Y1.4413
N1951    G01 X29.7096Y1.5155
N1952    G01 X29.7208Y1.5910
N1953    G01 X29.7247Y1.6685
N1954    G01 X29.7214Y1.7381
N1955    G01 X29.7171Y1.7725
N1956    G01 X30.4244Y1.7725
N1957    G01 X30.4435Y1.7615
N1958    G01 X30.4570Y1.7559
N1959    G01 X30.4710Y1.7516
N1960    G01 X30.4854Y1.7488
N1961    G01 X30.5076Y1.7471
N1962    G01 X31.0624Y1.7473
N1963    G01 X31.0769Y1.7488
N1964    G01 X31.0913Y1.7516
N1965    G01 X31.1053Y1.7559
N1966    G01 X31.1189Y1.7615
N1967    G01 X31.1379Y1.7725
N1968    G01 X31.8453Y1.7725
N1969    G01 X31.8409Y1.7381
N1970    G01 X31.8377Y1.6685
N1971    G01 X31.8409Y1.5989
N1972    G01 X31.8424Y1.5842
N1973    G01 X31.8527Y1.5155
N1974    G01 X31.8695Y1.4477
N1975    G01 X31.8738Y1.4336
N1976    G01 X31.8948Y1.3750
N1977    G01 X31.9004Y1.3614
N1978    G01 X31.9304Y1.2984
N1979    G01 X31.9660Y1.2386
N1980    G01 X31.9742Y1.2264
N1981    G01 X32.0156Y1.1708
N1982    G01 X32.0625Y1.1188
N1983    G01 X32.0729Y1.1083
N1984    G01 X32.1250Y1.0614
N1985    G01 X32.1863Y1.0159
N1986    G01 X32.2526Y0.9762
N1987    G01 X32.3155Y0.9462
N1988    G01 X32.3291Y0.9406
N1989    G01 X32.3955Y0.9171
N1990    G01 X32.4624Y0.9002
N1991    G01 X32.4768Y0.8973
N1992    G01 X32.5384Y0.8882
N1993    G01 X32.5531Y0.8867
N1994    G01 X32.6227Y0.8835
N1995    G01 X33.0646Y0.8835
N1996    G01 X33.1354Y0.8868
N1997    G01 X33.1503Y0.8883
N1998    G01 X33.2205Y0.8991
N1999    G01 X33.2889Y0.9164
N2000    G01 X33.3032Y0.9208
N2001    G01 X33.3700Y0.9453
N2002    G01 X33.4403Y0.9792
N2003    G01 X33.5008Y1.0160
N2004    G01 X33.5131Y1.0244
N2005    G01 X33.5696Y1.0675
N2006    G01 X33.6270Y1.1208
N2007    G01 X33.6738Y1.1736
N2008    G01 X33.6831Y1.1853
N2009    G01 X33.7244Y1.2432
N2010    G01 X33.7628Y1.3097
N2011    G01 X33.7927Y1.3753
N2012    G01 X33.7981Y1.3892
N2013    G01 X33.8204Y1.4564
N2014    G01 X33.8363Y1.5255
N2015    G01 X33.8389Y1.5402
N2016    G01 X33.8474Y1.6096
N2017    G01 X33.8494Y1.6813
N2018    G01 X33.8490Y1.6963
N2019    G01 X33.8435Y1.7661
N2020    G01 X33.8295Y1.8450
N2021    G01 X33.8084Y1.9197
N2022    G01 X33.7799Y1.9919
N2023    G01 X33.7459Y2.0585
N2024    G01 X33.7120Y2.1171
N2025    G01 X33.5779Y2.6156
N2026    G01 X33.5779Y3.1344
N2027    G01 X33.7123Y3.6339
N2028    G01 X33.9711Y4.0837
N2029    G01 X34.0066Y4.1532
N2030    G01 X34.0349Y4.2254
N2031    G01 X34.0563Y4.3018
N2032    G01 X34.0697Y4.3787
N2033    G01 X34.0751Y4.4490
N2034    G01 X34.0755Y4.4639
N2035    G01 X34.0738Y4.5272
N2036    G01 X34.0727Y4.5421
N2037    G01 X34.0637Y4.6117
N2038    G01 X34.0462Y4.6883
N2039    G01 X34.0210Y4.7631
N2040    G01 X33.9922Y4.8271
N2041    G01 X33.9854Y4.8404
N2042    G01 X33.9537Y4.8952
N2043    G01 X33.9456Y4.9077
N2044    G01 X33.9036Y4.9657
N2045    G01 X33.8526Y5.0234
N2046    G01 X33.7945Y5.0772
N2047    G01 X33.7387Y5.1196
N2048    G01 X33.7264Y5.1280
N2049    G01 X33.6724Y5.1610
N2050    G01 X33.6592Y5.1681
N2051    G01 X33.5957Y5.1985
N2052    G01 X33.5215Y5.2255
N2053    G01 X33.4464Y5.2446
N2054    G01 X33.3762Y5.2554
N2055    G01 X33.3614Y5.2569
N2056    G01 X33.2907Y5.2602
N2057    G01 X31.5909Y5.2602
N2058    G01 X31.5244Y5.2570
N2059    G01 X31.5097Y5.2555
N2060    G01 X31.4410Y5.2451
N2061    G01 X31.3732Y5.2284
N2062    G01 X31.3591Y5.2241
N2063    G01 X31.2932Y5.2003
N2064    G01 X31.2305Y5.1708
N2065    G01 X31.2175Y5.1639
N2066    G01 X31.1641Y5.1318
N2067    G01 X31.1518Y5.1237
N2068    G01 X31.0963Y5.0823
N2069    G01 X31.0389Y5.0303
N2070    G01 X30.9869Y4.9729
N2071    G01 X30.9414Y4.9115
N2072    G01 X30.9017Y4.8453
N2073    G01 X30.8689Y4.7760
N2074    G01 X30.8426Y4.7024
N2075    G01 X30.8257Y4.6355
N2076    G01 X30.8228Y4.6211
N2077    G01 X30.8137Y4.5595
N2078    G01 X30.8122Y4.5448
N2079    G01 X30.8090Y4.4752
N2080    G01 X30.8122Y4.4056
N2081    G01 X30.8137Y4.3909
N2082    G01 X30.8240Y4.3222
N2083    G01 X30.8408Y4.2544
N2084    G01 X30.8451Y4.2403
N2085    G01 X30.8689Y4.1744
N2086    G01 X30.8984Y4.1117
N2087    G01 X30.9053Y4.0987
N2088    G01 X30.9414Y4.0389
N2089    G01 X30.9826Y3.9830
N2090    G01 X30.9920Y3.9716
N2091    G01 X31.0389Y3.9201
N2092    G01 X31.6165Y3.3425
N2093    G01 X31.1379Y3.3425
N2094    G01 X31.1189Y3.3535
N2095    G01 X31.1053Y3.3591
N2096    G01 X31.0913Y3.3634
N2097    G01 X31.0769Y3.3662
N2098    G01 X31.0547Y3.3679
N2099    G01 X30.5076Y3.3679
N2100    G01 X30.4854Y3.3662
N2101    G01 X30.4710Y3.3634
N2102    G01 X30.4570Y3.3591
N2103    G01 X30.4435Y3.3535
N2104    G01 X30.4244Y3.3425
N2105    G01 X29.9458Y3.3425
N2106    G01 X30.5235Y3.9201
N2107    G01 X30.5704Y3.9716
N2108    G01 X30.5797Y3.9830
N2109    G01 X30.6209Y4.0389
N2110    G01 X30.6571Y4.0987
N2111    G01 X30.6640Y4.1117
N2112    G01 X30.6935Y4.1744
N2113    G01 X30.7198Y4.2480
N2114    G01 X30.7367Y4.3149
N2115    G01 X30.7396Y4.3293
N2116    G01 X30.7487Y4.3909
N2117    G01 X30.7501Y4.4056
N2118    G01 X30.7534Y4.4752
N2119    G01 X30.7495Y4.5527
N2120    G01 X30.7383Y4.6282
N2121    G01 X30.7198Y4.7024
N2122    G01 X30.6935Y4.7760
N2123    G01 X30.6607Y4.8453
N2124    G01 X30.6209Y4.9115
N2125    G01 X30.5755Y4.9729
N2126    G01 X30.5235Y5.0303
N2127    G01 X30.4660Y5.0823
N2128    G01 X30.4047Y5.1278
N2129    G01 X30.3385Y5.1675
N2130    G01 X30.2692Y5.2003
N2131    G01 X30.1955Y5.2266
N2132    G01 X30.1214Y5.2451
N2133    G01 X30.0458Y5.2564
N2134    G01 X29.9684Y5.2602
N2135    G01 X18.5692Y5.2600
N2136    G01 X18.4993Y5.2564
N2137    G01 X18.4315Y5.2466
N2138    G01 X18.4172Y5.2437
N2139    G01 X18.3505Y5.2270
N2140    G01 X18.2847Y5.2038
N2141    G01 X18.2712Y5.1983
N2142    G01 X18.2152Y5.1719
N2143    G01 X18.2023Y5.1651
N2144    G01 X18.1425Y5.1293
N2145    G01 X18.0810Y5.0841
N2146    G01 X18.0242Y5.0331
N2147    G01 X17.8817Y4.8920
N2148    G01 X17.5154Y4.7395
N2149    G01 X15.4720Y4.7395
N2150    G01 X15.1075Y4.8912
N2151    G01 X14.8279Y5.1709
N2152    G01 X14.6777Y5.5350
N2153    G01 X14.6777Y5.9300
N2154    G01 X14.8421Y6.3286
N2155    G01 X14.8647Y6.3613
N2156    G01 X14.8984Y6.4208
N2157    G01 X14.9049Y6.4337
N2158    G01 X14.9296Y6.4895
N2159    G01 X14.9348Y6.5030
N2160    G01 X14.9561Y6.5678
N2161    G01 X14.9728Y6.6410
N2162    G01 X14.9826Y6.7173
N2163    G01 X14.9850Y6.7908
N2164    G01 X14.9801Y6.8672
N2165    G01 X14.9694Y6.9343
N2166    G01 X14.9664Y6.9484
N2167    G01 X14.9487Y7.0150
N2168    G01 X14.9255Y7.0785
N2169    G01 X14.9199Y7.0918
N2170    G01 X14.8898Y7.1537
N2171    G01 X14.8509Y7.2178
N2172    G01 X14.8059Y7.2782
N2173    G01 X14.7582Y7.3309
N2174    G01 X14.6823Y7.4069
N2175    G01 X14.6204Y7.4875
N2176    G01 X15.0907Y7.4875
N2177    G01 X15.1260Y7.4615
N2178    G01 X15.2083Y7.4122
N2179    G01 X15.2945Y7.3714
N2180    G01 X15.3780Y7.3413
N2181    G01 X15.3921Y7.3370
N2182    G01 X15.4707Y7.3174
N2183    G01 X15.4851Y7.3145
N2184    G01 X15.5720Y7.3017
N2185    G01 X15.6682Y7.2970
N2186    G01 X17.3192Y7.2970
N2187    G01 X17.4075Y7.3012
N2188    G01 X17.4221Y7.3026
N2189    G01 X17.5022Y7.3145
N2190    G01 X17.5167Y7.3174
N2191    G01 X17.6016Y7.3388
N2192    G01 X17.6856Y7.3686
N2193    G01 X17.6992Y7.3742
N2194    G01 X17.7791Y7.4122
N2195    G01 X17.8614Y7.4615
N2196    G01 X17.8966Y7.4875
N2197    G01 X18.3676Y7.4875
N2198    G01 X18.3470Y7.4603
N2199    G01 X18.3078Y7.4030
N2200    G01 X18.2713Y7.3372
N2201    G01 X18.2406Y7.2664
N2202    G01 X18.2195Y7.2017
N2203    G01 X18.2158Y7.1877
N2204    G01 X18.2012Y7.1206
N2205    G01 X18.1929Y7.0527
N2206    G01 X18.1919Y7.0382
N2207    G01 X18.1905Y6.9769
N2208    G01 X18.1909Y6.9625
N2209    G01 X18.1960Y6.8953
N2210    G01 X18.2090Y6.8193
N2211    G01 X18.2290Y6.7464
N2212    G01 X18.2532Y6.6822
N2213    G01 X18.2590Y6.6690
N2214    G01 X18.2862Y6.6140
N2215    G01 X18.2932Y6.6014
N2216    G01 X18.3294Y6.5436
N2217    G01 X18.3711Y6.4888
N2218    G01 X18.3805Y6.4777
N2219    G01 X18.4275Y6.4275
N2220    G01 X18.4850Y6.3767
N2221    G01 X18.5447Y6.3334
N2222    G01 X18.6109Y6.2945
N2223    G01 X18.6798Y6.2625
N2224    G01 X18.7441Y6.2398
N2225    G01 X18.7580Y6.2356
N2226    G01 X18.8240Y6.2195
N2227    G01 X18.8924Y6.2093
N2228    G01 X18.9068Y6.2079
N2229    G01 X18.9721Y6.2048
N2230    G01 X20.6339Y6.2048
N2231    G01 X20.7113Y6.2086
N2232    G01 X20.7798Y6.2186
N2233    G01 X20.7942Y6.2215
N2234    G01 X20.8610Y6.2384
N2235    G01 X20.9274Y6.2619
N2236    G01 X20.9410Y6.2675
N2237    G01 X21.0040Y6.2975
N2238    G01 X21.0702Y6.3372
N2239    G01 X21.1261Y6.3785
N2240    G01 X21.1375Y6.3878
N2241    G01 X21.1890Y6.4347
N2242    G01 X21.2359Y6.4862
N2243    G01 X21.2452Y6.4976
N2244    G01 X21.2864Y6.5535
N2245    G01 X21.3262Y6.6197
N2246    G01 X21.3590Y6.6890
N2247    G01 X21.3828Y6.7549
N2248    G01 X21.3870Y6.7690
N2249    G01 X21.4038Y6.8368
N2250    G01 X21.4150Y6.9123
N2251    G01 X21.4189Y6.9898
N2252    G01 X21.4189Y8.5646
N2253    G01 X21.4156Y8.6342
N2254    G01 X21.4142Y8.6489
N2255    G01 X21.4051Y8.7105
N2256    G01 X21.4022Y8.7249
N2257    G01 X21.3853Y8.7918
N2258    G01 X21.3618Y8.8581
N2259    G01 X21.3561Y8.8717
N2260    G01 X21.3262Y8.9347
N2261    G01 X21.2905Y8.9945
N2262    G01 X21.2823Y9.0067
N2263    G01 X21.2410Y9.0623
N2264    G01 X21.1940Y9.1143
N2265    G01 X21.1836Y9.1248
N2266    G01 X21.1375Y9.1666
N2267    G01 X21.1261Y9.1759
N2268    G01 X21.0702Y9.2172
N2269    G01 X21.0040Y9.2569
N2270    G01 X20.9347Y9.2897
N2271    G01 X20.8687Y9.3135
N2272    G01 X20.8547Y9.3178
N2273    G01 X20.7869Y9.3345
N2274    G01 X20.7181Y9.3449
N2275    G01 X20.7035Y9.3464
N2276    G01 X20.6339Y9.3496
N2277    G01 X19.3914Y9.3496
N2278    G01 X19.3160Y9.3457
N2279    G01 X19.2457Y9.3352
N2280    G01 X19.2310Y9.3323
N2281    G01 X19.1694Y9.3165
N2282    G01 X19.1551Y9.3121
N2283    G01 X19.0884Y9.2875
N2284    G01 X19.0244Y9.2568
N2285    G01 X19.0113Y9.2496
N2286    G01 X18.9517Y9.2129
N2287    G01 X18.8875Y9.1641
N2288    G01 X18.8318Y9.1121
N2289    G01 X18.7836Y9.0575
N2290    G01 X17.8966Y9.0575
N2291    G01 X17.8614Y9.0835
N2292    G01 X17.7791Y9.1328
N2293    G01 X17.6929Y9.1736
N2294    G01 X17.6093Y9.2037
N2295    G01 X17.5953Y9.2080
N2296    G01 X17.5167Y9.2276
N2297    G01 X17.5022Y9.2305
N2298    G01 X17.4153Y9.2433
N2299    G01 X17.3192Y9.2480
N2300    G01 X15.6682Y9.2480
N2301    G01 X15.5799Y9.2438
N2302    G01 X15.5653Y9.2424
N2303    G01 X15.4851Y9.2305
N2304    G01 X15.4707Y9.2276
N2305    G01 X15.3857Y9.2062
N2306    G01 X15.3017Y9.1764
N2307    G01 X15.2881Y9.1708
N2308    G01 X15.2083Y9.1328
N2309    G01 X15.1260Y9.0835
N2310    G01 X15.0907Y9.0575
N2311    G01 X14.6198Y9.0575
N2312    G01 X14.6403Y9.0847
N2313    G01 X14.6795Y9.1420
N2314    G01 X14.7131Y9.2022
N2315    G01 X14.7195Y9.2152
N2316    G01 X14.7468Y9.2786
N2317    G01 X14.7678Y9.3433
N2318    G01 X14.7716Y9.3573
N2319    G01 X14.7847Y9.4172
N2320    G01 X14.7871Y9.4315
N2321    G01 X14.7951Y9.4993
N2322    G01 X14.7969Y9.5681
N2323    G01 X14.7965Y9.5825
N2324    G01 X14.7914Y9.6497
N2325    G01 X14.7798Y9.7184
N2326    G01 X14.7767Y9.7326
N2327    G01 X14.7584Y9.7986
N2328    G01 X14.7311Y9.8702
N2329    G01 X14.6977Y9.9376
N2330    G01 X14.6617Y9.9957
N2331    G01 X14.6535Y10.0076
N2332    G01 X14.6121Y10.0614
N2333    G01 X14.5651Y10.1122
N2334    G01 X14.5547Y10.1223
N2335    G01 X14.5024Y10.1683
N2336    G01 X14.4479Y10.2079
N2337    G01 X14.4358Y10.2159
N2338    G01 X14.3765Y10.2505
N2339    G01 X14.3145Y10.2795
N2340    G01 X14.3011Y10.2849
N2341    G01 X14.2368Y10.3074
N2342    G01 X14.1699Y10.3240
N2343    G01 X14.1556Y10.3268
N2344    G01 X14.0873Y10.3366
N2345    G01 X14.0121Y10.3402
N2346    G01 X7.1927Y10.3402
N2347    G01 X7.0191Y10.4117
N2348    G01 X5.9998Y11.4311
N2349    G01 X5.9483Y11.4780
N2350    G01 X5.9369Y11.4873
N2351    G01 X5.8810Y11.5286
N2352    G01 X5.8211Y11.5647
N2353    G01 X5.8082Y11.5716
N2354    G01 X5.7455Y11.6011
N2355    G01 X5.6795Y11.6249
N2356    G01 X5.6655Y11.6292
N2357    G01 X5.5977Y11.6459
N2358    G01 X5.5249Y11.6568
N2359    G01 X5.1733Y11.8028
N2360    G01 X4.9110Y12.0652
N2361    G01 X4.7692Y12.4067
N2362    G01 X4.7692Y14.2983
N2363    G01 X4.9110Y14.6398
N2364    G01 X4.9279Y14.6567
N2365    G01 X5.1733Y14.9022
N2366    G01 X5.5149Y15.0440
N2367    G01 X5.8825Y15.0440
N2368    G01 X6.2359Y14.8972
N2369    G01 X6.2627Y14.8747
N2370    G01 X6.3127Y14.8387
N2371    G01 X6.3250Y14.8308
N2372    G01 X6.3840Y14.7967
N2373    G01 X6.4545Y14.7645
N2374    G01 X6.5261Y14.7399
N2375    G01 X6.6000Y14.7223
N2376    G01 X6.6766Y14.7117
N2377    G01 X6.7521Y14.7088
N2378    G01 X6.8206Y14.7125
N2379    G01 X6.8351Y14.7140
N2380    G01 X6.9024Y14.7246
N2381    G01 X6.9700Y14.7418
N2382    G01 X6.9839Y14.7461
N2383    G01 X7.0490Y14.7699
N2384    G01 X7.1177Y14.8027
N2385    G01 X7.1823Y14.8417
N2386    G01 X7.2432Y14.8869
N2387    G01 X7.2987Y14.9371
N2388    G01 X7.4169Y15.0553
N2389    G01 X7.4537Y15.0837
N2390    G01 X7.4537Y14.5770
N2391    G01 X7.4344Y14.5445
N2392    G01 X7.3963Y14.4639
N2393    G01 X7.3657Y14.3785
N2394    G01 X7.3442Y14.2923
N2395    G01 X7.3320Y14.2112
N2396    G01 X7.3305Y14.1965
N2397    G01 X7.3267Y14.1145
N2398    G01 X7.3267Y12.5905
N2399    G01 X7.3305Y12.5085
N2400    G01 X7.3320Y12.4938
N2401    G01 X7.3442Y12.4127
N2402    G01 X7.3657Y12.3265
N2403    G01 X7.3935Y12.2484
N2404    G01 X7.3991Y12.2348
N2405    G01 X7.4344Y12.1605
N2406    G01 X7.4805Y12.0836
N2407    G01 X7.5334Y12.0123
N2408    G01 X7.5887Y11.9510
N2409    G01 X7.5991Y11.9405
N2410    G01 X7.6605Y11.8852
N2411    G01 X7.7318Y11.8323
N2412    G01 X7.8024Y11.7898
N2413    G01 X7.8153Y11.7829
N2414    G01 X7.8893Y11.7481
N2415    G01 X7.9669Y11.7201
N2416    G01 X7.9810Y11.7158
N2417    G01 X8.0609Y11.6960
N2418    G01 X8.1488Y11.6829
N2419    G01 X8.2387Y11.6785
N2420    G01 X8.3207Y11.6823
N2421    G01 X8.3354Y11.6838
N2422    G01 X8.4093Y11.6948
N2423    G01 X8.4238Y11.6976
N2424    G01 X8.5027Y11.7176
N2425    G01 X8.5881Y11.7481
N2426    G01 X8.6686Y11.7862
N2427    G01 X8.7391Y11.8283
N2428    G01 X8.7514Y11.8364
N2429    G01 X8.8114Y11.8810
N2430    G01 X8.8228Y11.8903
N2431    G01 X8.8836Y11.9456
N2432    G01 X8.9439Y12.0123
N2433    G01 X8.9968Y12.0836
N2434    G01 X9.0394Y12.1542
N2435    G01 X9.0463Y12.1672
N2436    G01 X9.0783Y12.2348
N2437    G01 X9.0839Y12.2484
N2438    G01 X9.1116Y12.3265
N2439    G01 X9.1332Y12.4127
N2440    G01 X9.1462Y12.5006
N2441    G01 X9.1497Y12.5675
N2442    G01 X9.4857Y12.5675
N2443    G01 X9.4857Y12.5110
N2444    G01 X9.4637Y12.3479
N2445    G01 X9.4424Y12.2675
N2446    G01 X9.4289Y12.2043
N2447    G01 X9.4265Y12.1900
N2448    G01 X9.4189Y12.1230
N2449    G01 X9.4174Y12.0538
N2450    G01 X9.4178Y12.0393
N2451    G01 X9.4233Y11.9712
N2452    G01 X9.4363Y11.8971
N2453    G01 X9.4569Y11.8230
N2454    G01 X9.4833Y11.7544
N2455    G01 X9.5174Y11.6859
N2456    G01 X9.5536Y11.6277
N2457    G01 X9.5619Y11.6158
N2458    G01 X9.6045Y11.5608
N2459    G01 X9.6502Y11.5117
N2460    G01 X9.6606Y11.5017
N2461    G01 X9.7120Y11.4566
N2462    G01 X9.7673Y11.4164
N2463    G01 X9.7794Y11.4085
N2464    G01 X9.8378Y11.3745
N2465    G01 X9.9004Y11.3452
N2466    G01 X9.9138Y11.3398
N2467    G01 X9.9793Y11.3171
N2468    G01 X10.0448Y11.3009
N2469    G01 X10.0589Y11.2981
N2470    G01 X10.1270Y11.2884
N2471    G01 X10.2021Y11.2848
N2472    G01 X14.0121Y11.2848
N2473    G01 X14.0873Y11.2884
N2474    G01 X14.1634Y11.2995
N2475    G01 X14.2294Y11.3156
N2476    G01 X14.2433Y11.3198
N2477    G01 X14.3076Y11.3425
N2478    G01 X14.3701Y11.3713
N2479    G01 X14.3829Y11.3781
N2480    G01 X14.4426Y11.4134
N2481    G01 X14.4975Y11.4531
N2482    G01 X14.5088Y11.4621
N2483    G01 X14.5598Y11.5075
N2484    G01 X14.6069Y11.5577
N2485    G01 X14.6162Y11.5688
N2486    G01 X14.6580Y11.6236
N2487    G01 X14.6941Y11.6814
N2488    G01 X14.7012Y11.6940
N2489    G01 X14.7311Y11.7548
N2490    G01 X14.7560Y11.8195
N2491    G01 X14.7605Y11.8333
N2492    G01 X14.7784Y11.8993
N2493    G01 X14.7902Y11.9670
N2494    G01 X14.7920Y11.9813
N2495    G01 X14.7968Y12.0489
N2496    G01 X14.7955Y12.1182
N2497    G01 X14.7944Y12.1327
N2498    G01 X14.7861Y12.2006
N2499    G01 X14.7716Y12.2677
N2500    G01 X14.7678Y12.2817
N2501    G01 X14.7468Y12.3464
N2502    G01 X14.7195Y12.4098
N2503    G01 X14.7131Y12.4228
N2504    G01 X14.6795Y12.4830
N2505    G01 X14.6403Y12.5403
N2506    G01 X14.6198Y12.5675
N2507    G01 X15.0907Y12.5675
N2508    G01 X15.1260Y12.5415
N2509    G01 X15.2083Y12.4922
N2510    G01 X15.2881Y12.4542
N2511    G01 X15.3017Y12.4486
N2512    G01 X15.3857Y12.4188
N2513    G01 X15.4707Y12.3974
N2514    G01 X15.4851Y12.3945
N2515    G01 X15.5653Y12.3826
N2516    G01 X15.5799Y12.3812
N2517    G01 X15.6682Y12.3770
N2518    G01 X17.3192Y12.3770
N2519    G01 X17.4075Y12.3812
N2520    G01 X17.4221Y12.3826
N2521    G01 X17.5093Y12.3957
N2522    G01 X17.5953Y12.4170
N2523    G01 X17.6093Y12.4213
N2524    G01 X17.6929Y12.4514
N2525    G01 X17.7725Y12.4889
N2526    G01 X17.7854Y12.4958
N2527    G01 X17.8614Y12.5415
N2528    G01 X17.9377Y12.5982
N2529    G01 X18.0036Y12.6576
N2530    G01 X18.0140Y12.6680
N2531    G01 X18.0735Y12.7340
N2532    G01 X18.1301Y12.8103
N2533    G01 X18.1795Y12.8926
N2534    G01 X18.2174Y12.9725
N2535    G01 X18.2231Y12.9861
N2536    G01 X18.2504Y13.0623
N2537    G01 X18.2546Y13.0764
N2538    G01 X18.2760Y13.1623
N2539    G01 X18.2891Y13.2496
N2540    G01 X18.2905Y13.2642
N2541    G01 X18.2945Y13.3451
N2542    G01 X18.2945Y13.3599
N2543    G01 X18.2899Y13.4486
N2544    G01 X18.2760Y13.5427
N2545    G01 X18.2529Y13.6350
N2546    G01 X18.2231Y13.7189
N2547    G01 X18.2174Y13.7325
N2548    G01 X18.1795Y13.8124
N2549    G01 X18.1342Y13.8882
N2550    G01 X18.1260Y13.9005
N2551    G01 X18.0735Y13.9710
N2552    G01 X18.0090Y14.0423
N2553    G01 X17.9436Y14.1018
N2554    G01 X17.9322Y14.1111
N2555    G01 X17.8614Y14.1635
N2556    G01 X17.7854Y14.2092
N2557    G01 X17.7725Y14.2161
N2558    G01 X17.6992Y14.2508
N2559    G01 X17.6856Y14.2564
N2560    G01 X17.6016Y14.2862
N2561    G01 X17.5093Y14.3093
N2562    G01 X17.4153Y14.3233
N2563    G01 X17.3265Y14.3278
N2564    G01 X17.2787Y14.3280
N2565    G01 X17.2787Y14.9170
N2566    G01 X17.3265Y14.9172
N2567    G01 X17.4075Y14.9212
N2568    G01 X17.4221Y14.9226
N2569    G01 X17.5093Y14.9357
N2570    G01 X17.6016Y14.9588
N2571    G01 X17.6929Y14.9914
N2572    G01 X17.7725Y15.0289
N2573    G01 X17.7854Y15.0358
N2574    G01 X17.8549Y15.0775
N2575    G01 X17.8672Y15.0856
N2576    G01 X17.9377Y15.1382
N2577    G01 X18.0090Y15.2027
N2578    G01 X18.0735Y15.2740
N2579    G01 X18.1260Y15.3445
N2580    G01 X18.1342Y15.3568
N2581    G01 X18.1759Y15.4262
N2582    G01 X18.1828Y15.4392
N2583    G01 X18.2203Y15.5188
N2584    G01 X18.2529Y15.6100
N2585    G01 X18.2760Y15.7023
N2586    G01 X18.2891Y15.7896
N2587    G01 X18.2905Y15.8042
N2588    G01 X18.2947Y15.8925
N2589    G01 X18.2905Y15.9808
N2590    G01 X18.2891Y15.9954
N2591    G01 X18.2760Y16.0827
N2592    G01 X18.2546Y16.1686
N2593    G01 X18.2504Y16.1827
N2594    G01 X18.2203Y16.2662
N2595    G01 X18.1828Y16.3458
N2596    G01 X18.1759Y16.3588
N2597    G01 X18.1301Y16.4347
N2598    G01 X18.0778Y16.5055
N2599    G01 X18.0684Y16.5169
N2600    G01 X18.0090Y16.5823
N2601    G01 X17.9377Y16.6468
N2602    G01 X17.8614Y16.7035
N2603    G01 X17.7791Y16.7528
N2604    G01 X17.6929Y16.7936
N2605    G01 X17.6016Y16.8262
N2606    G01 X17.5093Y16.8493
N2607    G01 X17.4153Y16.8633
N2608    G01 X17.3222Y16.8680
N2609    G01 X15.6682Y16.8680
N2610    G01 X15.5799Y16.8638
N2611    G01 X15.5653Y16.8624
N2612    G01 X15.4851Y16.8505
N2613    G01 X15.4707Y16.8476
N2614    G01 X15.3857Y16.8262
N2615    G01 X15.3017Y16.7964
N2616    G01 X15.2881Y16.7908
N2617    G01 X15.2083Y16.7528
N2618    G01 X15.1260Y16.7035
N2619    G01 X15.0907Y16.6775
N2620    G01 X14.6198Y16.6775
N2621    G01 X14.6403Y16.7047
N2622    G01 X14.6758Y16.7563
N2623    G01 X14.6834Y16.7686
N2624    G01 X14.7160Y16.8278
N2625    G01 X14.7439Y16.8914
N2626    G01 X14.7490Y16.9050
N2627    G01 X14.7699Y16.9705
N2628    G01 X14.7861Y17.0444
N2629    G01 X14.7951Y17.1193
N2630    G01 X14.7968Y17.1961
N2631    G01 X14.7914Y17.2697
N2632    G01 X14.7784Y17.3457
N2633    G01 X14.7584Y17.4186
N2634    G01 X14.7311Y17.4902
N2635    G01 X14.6977Y17.5576
N2636    G01 X14.6580Y17.6214
N2637    G01 X14.6121Y17.6814
N2638    G01 X14.5651Y17.7322
N2639    G01 X14.5547Y17.7423
N2640    G01 X14.5088Y17.7829
N2641    G01 X14.4975Y17.7919
N2642    G01 X14.4426Y17.8316
N2643    G01 X14.3829Y17.8669
N2644    G01 X14.3701Y17.8737
N2645    G01 X14.3076Y17.9025
N2646    G01 X14.2433Y17.9252
N2647    G01 X14.2294Y17.9294
N2648    G01 X14.1634Y17.9455
N2649    G01 X14.0950Y17.9557
N2650    G01 X14.0806Y17.9571
N2651    G01 X14.0193Y17.9600
N2652    G01 X13.5427Y17.9602
N2653    G01 X13.3691Y18.0317
N2654    G01 X11.8639Y19.5370
N2655    G01 X11.8367Y19.5667
N2656    G01 X11.8070Y19.5939
N2657    G01 X9.3315Y22.0694
N2658    G01 X9.3043Y22.0991
N2659    G01 X9.2746Y22.1263
N2660    G01 X8.4729Y22.9279
N2661    G01 X8.4014Y23.1015
N2662    G01 X8.4014Y30.9085
N2663    G01 X8.4729Y31.0821
N2664    G01 X10.1941Y32.8033
N2665    G01 X10.3677Y32.8748
N2666    G01 X11.0274Y32.8750
N2667    G01 X11.0900Y32.8781
N2668    G01 X11.1047Y32.8795
N2669    G01 X11.1736Y32.8900
N2670    G01 X11.2419Y32.9070
N2671    G01 X11.2561Y32.9113
N2672    G01 X11.3150Y32.9325
N2673    G01 X11.3287Y32.9382
N2674    G01 X11.3921Y32.9686
N2675    G01 X11.4519Y33.0045
N2676    G01 X11.4642Y33.0127
N2677    G01 X11.5203Y33.0549
N2678    G01 X11.5739Y33.1036
N2679    G01 X11.7679Y33.2992
N2680    G01 X12.1558Y33.4590
N2681    G01 X12.5766Y33.4590
N2682    G01 X12.9660Y33.2986
N2683    G01 X13.2622Y33.0023
N2684    G01 X13.4032Y32.6602
N2685    G01 X13.4115Y32.6376
N2686    G01 X13.4227Y32.6129
N2687    G01 X13.4227Y32.1921
N2688    G01 X13.2622Y31.8027
N2689    G01 X12.9660Y31.5064
N2690    G01 X12.5766Y31.3460
N2691    G01 X12.1558Y31.3460
N2692    G01 X11.7679Y31.5058
N2693    G01 X11.5739Y31.7014
N2694    G01 X11.5203Y31.7501
N2695    G01 X11.4642Y31.7923
N2696    G01 X11.4519Y31.8005
N2697    G01 X11.3921Y31.8364
N2698    G01 X11.3287Y31.8668
N2699    G01 X11.3150Y31.8725
N2700    G01 X11.2561Y31.8937
N2701    G01 X11.2419Y31.8980
N2702    G01 X11.1736Y31.9150
N2703    G01 X11.0976Y31.9264
N2704    G01 X11.0200Y31.9302
N2705    G01 X10.9788Y31.9302
N2706    G01 X10.9123Y31.9270
N2707    G01 X10.8976Y31.9255
N2708    G01 X10.8360Y31.9164
N2709    G01 X10.8216Y31.9135
N2710    G01 X10.7547Y31.8966
N2711    G01 X10.6811Y31.8703
N2712    G01 X10.6118Y31.8375
N2713    G01 X10.5455Y31.7978
N2714    G01 X10.4842Y31.7523
N2715    G01 X10.4268Y31.7003
N2716    G01 X9.5708Y30.8440
N2717    G01 X9.5239Y30.7920
N2718    G01 X9.4784Y30.7306
N2719    G01 X9.4387Y30.6644
N2720    G01 X9.4087Y30.6014
N2721    G01 X9.4031Y30.5878
N2722    G01 X9.3796Y30.5215
N2723    G01 X9.3610Y30.4473
N2724    G01 X9.3498Y30.3718
N2725    G01 X9.3460Y30.2943
N2726    G01 X9.3460Y23.7157
N2727    G01 X9.3492Y23.6461
N2728    G01 X9.3507Y23.6314
N2729    G01 X9.3610Y23.5627
N2730    G01 X9.3778Y23.4949
N2731    G01 X9.3821Y23.4808
N2732    G01 X9.4059Y23.4149
N2733    G01 X9.4354Y23.3522
N2734    G01 X9.4423Y23.3392
N2735    G01 X9.4784Y23.2794
N2736    G01 X9.5196Y23.2235
N2737    G01 X9.5290Y23.2121
N2738    G01 X9.5744Y23.1622
N2739    G01 X13.6018Y19.1347
N2740    G01 X13.6533Y19.0878
N2741    G01 X13.6647Y19.0785
N2742    G01 X13.7205Y19.0372
N2743    G01 X13.7804Y19.0011
N2744    G01 X13.7934Y18.9942
N2745    G01 X13.8561Y18.9647
N2746    G01 X13.9297Y18.9384
N2747    G01 X14.0039Y18.9199
N2748    G01 X14.0726Y18.9095
N2749    G01 X14.0873Y18.9080
N2750    G01 X14.1569Y18.9048
N2751    G01 X14.4134Y18.9048
N2752    G01 X14.4830Y18.9080
N2753    G01 X14.4977Y18.9095
N2754    G01 X14.5664Y18.9199
N2755    G01 X14.6342Y18.9366
N2756    G01 X14.6483Y18.9409
N2757    G01 X14.7142Y18.9647
N2758    G01 X14.7769Y18.9942
N2759    G01 X14.7899Y19.0011
N2760    G01 X14.8433Y19.0332
N2761    G01 X14.8556Y19.0413
N2762    G01 X14.9111Y19.0827
N2763    G01 X14.9632Y19.1296
N2764    G01 X15.1075Y19.2738
N2765    G01 X15.4720Y19.4255
N2766    G01 X17.5154Y19.4255
N2767    G01 X17.8798Y19.2738
N2768    G01 X17.9264Y19.2272
N2769    G01 X17.9764Y19.1818
N2770    G01 X17.9878Y19.1724
N2771    G01 X18.0378Y19.1353
N2772    G01 X18.0501Y19.1271
N2773    G01 X18.1099Y19.0915
N2774    G01 X18.1792Y19.0587
N2775    G01 X18.2528Y19.0324
N2776    G01 X18.3270Y19.0138
N2777    G01 X18.4025Y19.0026
N2778    G01 X18.4800Y18.9988
N2779    G01 X18.5496Y19.0020
N2780    G01 X18.5642Y19.0035
N2781    G01 X18.6330Y19.0138
N2782    G01 X18.7007Y19.0306
N2783    G01 X18.7148Y19.0349
N2784    G01 X18.7808Y19.0587
N2785    G01 X18.8500Y19.0915
N2786    G01 X18.9163Y19.1312
N2787    G01 X18.9776Y19.1767
N2788    G01 X19.0335Y19.2272
N2789    G01 X19.1809Y19.3745
N2790    G01 X19.2428Y19.4001
N2791    G01 X22.0021Y19.4001
N2792    G01 X22.0622Y19.3753
N2793    G01 X22.1142Y19.3228
N2794    G01 X22.1490Y19.2637
N2795    G01 X22.1572Y19.2513
N2796    G01 X22.1984Y19.1954
N2797    G01 X22.2454Y19.1426
N2798    G01 X22.2559Y19.1321
N2799    G01 X22.3076Y19.0851
N2800    G01 X22.3700Y19.0384
N2801    G01 X22.4297Y19.0022
N2802    G01 X22.4427Y18.9952
N2803    G01 X22.5060Y18.9653
N2804    G01 X22.5719Y18.9413
N2805    G01 X22.5861Y18.9370
N2806    G01 X22.6544Y18.9200
N2807    G01 X22.7234Y18.9095
N2808    G01 X22.7381Y18.9081
N2809    G01 X22.8081Y18.9048
N2810    G01 X29.9684Y18.9048
N2811    G01 X30.0458Y18.9086
N2812    G01 X30.1214Y18.9199
N2813    G01 X30.1955Y18.9384
N2814    G01 X30.2692Y18.9647
N2815    G01 X30.3385Y18.9975
N2816    G01 X30.4047Y19.0372
N2817    G01 X30.4660Y19.0827
N2818    G01 X30.5235Y19.1347
N2819    G01 X30.5755Y19.1921
N2820    G01 X30.6209Y19.2535
N2821    G01 X30.6607Y19.3197
N2822    G01 X30.6935Y19.3890
N2823    G01 X30.7198Y19.4626
N2824    G01 X30.7383Y19.5368
N2825    G01 X30.7495Y19.6123
N2826    G01 X30.7534Y19.6898
N2827    G01 X30.7501Y19.7594
N2828    G01 X30.7487Y19.7741
N2829    G01 X30.7396Y19.8357
N2830    G01 X30.7367Y19.8501
N2831    G01 X30.7198Y19.9170
N2832    G01 X30.6935Y19.9906
N2833    G01 X30.6640Y20.0533
N2834    G01 X30.6571Y20.0663
N2835    G01 X30.6209Y20.1261
N2836    G01 X30.5797Y20.1820
N2837    G01 X30.5704Y20.1934
N2838    G01 X30.5235Y20.2449
N2839    G01 X29.9458Y20.8225
N2840    G01 X30.4244Y20.8225
N2841    G01 X30.4435Y20.8115
N2842    G01 X30.4570Y20.8059
N2843    G01 X30.4710Y20.8016
N2844    G01 X30.4854Y20.7988
N2845    G01 X30.5076Y20.7971
N2846    G01 X31.0547Y20.7971
N2847    G01 X31.0769Y20.7988
N2848    G01 X31.0913Y20.8016
N2849    G01 X31.1053Y20.8059
N2850    G01 X31.1189Y20.8115
N2851    G01 X31.1379Y20.8225
N2852    G01 X31.6165Y20.8225
N2853    G01 X31.0389Y20.2449
N2854    G01 X30.9869Y20.1875
N2855    G01 X30.9414Y20.1261
N2856    G01 X30.9017Y20.0599
N2857    G01 X30.8689Y19.9906
N2858    G01 X30.8451Y19.9247
N2859    G01 X30.8408Y19.9106
N2860    G01 X30.8240Y19.8428
N2861    G01 X30.8137Y19.7741
N2862    G01 X30.8122Y19.7594
N2863    G01 X30.8090Y19.6898
N2864    G01 X30.8128Y19.6123
N2865    G01 X30.8228Y19.5439
N2866    G01 X30.8257Y19.5295
N2867    G01 X30.8408Y19.4690
N2868    G01 X30.8451Y19.4549
N2869    G01 X30.8689Y19.3890
N2870    G01 X30.8984Y19.3263
N2871    G01 X30.9053Y19.3133
N2872    G01 X30.9373Y19.2599
N2873    G01 X30.9455Y19.2477
N2874    G01 X30.9869Y19.1921
N2875    G01 X31.0389Y19.1347
N2876    G01 X31.0963Y19.0827
N2877    G01 X31.1518Y19.0413
N2878    G01 X31.1641Y19.0332
N2879    G01 X31.2175Y19.0011
N2880    G01 X31.2305Y18.9942
N2881    G01 X31.2932Y18.9647
N2882    G01 X31.3668Y18.9384
N2883    G01 X31.4337Y18.9215
N2884    G01 X31.4481Y18.9186
N2885    G01 X31.5165Y18.9086
N2886    G01 X31.5866Y18.9050
N2887    G01 X34.0705Y18.9048
N2888    G01 X34.1479Y18.9086
N2889    G01 X34.2164Y18.9186
N2890    G01 X34.2308Y18.9215
N2891    G01 X34.2976Y18.9384
N2892    G01 X34.3640Y18.9619
N2893    G01 X34.3776Y18.9675
N2894    G01 X34.4405Y18.9975
N2895    G01 X34.5068Y19.0372
N2896    G01 X34.5626Y19.0784
N2897    G01 X34.5740Y19.0878
N2898    G01 X34.6255Y19.1347
N2899    G01 X58.0545Y42.5611
N2900    G01 X58.1061Y42.6181
N2901    G01 X58.1486Y42.6752
N2902    G01 X58.1569Y42.6875
N2903    G01 X58.1891Y42.7415
N2904    G01 X58.1960Y42.7546
N2905    G01 X58.2257Y42.8184
N2906    G01 X58.4555Y43.3787
N2907    G01 X58.8582Y43.7814
N2908    G01 X59.3875Y44.0000
N2909    G01 X59.9599Y44.0000
N2910    G01 X60.4891Y43.7814
N2911    G01 X60.9761Y43.2944
N2912    G01 X61.0033Y43.2647
N2913    G01 X61.0548Y43.2178
N2914    G01 X61.0662Y43.2085
N2915    G01 X61.1220Y43.1672
N2916    G01 X61.1819Y43.1311
N2917    G01 X61.1949Y43.1242
N2918    G01 X61.2576Y43.0947
N2919    G01 X61.3235Y43.0709
N2920    G01 X61.3376Y43.0666
N2921    G01 X61.4054Y43.0499
N2922    G01 X61.4741Y43.0395
N2923    G01 X61.4888Y43.0380
N2924    G01 X61.5584Y43.0348
N2925    G01 X67.0722Y43.0348
N2926    G01 X67.2444Y42.9638
N2927    G01 X67.4879Y42.7186
N2928    G01 X68.3295Y41.8771
N2929    G01 X68.4010Y41.7035
N2930    G01 X68.4012Y41.4629
N2931    G01 X68.4048Y41.3928
N2932    G01 X68.4148Y41.3244
N2933    G01 X68.4177Y41.3100
N2934    G01 X68.4346Y41.2431
N2935    G01 X68.4581Y41.1768
N2936    G01 X68.4637Y41.1632
N2937    G01 X68.4904Y41.1068
N2938    G01 X68.4973Y41.0938
N2939    G01 X68.5293Y41.0404
N2940    G01 X68.5375Y41.0282
N2941    G01 X68.5789Y40.9726
N2942    G01 X68.6258Y40.9206
N2943    G01 X68.6362Y40.9101
N2944    G01 X68.6883Y40.8632
N2945    G01 X68.7438Y40.8218
N2946    G01 X68.7561Y40.8137
N2947    G01 X68.8159Y40.7780
N2948    G01 X68.8852Y40.7452
N2949    G01 X68.9588Y40.7189
N2950    G01 X69.0257Y40.7020
N2951    G01 X69.0401Y40.6991
N2952    G01 X69.1085Y40.6891
N2953    G01 X69.1860Y40.6853
N2954    G01 X69.2634Y40.6891
N2955    G01 X69.3390Y40.7004
N2956    G01 X69.4131Y40.7189
N2957    G01 X69.4868Y40.7452
N2958    G01 X69.5561Y40.7780
N2959    G01 X69.6159Y40.8137
N2960    G01 X69.6281Y40.8218
N2961    G01 X69.6836Y40.8632
N2962    G01 X69.7395Y40.9137
N2963    G01 X70.3187Y41.4928
N2964    G01 X70.3187Y41.0142
N2965    G01 X70.3077Y40.9952
N2966    G01 X70.3021Y40.9817
N2967    G01 X70.2978Y40.9676
N2968    G01 X70.2949Y40.9533
N2969    G01 X70.2933Y40.9310
N2970    G01 X70.2933Y40.3840
N2971    G01 X70.2949Y40.3617
N2972    G01 X70.2978Y40.3474
N2973    G01 X70.3021Y40.3333
N2974    G01 X70.3077Y40.3198
N2975    G01 X70.3187Y40.3008
N2976    G01 X70.3187Y39.8246
N2977    G01 X70.2879Y39.8529
N2978    G01 X69.7411Y40.3998
N2979    G01 X69.6896Y40.4467
N2980    G01 X69.6782Y40.4560
N2981    G01 X69.6223Y40.4973
N2982    G01 X69.5624Y40.5334
N2983    G01 X69.5495Y40.5403
N2984    G01 X69.4868Y40.5698
N2985    G01 X69.4131Y40.5961
N2986    G01 X69.3463Y40.6130
N2987    G01 X69.3319Y40.6159
N2988    G01 X69.2702Y40.6250
N2989    G01 X69.2556Y40.6265
N2990    G01 X69.1860Y40.6297
N2991    G01 X69.1085Y40.6259
N2992    G01 X69.0330Y40.6146
N2993    G01 X68.9588Y40.5961
N2994    G01 X68.8852Y40.5698
N2995    G01 X68.8159Y40.5370
N2996    G01 X68.7496Y40.4973
N2997    G01 X68.6883Y40.4518
N2998    G01 X68.6309Y40.3998
N2999    G01 X68.5789Y40.3424
N3000    G01 X68.5334Y40.2810
N3001    G01 X68.4937Y40.2148
N3002    G01 X68.4609Y40.1455
N3003    G01 X68.4346Y40.0719
N3004    G01 X68.4160Y39.9977
N3005    G01 X68.4048Y39.9222
N3006    G01 X68.4010Y39.8447
N3007    G01 X68.4010Y19.6090
N3008    G01 X68.3289Y19.4341
N3009    G01 X68.0863Y19.1898
N3010    G01 X67.2230Y18.3264
N3011    G01 X67.1933Y18.2992
N3012    G01 X67.1661Y18.2695
N3013    G01 X65.9581Y17.0615
N3014    G01 X65.9283Y17.0343
N3015    G01 X65.9012Y17.0046
N3016    G01 X64.6906Y15.7940
N3017    G01 X64.6609Y15.7669
N3018    G01 X64.6337Y15.7371
N3019    G01 X63.4257Y14.5291
N3020    G01 X63.3960Y14.5019
N3021    G01 X63.3688Y14.4722
N3022    G01 X62.4833Y13.5867
N3023    G01 X62.3097Y13.5152
N3024    G01 X60.3138Y13.5152
N3025    G01 X60.2442Y13.5120
N3026    G01 X60.2295Y13.5105
N3027    G01 X60.1608Y13.5001
N3028    G01 X60.0866Y13.4816
N3029    G01 X60.0130Y13.4553
N3030    G01 X59.9437Y13.4225
N3031    G01 X59.8774Y13.3828
N3032    G01 X59.8161Y13.3373
N3033    G01 X59.7640Y13.2904
N3034    G01 X59.7460Y13.2726
N3035    G01 X59.6991Y13.2211
N3036    G01 X59.6897Y13.2097
N3037    G01 X59.6485Y13.1538
N3038    G01 X59.6124Y13.0940
N3039    G01 X59.6054Y13.0810
N3040    G01 X59.5788Y13.0246
N3041    G01 X59.5732Y13.0110
N3042    G01 X59.5496Y12.9447
N3043    G01 X59.5328Y12.8778
N3044    G01 X59.5299Y12.8634
N3045    G01 X59.5199Y12.7950
N3046    G01 X59.5161Y12.7175
N3047    G01 X59.5199Y12.6400
N3048    G01 X59.5299Y12.5716
N3049    G01 X59.5328Y12.5572
N3050    G01 X59.5496Y12.4903
N3051    G01 X59.5760Y12.4167
N3052    G01 X59.6088Y12.3474
N3053    G01 X59.6444Y12.2876
N3054    G01 X59.6526Y12.2754
N3055    G01 X59.6940Y12.2198
N3056    G01 X59.7445Y12.1640
N3057    G01 X60.0444Y11.8640
N3058    G01 X60.0444Y11.0310
N3059    G01 X59.7460Y10.7326
N3060    G01 X59.6991Y10.6811
N3061    G01 X59.6897Y10.6697
N3062    G01 X59.6485Y10.6138
N3063    G01 X59.6124Y10.5540
N3064    G01 X59.6054Y10.5410
N3065    G01 X59.5788Y10.4846
N3066    G01 X59.5732Y10.4710
N3067    G01 X59.5496Y10.4047
N3068    G01 X59.5311Y10.3305
N3069    G01 X59.5207Y10.2618
N3070    G01 X59.5193Y10.2471
N3071    G01 X59.5161Y10.1775
N3072    G01 X59.5193Y10.1079
N3073    G01 X59.5207Y10.0932
N3074    G01 X59.5311Y10.0245
N3075    G01 X59.5479Y9.9567
N3076    G01 X59.5522Y9.9426
N3077    G01 X59.5760Y9.8767
N3078    G01 X59.6054Y9.8140
N3079    G01 X59.6124Y9.8010
N3080    G01 X59.6485Y9.7412
N3081    G01 X59.6940Y9.6798
N3082    G01 X59.7445Y9.6240
N3083    G01 X60.0444Y9.3240
N3084    G01 X60.0444Y8.4910
N3085    G01 X59.4552Y7.9018
N3086    G01 X58.6222Y7.9018
N3087    G01 X58.5686Y7.9553
N3088    G01 X58.5186Y8.0007
N3089    G01 X58.5073Y8.0101
N3090    G01 X58.4572Y8.0472
N3091    G01 X58.4450Y8.0554
N3092    G01 X58.3851Y8.0910
N3093    G01 X58.3222Y8.1210
N3094    G01 X58.3086Y8.1266
N3095    G01 X58.2422Y8.1502
N3096    G01 X58.1681Y8.1687
N3097    G01 X58.0925Y8.1799
N3098    G01 X58.0224Y8.1836
N3099    G01 X58.0077Y8.1836
N3100    G01 X57.9376Y8.1799
N3101    G01 X57.8621Y8.1687
N3102    G01 X57.7879Y8.1502
N3103    G01 X57.7143Y8.1238
N3104    G01 X57.6450Y8.0910
N3105    G01 X57.5787Y8.0513
N3106    G01 X57.5174Y8.0058
N3107    G01 X57.4653Y7.9589
N3108    G01 X57.4335Y7.9274
N3109    G01 X57.3716Y7.9018
N3110    G01 X55.6283Y7.9018
N3111    G01 X55.5664Y7.9274
N3112    G01 X55.5178Y7.9759
N3113    G01 X55.4930Y8.0356
N3114    G01 X55.4930Y9.7794
N3115    G01 X55.5108Y9.8223
N3116    G01 X55.5212Y9.8445
N3117    G01 X55.5536Y9.8776
N3118    G01 X55.6012Y9.9314
N3119    G01 X55.6460Y9.9928
N3120    G01 X55.6851Y10.0592
N3121    G01 X55.7170Y10.1279
N3122    G01 X55.7429Y10.2020
N3123    G01 X55.7606Y10.2744
N3124    G01 X55.7715Y10.3510
N3125    G01 X55.7749Y10.4268
N3126    G01 X55.7708Y10.5040
N3127    G01 X55.7591Y10.5805
N3128    G01 X55.7407Y10.6532
N3129    G01 X55.7171Y10.7191
N3130    G01 X55.7115Y10.7326
N3131    G01 X55.6817Y10.7949
N3132    G01 X55.6460Y10.8546
N3133    G01 X55.6379Y10.8667
N3134    G01 X55.6010Y10.9165
N3135    G01 X55.5917Y10.9278
N3136    G01 X55.5465Y10.9774
N3137    G01 X55.4930Y11.0310
N3138    G01 X55.4930Y11.8640
N3139    G01 X55.7929Y12.1640
N3140    G01 X55.8434Y12.2198
N3141    G01 X55.8848Y12.2754
N3142    G01 X55.8929Y12.2876
N3143    G01 X55.9286Y12.3474
N3144    G01 X55.9586Y12.4104
N3145    G01 X55.9642Y12.4240
N3146    G01 X55.9877Y12.4903
N3147    G01 X56.0062Y12.5645
N3148    G01 X56.0166Y12.6332
N3149    G01 X56.0181Y12.6479
N3150    G01 X56.0213Y12.7175
N3151    G01 X56.0181Y12.7871
N3152    G01 X56.0166Y12.8018
N3153    G01 X56.0062Y12.8705
N3154    G01 X55.9877Y12.9447
N3155    G01 X55.9642Y13.0110
N3156    G01 X55.9586Y13.0246
N3157    G01 X55.9286Y13.0876
N3158    G01 X55.8929Y13.1474
N3159    G01 X55.8848Y13.1596
N3160    G01 X55.8434Y13.2152
N3161    G01 X55.7929Y13.2710
N3162    G01 X55.4930Y13.5710
N3163    G01 X55.4930Y14.4040
N3164    G01 X55.7929Y14.7040
N3165    G01 X55.8434Y14.7598
N3166    G01 X55.8848Y14.8154
N3167    G01 X55.8929Y14.8276
N3168    G01 X55.9286Y14.8874
N3169    G01 X55.9586Y14.9504
N3170    G01 X55.9642Y14.9640
N3171    G01 X55.9877Y15.0303
N3172    G01 X56.0062Y15.1045
N3173    G01 X56.0166Y15.1732
N3174    G01 X56.0181Y15.1879
N3175    G01 X56.0213Y15.2575
N3176    G01 X56.0181Y15.3271
N3177    G01 X56.0166Y15.3418
N3178    G01 X56.0062Y15.4105
N3179    G01 X55.9877Y15.4847
N3180    G01 X55.9642Y15.5510
N3181    G01 X55.9586Y15.5646
N3182    G01 X55.9286Y15.6276
N3183    G01 X55.8929Y15.6874
N3184    G01 X55.8848Y15.6996
N3185    G01 X55.8434Y15.7552
N3186    G01 X55.7929Y15.8110
N3187    G01 X55.4930Y16.1110
N3188    G01 X55.4930Y16.9440
N3189    G01 X55.7929Y17.2440
N3190    G01 X55.8434Y17.2998
N3191    G01 X55.8848Y17.3554
N3192    G01 X55.8929Y17.3676
N3193    G01 X55.9286Y17.4274
N3194    G01 X55.9586Y17.4904
N3195    G01 X55.9642Y17.5040
N3196    G01 X55.9877Y17.5703
N3197    G01 X56.0062Y17.6445
N3198    G01 X56.0166Y17.7132
N3199    G01 X56.0181Y17.7279
N3200    G01 X56.0213Y17.7975
N3201    G01 X56.0181Y17.8671
N3202    G01 X56.0166Y17.8818
N3203    G01 X56.0062Y17.9505
N3204    G01 X55.9877Y18.0247
N3205    G01 X55.9642Y18.0910
N3206    G01 X55.9586Y18.1046
N3207    G01 X55.9286Y18.1676
N3208    G01 X55.8929Y18.2274
N3209    G01 X55.8848Y18.2396
N3210    G01 X55.8434Y18.2952
N3211    G01 X55.7929Y18.3510
N3212    G01 X55.4930Y18.6510
N3213    G01 X55.4930Y19.4840
N3214    G01 X55.7929Y19.7840
N3215    G01 X55.8434Y19.8398
N3216    G01 X55.8848Y19.8954
N3217    G01 X55.8929Y19.9076
N3218    G01 X55.9286Y19.9674
N3219    G01 X55.9586Y20.0304
N3220    G01 X55.9642Y20.0440
N3221    G01 X55.9877Y20.1103
N3222    G01 X56.0062Y20.1845
N3223    G01 X56.0166Y20.2532
N3224    G01 X56.0181Y20.2679
N3225    G01 X56.0213Y20.3375
N3226    G01 X56.0181Y20.4071
N3227    G01 X56.0166Y20.4218
N3228    G01 X56.0062Y20.4905
N3229    G01 X55.9877Y20.5647
N3230    G01 X55.9642Y20.6310
N3231    G01 X55.9586Y20.6446
N3232    G01 X55.9286Y20.7076
N3233    G01 X55.8929Y20.7674
N3234    G01 X55.8848Y20.7796
N3235    G01 X55.8434Y20.8352
N3236    G01 X55.7929Y20.8910
N3237    G01 X55.4930Y21.1910
N3238    G01 X55.4930Y22.0240
N3239    G01 X55.7929Y22.3240
N3240    G01 X55.8434Y22.3798
N3241    G01 X55.8848Y22.4354
N3242    G01 X55.8929Y22.4476
N3243    G01 X55.9286Y22.5074
N3244    G01 X55.9586Y22.5704
N3245    G01 X55.9642Y22.5840
N3246    G01 X55.9877Y22.6503
N3247    G01 X56.0062Y22.7245
N3248    G01 X56.0166Y22.7932
N3249    G01 X56.0181Y22.8079
N3250    G01 X56.0213Y22.8775
N3251    G01 X56.0175Y22.9550
N3252    G01 X56.0075Y23.0234
N3253    G01 X56.0046Y23.0378
N3254    G01 X55.9895Y23.0983
N3255    G01 X55.9852Y23.1124
N3256    G01 X55.9614Y23.1783
N3257    G01 X55.9286Y23.2476
N3258    G01 X55.8889Y23.3138
N3259    G01 X55.8434Y23.3752
N3260    G01 X55.7929Y23.4310
N3261    G01 X55.6247Y23.5992
N3262    G01 X55.5689Y23.6497
N3263    G01 X55.5133Y23.6911
N3264    G01 X55.5011Y23.6992
N3265    G01 X55.4413Y23.7349
N3266    G01 X55.3720Y23.7677
N3267    G01 X55.2984Y23.7940
N3268    G01 X55.2242Y23.8125
N3269    G01 X55.1487Y23.8238
N3270    G01 X55.0786Y23.8274
N3271    G01 X55.0509Y23.8276
N3272    G01 X54.9734Y23.8238
N3273    G01 X54.9050Y23.8138
N3274    G01 X54.8906Y23.8109
N3275    G01 X54.8237Y23.7940
N3276    G01 X54.7573Y23.7705
N3277    G01 X54.7437Y23.7649
N3278    G01 X54.6874Y23.7382
N3279    G01 X54.6744Y23.7313
N3280    G01 X54.6145Y23.6952
N3281    G01 X54.5532Y23.6497
N3282    G01 X54.4958Y23.5977
N3283    G01 X53.5560Y22.6579
N3284    G01 X53.5091Y22.6064
N3285    G01 X53.4997Y22.5950
N3286    G01 X53.4585Y22.5391
N3287    G01 X53.4188Y22.4729
N3288    G01 X53.3860Y22.4036
N3289    G01 X53.3622Y22.3377
N3290    G01 X53.3579Y22.3236
N3291    G01 X53.3411Y22.2558
N3292    G01 X53.3308Y22.1871
N3293    G01 X53.3293Y22.1724
N3294    G01 X53.3261Y22.1028
N3295    G01 X53.3261Y16.4630
N3296    G01 X53.2775Y16.3460
N3297    G01 X53.0773Y16.1442
N3298    G01 X52.7272Y15.7940
N3299    G01 X52.6975Y15.7669
N3300    G01 X52.6703Y15.7371
N3301    G01 X51.4623Y14.5291
N3302    G01 X51.4326Y14.5019
N3303    G01 X51.4054Y14.4722
N3304    G01 X50.6493Y13.7162
N3305    G01 X50.5316Y13.6676
N3306    G01 X31.9541Y13.6676
N3307    G01 X31.8797Y13.6638
N3308    G01 X31.8113Y13.6538
N3309    G01 X31.7969Y13.6509
N3310    G01 X31.7300Y13.6340
N3311    G01 X31.6637Y13.6105
N3312    G01 X31.6501Y13.6049
N3313    G01 X31.5871Y13.5749
N3314    G01 X31.5273Y13.5392
N3315    G01 X31.5151Y13.5311
N3316    G01 X31.4595Y13.4897
N3317    G01 X31.4037Y13.4392
N3318    G01 X31.1240Y13.1596
N3319    G01 X30.4383Y13.1596
N3320    G01 X30.2095Y13.3884
N3321    G01 X30.1536Y13.4389
N3322    G01 X30.0923Y13.4844
N3323    G01 X30.0260Y13.5241
N3324    G01 X29.9568Y13.5569
N3325    G01 X29.8831Y13.5832
N3326    G01 X29.8090Y13.6017
N3327    G01 X29.7334Y13.6130
N3328    G01 X29.6590Y13.6168
N3329    G01 X28.7283Y13.6168
N3330    G01 X28.6618Y13.6136
N3331    G01 X28.6471Y13.6121
N3332    G01 X28.5784Y13.6017
N3333    G01 X28.5106Y13.5850
N3334    G01 X28.4965Y13.5807
N3335    G01 X28.4306Y13.5569
N3336    G01 X28.3679Y13.5274
N3337    G01 X28.3549Y13.5205
N3338    G01 X28.2951Y13.4844
N3339    G01 X28.2392Y13.4431
N3340    G01 X28.2278Y13.4338
N3341    G01 X28.1779Y13.3884
N3342    G01 X27.9490Y13.1596
N3343    G01 X27.2633Y13.1596
N3344    G01 X26.7783Y13.6446
N3345    G01 X26.7783Y14.3304
N3346    G01 X27.2633Y14.8154
N3347    G01 X27.9490Y14.8154
N3348    G01 X28.1779Y14.5866
N3349    G01 X28.2278Y14.5412
N3350    G01 X28.2392Y14.5319
N3351    G01 X28.2951Y14.4906
N3352    G01 X28.3549Y14.4545
N3353    G01 X28.3679Y14.4476
N3354    G01 X28.4306Y14.4181
N3355    G01 X28.4965Y14.3943
N3356    G01 X28.5106Y14.3900
N3357    G01 X28.5784Y14.3733
N3358    G01 X28.6471Y14.3629
N3359    G01 X28.6618Y14.3614
N3360    G01 X28.7283Y14.3582
N3361    G01 X29.6590Y14.3582
N3362    G01 X29.7256Y14.3614
N3363    G01 X29.7402Y14.3629
N3364    G01 X29.8090Y14.3733
N3365    G01 X29.8767Y14.3900
N3366    G01 X29.8908Y14.3943
N3367    G01 X29.9568Y14.4181
N3368    G01 X30.0260Y14.4509
N3369    G01 X30.0923Y14.4906
N3370    G01 X30.1482Y14.5319
N3371    G01 X30.1595Y14.5412
N3372    G01 X30.2095Y14.5866
N3373    G01 X30.4383Y14.8154
N3374    G01 X31.1240Y14.8154
N3375    G01 X31.4037Y14.5358
N3376    G01 X31.4595Y14.4853
N3377    G01 X31.5151Y14.4439
N3378    G01 X31.5273Y14.4358
N3379    G01 X31.5871Y14.4001
N3380    G01 X31.6501Y14.3701
N3381    G01 X31.6637Y14.3645
N3382    G01 X31.7300Y14.3410
N3383    G01 X31.7969Y14.3241
N3384    G01 X31.8113Y14.3212
N3385    G01 X31.8797Y14.3112
N3386    G01 X31.9541Y14.3074
N3387    G01 X50.0090Y14.3074
N3388    G01 X50.0786Y14.3106
N3389    G01 X50.0932Y14.3121
N3390    G01 X50.1620Y14.3225
N3391    G01 X50.2361Y14.3410
N3392    G01 X50.3025Y14.3645
N3393    G01 X50.3161Y14.3701
N3394    G01 X50.3791Y14.4001
N3395    G01 X50.4389Y14.4358
N3396    G01 X50.4511Y14.4439
N3397    G01 X50.5066Y14.4853
N3398    G01 X50.5641Y14.5373
N3399    G01 X52.4579Y16.4312
N3400    G01 X52.5033Y16.4811
N3401    G01 X52.5126Y16.4925
N3402    G01 X52.5538Y16.5484
N3403    G01 X52.5900Y16.6082
N3404    G01 X52.5969Y16.6212
N3405    G01 X52.6264Y16.6839
N3406    G01 X52.6527Y16.7575
N3407    G01 X52.6712Y16.8317
N3408    G01 X52.6816Y16.9004
N3409    G01 X52.6830Y16.9151
N3410    G01 X52.6863Y16.9847
N3411    G01 X52.6863Y22.6245
N3412    G01 X52.7342Y22.7400
N3413    G01 X54.4131Y24.4188
N3414    G01 X54.5308Y24.4674
N3415    G01 X55.0712Y24.4674
N3416    G01 X55.1408Y24.4706
N3417    G01 X55.1555Y24.4721
N3418    G01 X55.2171Y24.4812
N3419    G01 X55.2315Y24.4841
N3420    G01 X55.2984Y24.5010
N3421    G01 X55.3647Y24.5245
N3422    G01 X55.3783Y24.5301
N3423    G01 X55.4413Y24.5601
N3424    G01 X55.5011Y24.5958
N3425    G01 X55.5133Y24.6039
